!!!!SEGMENT: pl-wumfc--r264_paderewski-ignacy-jan--tema.krn
!!!cenid: 18xx:3151
!!!COM: Paderewski, Ignacy Jan
!!!COM-rismID: pe30029943
!!!CDT: 1860/11/18-1941/06/29
!!!CNT: Polish
!!!OTL: Tema
!!!PDT:
!!!AGN:
!!!SMS-siglum: PL-Wumfc
!!!SMS-shelfmark: R264
!!!SMS-shelfwork: W
!!!SMS-variant:
!!!SMS-altvar:
!!!NIFC-rismSourceID: 1001156662
!!!NIFC-islandoraID: pl-wumfc:294
!!!URL-pdf-islandora: https://repozytorium.nifc.pl/islandora/object/pl-wumfc%3A294/datastream/PDF/view
!!!URL-scan: https://polish.musicsources.pl/pl/lokalizacje/galeria/rekopisy/4684 @EN{Scan on Polish Music Sources Website} @PL{Skany w portalu Dziedzictwo Muzyki Polskiej w otwartym dostępie}
!!!ONB-nifc:
!!!AIN: 2 piano
!!!key: a
**kern	**kern	**dynam
*part2	*part1	*part1
*group2	*group1	*
*staff2	*staff1	*
*I"[Pianoforte]	*I"[Pianoforte]	*
*Ipiano	*Ipiano	*
*ICklav	*ICklav	*
*IGsolo	*IGsolo	*
*clefF4	*clefG2	*
*k[]	*k[]	*
*a:	*a:	*
*M2/4	*M2/4	*
!	!LO:TX:a:B:t=Andantino non troppo.	!
(8E\	(8e/	.
=1	=1	=1
8A\L)	8aL 8e 8c/)	.
8A\J	8aJ 8e 8c/	.
8E\L	8bL 8g 8e/	.
8E\J	8bJ 8g 8e/	.
=2	=2	=2
.	(<8qdd/	.
4C\	4cc) 4g 4e/	.
8D\L	8bL 8f 8d/	.
8D#X\J	8aJ 8f 8c/	.
=3	=3	=3
*	*^	*
8E\L	8g#XL 8e 8B/	4ryy	.
8C\	8a 8e 8A/	.	.
8D\	8f/	4d 4A\	.
8BB\J	16gn/L	.	.
.	16f/JJ	.	.
*	*v	*v	*
=4	=4	=4
(8E\L	4.e 4.d 4.G#X/	.
8BB\	.	.
8EE\J)	.	.
8E\	8e/	.
=5	=5	=5
8A\L	8aL 8e 8c/	.
8A\J	8aJ 8e 8c/	.
8G\L	8bL 8g 8d/	.
8G\J	8bJ 8g 8d/	.
=6	=6	=6
.	8qdd/	.
4C\	4cc 4g 4e/	.
8D\L	8bL 8f#X 8d/	.
8D#X\J	8aJ 8f# 8c/	.
!!linebreak:original
=7	=7	=7
*	*^	*
8E\L	8gL 8e 8B/	4.ryy	.
8GG\	8b 8e 8B/	.	.
8AA\	8a 8e 8c/	.	.
8BB\J	16f#X/L	8d#X 8A\	.
.	16g/JJ	.	.
*	*v	*v	*
=8	=8	=8
(8E\L	4.e 4.B 4.G/	.
8BB\	.	.
8EE\J)	.	.
(8G\	(>8g/	.
=9||	=9||	=9||
*^	*^	*
8c:L 8G: 8C:\)	4ryy	8ee:L 8g: 8e:/)	4ryy	.
8cJ 8G 8C\	.	8eeJ 8g 8e/	.	.
.	.	(8qee/	.	.
8c/L	4F\	8a/L)	4e\	.
16B/L	.	16b/L	.	.
16A/JJ	.	16cc/JJ	.	.
*v	*v	*	*	*
=10	=10	=10	=10
(8BL 8F 8BB\	8ddL 8a 8d/	8ryy	.
.	8qdd/	.	.
8E\J	16cc/L	8g#X 8d\	.
.	16b/JJ	.	.
8AA\)	8cc 8a 8c/	4ryy	.
8E\	8e/	.	.
=11	=11	=11	=11
*^	*	*	*
8AL 8E 8AA\	4ryy	8ccL 8e 8c/	4ryy	.
8AJ 8E 8AA\	.	8ccJ 8e 8c/	.	.
.	.	8qcc/	.	.
8A/L	4D\	8f/L	4c\	.
16G/L	.	16g/L	.	.
16F/JJ	.	16a/JJ	.	.
*v	*v	*	*	*
=12	=12	=12	=12
(8GL 8D 8GG\	(8b-XL 8f 8B-X/	8ryy	.
.	(<8qb-/	.	.
8C\J	16a/L)	8e 8B-\	.
.	16g/JJ	.	.
8FF\)	8a 8f 8A/)	4ryy	.
8E\	(8e/	.	.
*	*v	*v	*
=13	=13	=13
8A\L	8aL 8e 8c/)	.
8A\J	8aJ 8e 8c/	.
8G\L	8bL 8g 8d/	.
8G\J	8bJ 8g 8d/	.
!!linebreak:original
=14	=14	=14
.	(<8qdd/	.
4C\	4cc) 4g 4e/	.
8D\L	8bL 8f 8d/	.
8D#X\J	8aJ 8f 8c/	.
=15	=15	=15
*	*^	*
8E\L	8g#XL 8e 8B/	4.ryy	.
8C\	8aJ 8e 8c/	.	.
8BB\	8bL 8a 8d/	.	.
8E\J	16ccL 16g#X 16d/	8d\	.
.	16b/JJ	.	.
*	*v	*v	*
=	=	=
(8AA\L	4.a 4.e 4.c/	.
8EE\	.	.
8AAA\J)	.	.
=16||	=16||	=16||
!	!LO:TX:a:B:t=1 Var&colon;	!
8E\	16ee\LL	.
.	16dd\JJ	.
=17	=17	=17
8A\L	16dd\LL	.
.	16cc\	.
8A\J	16b\	.
.	16a\JJ	.
8B\L	16g/LL	.
.	16a/	.
8B\J	16g/	.
.	16f/JJ	.
=18	=18	=18
(<8qd/	.	.
4c\)	16e/LL	.
.	16g/	.
.	16cc/	.
.	16ee/JJ	.
8B\L	16dd\LL	.
.	16ff\	.
8A\J	16cc\	.
.	16ff\JJ	.
=19	=19	=19
8G#X\L	16ee\LL	.
.	16dd\	.
8A\	16cc\	.
.	16ee\JJ	.
8F\	16dd\LL	.
.	16cc\	.
16Gn\L	16b\	.
16F\JJ	16a\JJ	.
=20	=20	=20
4.E\	16g#X/LL	.
.	16a/	.
.	16b/	.
.	16g#/JJ	.
.	16e/LL	.
.	16ff/	.
8E\	16ee/	.
.	16dd/JJ	.
!!linebreak:original
=21	=21	=21
8A\L	16dd/LL	.
.	16cc/	.
8A\J	16b/	.
.	16a/JJ	.
8B\L	16g/LL	.
.	16aa/	.
8B\J	16gg/	.
.	16ff/JJ	.
=22	=22	=22
(<8qd/	.	.
4c\)	16ee\LL	.
.	16ff\	.
.	16gg\	.
.	16ee\JJ	.
8B\L	16dd\LL	.
.	16ff\	.
8A\J	16cc\	.
.	16ff#X\JJ	.
=23	=23	=23
8G\L	16b\LL	.
.	16bb\	.
8B\	16aa\	.
.	16gg\JJ	.
8A\	16ff#X\LL	.
.	16gg\	.
16F#X\L	16aa\	.
16G\JJ	16dd#X\JJ	.
=24	=24	=24
4.E\	16ee\LL	.
.	16b\	.
.	16g\	.
.	16b\JJ	.
.	16e/LL	.
.	16d#X/	.
8G\	16e/	.
.	16f#X/JJ	.
=25||	=25||	=25||
8e\L	16g/LL	.
.	16f#X/	.
8e\J	16g/	.
.	16g#X/JJ	.
8A\L	16a/LL	.
.	16cc/	.
16B\L	16dd/	.
16c\JJ	16ee/JJ	.
=26	=26	=26
(8d\L	16ff/LL	.
.	16b/	.
(8qd/	.	.
16c\L)	16ee/	.
16B\J	16g#X/JJ	.
8c\J)	16a/LL	.
.	16b/	.
8E\	16cc/	.
.	16c/JJ	.
=27	=27	=27
8c\L	16e/LL	.
.	16d/	.
8c\J	16e/	.
.	16g/JJ	.
8F\L	16a/LL	.
.	16f/	.
16G\L	16b-X/	.
16A\JJ	16cc/JJ	.
!!linebreak:original
=28	=28	=28
(8B-X\L	16dd/LL	.
.	16g/	.
(8qB-/	.	.
16A\L)	16cc/	.
16G\J	16e/JJ	.
8A\)	16f/LL	.
.	16ff/	.
(8E\J	16ee/	.
.	16dd/JJ	.
=29	=29	=29
8A\L)	16dd/LL	.
.	16cc/	.
8A\J	16b/	.
.	16a/JJ	.
8B\L	16g/LL	.
.	16a/	.
8B\J	16g/	.
.	16f/JJ	.
=30	=30	=30
(<8qd/	.	.
4c\)	16e/LL	.
.	16g/	.
.	16cc/	.
.	16ee/JJ	.
8B\L	16dd/LL	.
.	16ff/	.
8A\J	16cc/	.
.	16ff/JJ	.
=31	=31	=31
8G#X\L	16ee/LL	.
.	16dd/	.
8A\	16cc/	.
.	16ee/JJ	.
8B\	16dd/LL	.
.	16e/	.
16c\L	16f#X/	.
16B\JJ	16g#X/JJ	.
=	=	=
4.A\	(16a/LL	.
.	16e/	.
.	16c/	.
.	16e/JJ	.
.	8A/)	.
=32||	=32||	=32||
*	*^	*
!	!LO:TX:a:B:t=II Var.	!	!
8r	8r	8e\	.
=33	=33	=33	=33
4r	16r	8a\L	.
.	16ee/LL	.	.
.	16ff/	8a\J	.
.	16ee/JJ	.	.
16r	8dd/L	8b\L	.
16e\LL	.	.	.
16f\	[8gg#X/J	8b\J	.
16e\JJ	.	.	.
=34	=34	=34	=34
.	.	(<8qdd/	.
8A\L	16gg#/LL]	4cc\)	.
.	16gg#X/	.	.
[8A\J	16aa/	.	.
.	16ff/JJ	.	.
!!linebreak:original
=-	=-	=-	=-
16A\LL]	8ee/L	8b\L	.
16G#X\	.	.	.
16A\	8cc/J	8a\J	.
16F\JJ	.	.	.
=35	=35	=35	=35
8E\L	16r	8g#X\L	.
.	16b/LL	.	.
16F\L	16dd/	8a\	.
16D\JJ	16cc/JJ	.	.
16r	4b/	8f\	.
(16B\LL	.	.	.
16e\	.	16gn\L	.
16d\JJ	.	16f\JJ	.
=36	=36	=36	=36
4c\)	16r	4.e\	.
.	16a/LL	.	.
.	16b/	.	.
.	16cc/JJ	.	.
16B\LL	8dd/L	.	.
16E\	.	.	.
16F#X\	16cc/L	8e\	.
16G#X\JJ	16b/JJ	.	.
=37	=37	=37	=37
8A\	8a/	8a\L	.
*	*Xtuplet	*	*
8r	24ee/LL	8a\J	.
.	24ff/	.	.
.	24ee/JJ	.	.
16r	4gg/	8b\L	.
16G\LL	.	.	.
16A\	.	8b\J	.
16G\JJ	.	.	.
=38	=38	=38	=38
.	.	(<8qdd/	.
16c\LL	4ee/	4cc\)	.
16C\	.	.	.
16D\	.	.	.
16C\JJ	.	.	.
8D\L	16r	8b\L	.
.	16ff#X/LL	.	.
8D#X\J	16gg/	8a\J	.
.	16ff#/JJ	.	.
=39	=39	=39	=39
16E\LL	4ee/	8g\L	.
16F#X\	.	.	.
16G\	.	8b\	.
16E\JJ	.	.	.
8A\L	16ff#X/LL	8a\	.
.	16ee/J	.	.
8B\J	8dd#X/J	16f#X\L	.
.	.	16g\JJ	.
=40	=40	=40	=40
4E\	16ee/LL	4.e\	.
.	16dd#X/	.	.
.	16ee/	.	.
.	16b/JJ	.	.
16e\LL	8g/	.	.
16d#X\	.	.	.
16e\	8g\	8ryy	.
16B\JJ	.	.	.
!!pagebreak:original
=41||	=41||	=41||	=41||
*^	*	*	*
4c/	16C\LL	(8eeL 8g 8e\	4ryy	.
.	16D\	.	.	.
.	16E\	8eeJ 8g 8e\	.	.
.	16C\JJ	.	.	.
8c/L	4F\	16a/LL	4e\	.
.	.	16b/	.	.
8A/J	.	16cc/	.	.
.	.	16a/JJ	.	.
*	*	*v	*v	*
=42	=42	=42	=42
4B/	16BB\LL	8ddL 8a 8d/	.
.	16F\J	.	.
.	8E\J	16ccL 16g#X 16e/	.
.	.	16bJJ 16g# 16d/	.
8AL 8AA\	4ryy	16ccLL 16a 16c/	.
.	.	16a/	.
(8C\J	.	(>16e/)	.
.	.	16a/JJ	.
=43	=43	=43	=43
*	*	*^	*
8A/L)	16AA\LL	8ccL 8f 8c/	4ryy	.
.	16BB-X\	.	.	.
8A/J	16C\	8ccJ 8f 8c/	.	.
.	16AA\JJ	.	.	.
8A/L	4D\	16f/LL	4c\	.
.	.	16g/	.	.
8F/J	.	16a/	.	.
.	.	16f/JJ	.	.
*	*	*v	*v	*
=44	=44	=44	=44
4G/	16GG\LL	8b-XL 8f 8B-X/	.
.	16D\J	.	.
.	8C\J	16aL 16e 16c/	.
.	.	16gJJ 16e 16B-/)	.
8F/	8FF\	8a 8f 8A/	.
(8E\	8ryy	(8e\	.
*v	*v	*	*
=45	=45	=45
*	*^	*
8A\)	16r	8a\L	.
.	16ee/LL)	.	.
8r	16ff/	8a\J	.
.	16ee/JJ	.	.
16r	8dd/L	8b\L	.
16e\LL	.	.	.
16f\	8gg#X/J	8b\J	.
16e\JJ	.	.	.
=46	=46	=46	=46
.	.	(16qqdd\	.
4A\	16r	4cc\)	.
.	16gg#X/LL	.	.
.	16aa/	.	.
.	16ff/JJ	.	.
16r	8ee/L	8b\L	.
16g#X\LL	.	.	.
16a\	8cc/J	8a\J	.
16f\JJ	.	.	.
!!linebreak:original
=47	=47	=47	=47
16d\LL	8b/	8b\L	.
16e\	.	.	.
16d\	8rgg	8cc\	.
16c\JJ	.	.	.
8B\L	16r	8dd\	.
.	16ee/LL	.	.
16e\L	16ff#X/	16cc\L	.
16d\JJ	16gg#X/JJ	16b\JJ	.
=48	=48	=48	=48
8c\L	16aa/LL	4.a\	.
.	16ee/	.	.
8A\J	16cc/	.	.
.	16ee/JJ	.	.
16A\LL	8a/	.	.
16E\	.	.	.
16C\	(>8e/	8ryy	.
16E\JJ	.	.	.
=49||	=49||	=49||	=49||
!	!LO:TX:t=P::problem=ołówkiem zmieniony numer wariacji&colon; 4 Var.	!	!
!	!LO:TX:a:B:t=3 Var.	!	!
8AA\L	16a/LL)	8r	.
.	16g#X/J	.	.
8cJ 8A 8E\	8a/J	8e 8c\	.
8EE\L	8b/L	8r	.
!LO:SIC:v:n=2:s=8G#	!	!	!
8BJ 8G 8E\	8b/J	8g# 8e\	.
=50	=50	=50	=50
8CC\L	16cc/LL	8r	.
.	16b/J	.	.
8cJ 8G 8E\	8cc/J	8g 8e\	.
8DL 8DD\	8bL 8f 8d/	4ryy	.
8D#XJ 8DD#X\	8aJ 8f 8c/	.	.
=51	=51	=51	=51
8EE\L	16g#X/LL	8r	.
.	16f##X/J	.	.
8E\J	8g#/J	8e 8B\	.
8AAL 8AAA\	8aL 8e 8c/	8ryy	.
*	*tuplet	*	*
!	!LO:TUP:a:problem=klamra łukowa	!	!
8BBJ 8BBB\	24fn/L	8fn 8d 8A\	.
.	24gn/	.	.
.	24f/JJ	.	.
=52	=52	=52	=52
*^	*	*	*
16E/LL	4EE\	4.e 4.B 4.G#X/	4.ryy	.
16D#X/J	.	.	.	.
8E/J	.	.	.	.
16EE\LL	4ryy	.	.	.
16DD#X\J	.	.	.	.
8EE\J	.	8e/	8r	.
*v	*v	*	*	*
!!linebreak:original
=53	=53	=53	=53
8AAA\L	16a/LL	8r	.
.	16g#X/J	.	.
8AJ 8E\	8a/J	8a 8e 8c\	.
8GG\L	8b/L	8r	.
!	!	!LO:SIC:v:n=1:s=8gn	!
8G\J	8b/J	8g# 8d\	.
=54	=54	=54	=54
8C\L	16cc/LL	8r	.
.	16b/J	.	.
8cJ 8G\	8cc/J	8g 8e\	.
8DL 8DD\	8bL 8f#X 8d/	4ryy	.
8D#XJ 8DD#X\	8aJ 8f# 8c/	.	.
=55	=55	=55	=55
8EE\L	16g/LL	8r	.
.	16f#X/J	.	.
8GJ 8E\	8g/J	8e 8B\	.
8AAL 8AAA\	8a/L	8eL 8c\	.
*	*Xtuplet	*	*
8BBJ 8BBB\	24f#/L	8d#XJ 8A\	.
.	24g/	.	.
.	24f#/JJ	.	.
*	*v	*v	*
=56	=56	=56
*^	*	*
16E/LL	4EE\	4.e 4.B 4.G/	.
16D#X/J	.	.	.
8E/J	.	.	.
4r	16EE\LL	.	.
.	16DD#X\J	.	.
.	8EE\J	8g/	.
=57||	=57||	=57||	=57||
*	*	*^	*
16GG/LL	8CC\L	8eeL 8g 8e/	4ryy	.
16FF#X/J	.	.	.	.
8GG/J	8CC\J	8eeJ 8g 8e/	.	.
16G/LL	8C\L	8a/L	4f\	.
16F#X/J	.	.	.	.
8G/J	8C\J	16b/L	.	.
.	.	16cc/JJ	.	.
=58	=58	=58	=58	=58
16GG/LL	8CC\L	8dd/L	8gL 8f\	.
16FF#X/J	.	.	.	.
8GG/J	8CC\J	16cc/L	8gJ 8f\	.
.	.	16b/JJ	.	.
16G/LL	8C\L	8cc/L	8g 8e\	.
16F#X/J	.	.	.	.
!	!	!LO:TX:t=P:łuk:problem	!	!
8G/J	8C\J	8e/J	8r	.
!!linebreak:original
=59	=59	=59	=59	=59
16E/LL	8AA\L	8ccL 8e 8c/	4ryy	.
16D#X/J	.	.	.	.
8E/J	8AA\J	8ccJ 8e 8c/	.	.
16A/LL	8D#\L	8f/L	4c\	.
16G#X/J	.	.	.	.
8A/J	8D#\J	16g/L	.	.
.	.	16a/JJ	.	.
=60	=60	=60	=60	=60
16D/LL	8GG\L	8b-X/L	8fL 8B-X\	.
16C#X/J	.	.	.	.
8Cn/J	8CC\J	16a/L	8eJ 8B-\	.
.	.	16g/JJ	.	.
16C/LL	8FF\	8a 8f 8A/	8ryy	.
16BB/J	.	.	.	.
8C/J	8r	8e/	8r	.
*v	*v	*	*	*
=61	=61	=61	=61
8AA\L	16a/LL	8r	.
.	16g#X/J	.	.
8AJ 8E\	8a/J	8e 8c\	.
8GG\L	8b/L	8r	.
!	!LO:SIC:v:n=2:s=8gn	!	!
8BJ 8G\	8bJ 8g# 8e/	8ryy	.
=62	=62	=62	=62
8CC\L	16cc/LL	8r	.
.	16b/J	.	.
8cJ 8G 8E\	8cc/J	8g 8e\	.
8DL 8DD\	8bL 8f 8d/	4ryy	.
8D#XJ 8DD#X\	8aJ 8f 8c/	.	.
=63	=63	=63	=63
8EE\L	16g#X/LL	8r	.
.	16f##X/J	.	.
!	!LO:TX:t=P:problem=pauza 8 w środku taktu	!	!
8dJ 8E\	8g#/J	8e 8B\	.
8AA\L	8a/L	8eL 8c\	.
8EE\J	24b/L	8g#J 8d\	.
.	24cc/	.	.
.	24b/JJ	.	.
*	*v	*v	*
=64	=64	=64
*^	*	*
16AA/LL	4AAA\	4.a 4.e 4.c/	.
16GG#X/J	.	.	.
!LO:TX:a:i:t=rit	!	!	!
8AA/J	.	.	.
4AAA\	4ryy	.	.
*	*	*tuplet	*
!	!	!LO:TUP:b:problem=klamra łukowa	!
.	.	24d#X/LL	.
.	.	24e/	.
!	!	!LO:TX:t=P::problem=ołówkiem zmieniony nr wariacji&colon; 2 Var	!
!	!	!LO:TX:a:B:t=4 Var	!
.	.	24dn/JJ	.
*v	*v	*	*
!!linebreak:original
=65||	=65||	=65||
*	*Xtuplet	*
!	!LO:TX:t=P:problem=na mrginesie 2 ołówkiem	!
8AA\L	24c/LL	.
.	24B/	.
.	24c/	.
8cJ 8A 8E\	24d#X/	.
.	24e/	.
.	24cc/JJ	.
8EE\L	24b/LL	.
.	24f#X/	.
.	24g/	.
8BJ 8G 8E\	24a#X/	.
.	24b/	.
.	24gg/JJ	.
=66	=66	=66
8CC\L	24dd#X/LL	.
.	24ee/	.
.	24eee/	.
8eJ 8c 8G\	24ccc/	.
.	24gg/	.
.	24ee/JJ	.
8BL 8D\	24dd#/LL	.
.	24ff/	.
.	24cc/	.
8cJ 8D#X\	24b/	.
.	24ff/	.
.	24a/JJ	.
=67	=67	=67
8BL 8E\	24g#X/LL	.
.	24a#X/	.
.	24b/	.
8eJ 8B 8D\	24dd#X/	.
.	24ee/	.
.	24gg#X/JJ	.
8eL 8A 8C\	24aa/LL	.
.	24dd#/	.
.	24ee/	.
8dJ 8A 8BB\	24ggn/	.
.	24ff/	.
.	24a#/JJ	.
=68	=68	=68
*^	*	*
8rc	2E\	24g#X/LL	.
.	.	24an/	.
.	.	24b/	.
8d#X/L	.	24ddn/	.
.	.	24cc/	.
.	.	24a/JJ	.
16e/L	.	24g/LL	.
.	.	24b/	.
16dn/	.	.	.
.	.	24f/	.
16c/	.	24e/	.
.	.	24g#/	.
16B/JJ	.	.	.
.	.	24d/JJ	.
*v	*v	*	*
!!linebreak:original
=69	=69	=69
8AA\L	24c/LL	.
.	24B/	.
.	24c/	.
8cJ 8A 8E\	24d#X/	.
.	24e/	.
.	24cc/JJ	.
8GG\L	24dd/LL	.
.	24f#X/	.
.	24g/	.
8dJ 8B 8G\	24a#X/	.
.	24b/	.
.	24gg/JJ	.
=70	=70	=70
8CC\L	24dd#X/LL	.
.	24ee/	.
.	24ggg/	.
8eJ 8c 8G\	24eee/	.
.	24ccc/	.
.	24gg/JJ	.
8D\L	24ff#X/LL	.
.	24ccc/	.
.	24ee/	.
16f\L	24dd#/	.
.	24aa/	.
16D#X\JJ	.	.
.	24cc/JJ	.
=71	=71	=71
*	*^	*
8E\	24a#X/LL	8r	.
.	24b/	.	.
.	24bb/	.	.
4B\	24aa/	8a#X\L	.
.	24gg/	.	.
.	24ee/JJ	.	.
.	24dd#X/LL	16b\L	.
.	24ff#X/	.	.
.	.	16an\	.
.	24cc/	.	.
8B\	24b/	16g\	.
.	24dd#/	.	.
.	.	16f#X\JJ	.
.	24a/JJ	.	.
*	*v	*v	*
=72	=72	=72
8e 8E\	24ee/LL	.
.	24g/	.
.	24a/	.
8r	24b/	.
.	24d#X/	.
.	24e/JJ	.
8r	24g/LL	.
.	24A#X/	.
.	24B/	.
8E\	24e/	.
.	24G/	.
.	24B/JJ	.
!!pagebreak:original
=73||	=73||	=73||
8C\L	24r	.
.	24d#X/LL	.
.	24e/	.
8eJ 8c 8G\	24f#X/	.
.	24g/	.
.	24ee/JJ	.
8FF\L	24r	.
.	24g#X/LL	.
.	24a/	.
8fJ 8c 8A\	24b/	.
.	24cc/	.
.	24aa/JJ	.
=74	=74	=74
8BB\L	24cc#X/LL	.
.	24dd/	.
.	24ee/	.
8dJ 8A\	24gg/	.
.	24ff/	.
.	24a/JJ	.
8BL 8E\	24g#X/LL	.
.	24ee/	.
.	24dd/	.
8c:J 8AA:\	24cc#/	.
.	24a/	.
.	24e/JJ	.
=75	=75	=75
8AA\L	24r	.
.	24B/LL	.
.	24c/	.
8cJ 8A\	24e/	.
.	24f/	.
.	24cc/JJ	.
8GG\L	24r	.
.	24a/LL	.
.	24b-X/	.
8gJ 8d 8B-X\	24cc#X/	.
.	24dd/	.
.	24ddd/JJ	.
=76	=76	=76
8C\L	24ee/LL	.
.	24ff/	.
.	24gg/	.
8eJ 8B-X 8G\	24dd/	.
.	24cc/	.
.	24b-X/JJ	.
8fL 8A 8F\	24a/LL	.
.	24cc/	.
.	24f/	.
!	!LO:TX:b:i:t=rit	!
8BnJ 8G#X\	24e/	.
.	24bn/	.
.	24d/JJ	.
=77	=77	=77
8AA\L	24c/LL	.
.	24B/	.
.	24c/	.
8cJ 8A 8E\	24d#X/	.
.	24e/	.
.	24cc/JJ	.
8GG\L	24dd/LL	.
.	24f#X/	.
.	24g/	.
8dJ 8B 8G\	24a#X/	.
.	24b/	.
.	24gg/JJ	.
!!linebreak:original
=78	=78	=78
8CC\L	24dd#X/LL	.
.	24ee/	.
.	24eee/	.
8eJ 8c 8G\	24ccc/	.
.	24gg/	.
.	24ee/JJ	.
8BL 8D\	24dd#/LL	.
.	24ff/	.
.	24cc/	.
8cJ 8D#X\	24b/	.
.	24ff/	.
.	24a/JJ	.
=79	=79	=79
8BL 8E\	24g#X/LL	.
.	24ee/	.
.	24dd/	.
8cJ 8E 8AA\	24cc/	.
.	24ee/	.
.	24aa/JJ	.
8dL 8A 8BB\	24gg/LL	.
.	24dd/	.
.	24ff/	.
8dJ 8G#X 8E\	24ee/	.
.	24b/	.
.	24cc/JJ	.
=80	=80	=80
8c 8AA\	24a/LL	.
.	24c/	.
.	24e/	.
8r	24A/	.
.	24c/	.
.	24E</JJ	.
8r	24A</LL	.
.	24C</	.
.	24E</JJ	.
*Xtuplet	*	*
24AA\LL	8r	.
24EE\	.	.
24CC\JJ	.	.
=81||	=81||	=81||
*	*tuplet	*
*	*Xbrackettup	*
!	!LO:TUP:a:problem=klamra łukowa	!
!	!LO:TX:t=P::problem=ołówkiem zmieniony nr wariacji&colon; 3 Var.	!
!	!LO:TX:a:B:t=5 Var.	!
8AAA\	24r<	.
.	24C</LL	.
.	24c<JJ 24A< 24E</	.
!	!LO:TUP:a:problem=klamra łukowa	!
8C\	24r<	.
.	24E</LL	.
.	24e<JJ 24c< 4A</	.
!	!LO:TUP:a:problem=klamra łukowa	!
8EE\	24r<	.
.	24G</LL	.
.	24g<JJ 24e< 24B</	.
!	!LO:TUP:a:problem=klamra łukowa	!
8G\	24r<	.
.	24B/LL	.
.	24bJJ 24g 24e/	.
=82	=82	=82
!	!LO:TUP:a:problem=klamra łukowa	!
8CC\	24r	.
.	24c/LL	.
.	24ccJJ 24g 24e/	.
!	!LO:TUP:a:problem=klamra łukowa	!
8c\	24r	.
.	24e/LL	.
.	24eeJJ 24cc 24g/	.
!	!LO:TUP:a:problem=klamra łukowa	!
8DD\	24r	.
.	24d/LL	.
.	24ddJJ 24a 24f/	.
!	!LO:TUP:a:problem=klamra łukowa	!
8D#X\	24r	.
.	24A/LL	.
.	24aJJ 24f 24c/	.
!!linebreak:original
=83	=83	=83
!	!LO:TUP:a:problem=klamra łukowa	!
8EE\L	24r<	.
.	24G#X</LL	.
.	24g#X<JJ 24e< 24B</	.
!	!LO:TUP:a:problem=klamra łukowa	!
8AA\	24r	.
.	24A/LL	.
.	24aJJ 24e 24c/	.
!	!LO:TUP:a:problem=klamra łukowa	!
8DD\	24r	.
.	24f/LL	.
.	24ffJJ 24dd 24a/	.
!	!LO:TUP:a:problem=klamra łukowa	!
8BBJ 8BBB\	24r	.
.	24a/LL	.
.	24bbJJ 24ff 24dd/	.
=84	=84	=84
!	!LO:TUP:a:problem=klamra łukowa	!
8EE\	24r	.
.	24e/LL	.
.	24eeJJ 24b 24g#X/	.
!	!LO:TUP:a:problem=klamra łukowa	!
8e\	24r	.
.	24ee/LL	.
.	24eeeJJ 24bb 24gg#X/	.
*8va	*	*
!	!LO:TUP:a:problem=klamra łukowa	!
8ee\	24r	.
*	*8va	*
.	24eee/LL	.
.	24eeeeJJ 24bbb 24ggg#X/	.
*X8va	*X8va	*
!	!LO:TUP:a:problem=klamra łukowa	!
8E\	24r<	.
.	24E</LL	.
.	24e<JJ 24B< 24G#X</	.
=85	=85	=85
!	!LO:TUP:a:problem=klamra łukowa	!
8AAA\	24r<	.
.	24C</LL	.
.	24c<JJ 24A< 24E</	.
!	!LO:TUP:a:problem=klamra łukowa	!
8C\	24r<	.
.	24E</LL	.
.	24e<JJ 24c< 24A</	.
!	!LO:TUP:a:problem=klamra łukowa	!
8GGG\	24r	.
.	24G/LL	.
.	24gJJ 24d 24B/	.
!	!LO:TUP:a:problem=klamra łukowa	!
8B\	24r	.
.	24d/LL	.
.	24ddJJ 24b 24g/	.
=86	=86	=86
!	!LO:TUP:a:problem=klamra łukowa	!
8CC\	24r	.
.	24e/LL	.
.	24eeJJ 24cc 24g/	.
!	!LO:TUP:a:problem=klamra łukowa	!
8e\	24r	.
.	24cc/LL	.
.	24cccJJ 24gg 24ee/	.
!	!LO:TUP:a:problem=klamra łukowa	!
8D\	24r	.
.	24b/LL	.
.	24bbJJ 24ff#X 24cc/	.
*	*Xtuplet	*
8D#X\	24r	.
.	24a/LL	.
.	24aaJJ 24ff# 24cc/	.
=87	=87	=87
*	*tuplet	*
!	!LO:TUP:a:problem=klamra łukowa	!
8E\L	24r	.
.	24g/LL	.
.	24ggJJ 24ee 24b/	.
!	!LO:TUP:a:problem=klamra łukowa	!
8AA\	24r	.
.	24c/LL	.
.	24ccJJ 24a 24e/	.
!	!LO:TUP:a:problem=klamra łukowa	!
8FF\	24r	.
.	24e/LL	.
.	24ff#XJJ 24cc 24a/	.
!	!LO:TUP:a:problem=klamra łukowa	!
8BBJ 8BBB\	24r	.
.	24a/LL	.
.	24bbJJ 24ff# 24dd#X/	.
!!linebreak:original
=88	=88	=88
!	!LO:TUP:a:problem=klamra łukowa	!
8EE\	24r	.
.	24e/LL	.
.	24eeJJ 24b 24g/	.
!	!LO:TUP:a:problem=klamra łukowa	!
8e\	24r	.
.	24ee/LL	ff
.	24eeeJJ 24bb 24gg/	.
*8va	*8va	*
!	!LO:TUP:a:problem=klamra łukowa	!
8ee\	24r	.
.	24eee\LL	.
.	24eeeeJJ 24bbb 24ggg\	.
*X8va	*X8va	*
!	!LO:TUP:a:problem=klamra łukowa	!
8EE\	24r	.
.	24e/LL	.
.	24eeJJ 24b 24g/	.
=89||	=89||	=89||
!	!LO:TUP:a:problem=klamra łukowa	!
8CC\	24r<	.
.	24G</LL	.
.	24g<JJ 24e< 24c</	.
!	!LO:TUP:a:problem=klamra łukowa	!
8G\	24r	.
.	24e/LL	.
.	24eeJJ 24cc 24g/	.
!	!LO:TUP:a:problem=klamra łukowa	!
8FF\	24r	.
.	24A/LL	.
.	24aJJ 24e 24c/	.
!	!LO:TUP:a:problem=klamra łukowa	!
8c\	24r	.
.	24a/LL	.
.	24aaJJ 24ee 24cc/	.
=90	=90	=90
!	!LO:TUP:a:problem=klamra łukowa	!
8B\	24r	.
.	24a/LL	.
.	24aaJJ 24ff 24dd/	.
!	!LO:TUP:a:problem=klamra łukowa	!
8E\	24r	.
.	24d/LL	.
.	24eeJJ 24b 24g#X/	.
!	!LO:TUP:a:problem=klamra łukowa	!
8A\	24r	.
.	24c/LL	.
.	24ccJJ 24a 24e/	.
!	!LO:TUP:a:problem=klamra łukowa	!
8AA\	24r<	.
.	24C</LL	.
.	24c<JJ 24A< 24E</	.
=91	=91	=91
!	!LO:TUP:a:problem=klamra łukowa	!
8AAA\	24r<	.
.	24C</LL	.
.	24c<JJ 24A< 24F</	.
!	!LO:TUP:a:problem=klamra łukowa	!
8A 8AA\	24r	.
.	24c/LL	.
.	24ccJJ 24a 24f/	.
!	!LO:TUP:a:problem=klamra łukowa	!
8GGG\	24r	.
.	24d/LL	.
.	24ddJJ 24b-X 24g/	.
!	!LO:TUP:a:problem=klamra łukowa	!
8G\	24r	.
.	24b-X/LL	.
.	24bb-XJJ 24gg 24dd/	.
=92	=92	=92
!	!LO:TUP:a:problem=klamra łukowa	!
8C\	24r	.
.	24g/LL	.
.	24ggJJ 24ee 24b-X/	.
!	!LO:TUP:a:problem=klamra łukowa	!
8F\	24r	.
.	24a/LL	.
.	24aaJJ 24ff 24cc/	.
*	*Xtuplet	*
8FF\	24r	.
.	24D</LL	.
.	24d<JJ 24B< 24A</	.
8EE\	24r<	.
.	24D</LL	.
.	24e<JJ 24B< 24G#X</	.
!!linebreak:original
=93	=93	=93
*	*tuplet	*
!	!LO:TUP:a:problem=klamra łukowa	!
8AAA\	24r<	.
.	24C</LL	.
.	24c<JJ 24A< 24E</	.
!	!LO:TUP:a:problem=klamra łukowa	!
8C\	24r<	.
.	24E</LL	.
.	24e<JJ 24c< 24A</	.
!	!LO:TUP:a:problem=klamra łukowa	!
8GGG\	24r<	.
.	24G</LL	.
.	24g<JJ 24d< 24B</	.
!	!LO:TUP:a:problem=klamra łukowa	!
8B\	24r	.
.	24d/LL	.
.	24ddJJ 24b 24g/	.
=94	=94	=94
!	!LO:TUP:a:problem=klamra łukowa	!
8CC\	24r	.
.	24e/LL	.
.	24eeJJ 24cc 24g/	.
!	!LO:TUP:a:problem=klamra łukowa	!
8e\	24r	.
.	24cc/LL	.
.	24cccJJ 24gg 24ee/	.
!	!LO:TUP:a:problem=klamra łukowa	!
8D\	24r	.
.	24B/LL	.
.	24bJJ 24f 24d/	.
!	!LO:TUP:a:problem=klamra łukowa	!
8d#X\	24r	.
.	24a/LL	.
.	24aaJJ 24ff 24cc/	.
=95	=95	=95
!	!LO:TUP:a:problem=klamra łukowa	!
8E\L	24r	.
.	24G#X/LL	.
.	24g#XJJ 24e 24B/	.
!	!LO:TUP:a:problem=klamra łukowa	!
8C\	24r	.
.	24a/LL	.
.	24aaJJ 24ee 24cc/	.
!	!LO:TUP:a:problem=klamra łukowa	!
8BB\	24r	.
.	24a/LL	.
.	24bbJJ 24ff 24dd/	.
!	!LO:TUP:a:problem=klamra łukowa	!
8EE\J	24r	.
.	24dd/LL	.
.	24eeeJJ 24bb 24gg#X/	.
=	=	=
!	!LO:TUP:a:problem=klamra łukowa	!
8AAA\	24r<	.
.	24A</LL	.
.	24a<JJ 24e< 24c</	.
*	*Xtuplet	*
8A\	24r	.
.	24a/LL	.
.	24aaJJ 24ee 24cc/	.
*8va	*8va	*
8a\	24r	.
.	24aa/LL	.
.	24aaaJJ 24eee 24ccc/	.
*X8va	*X8va	*
=96	=96	=96
8E\	(>8e/	.
=97||	=97||	=97||
*^	*	*
!	!	!LO:TX:a:B:t=Poco piu lento.	!
!	!	!LO:TX:a:B:t=6 Var.	!
8A\L	4ryy	8aL 8e 8c/)	.
8G\	.	8aJ 8e 8c/	.
8F#X\	8A/L	8bL 8d#X/	.
16Fn\L	8G#X/J	8bJ 8dn/	.
16E\JJ	.	.	.
=98	=98	=98	=98
*	*	*^	*
8E-X\	8G/L	4cc/	4c\	.
4D\	8F#X/	.	.	.
.	8G#X/	8b/L	8f\L	.
8C\	8A/J	8a/J	8e\J	.
*v	*v	*	*	*
!!linebreak:original
=99	=99	=99	=99
8BB\L	8g#XL 8e 8d/	4.ryy	.
8AA\	8aJ 8e 8c/	.	.
8AA-X\	8fL 8c/	.	.
8GG\J	16g#/L	8B\	.
.	16f/JJ	.	.
*	*v	*v	*
=100	=100	=100
*^	*	*
8B-X/	8C\L	4.e/	.
4A/	8FF\	.	.
.	8BB\	.	.
8G#X/	8EE\J	8e/	.
=101	=101	=101	=101
*	*	*^	*
8rG	8rGG	8a/L	8r	.
8c/L	8FF\L	8a/J	8e\	.
8B/	8D\	8b/L	4f#X\	.
8A/J	8D#X\J	8b/J	.	.
=102	=102	=102	=102	=102
8G/L	8E\L	4cc/	8e\L	.
8A/	8F#X\	.	8e-X\	.
8B/	8G\	8b/L	8d\	.
8c/J	8A\J	8a/J	8f#X\J	.
=103	=103	=103	=103	=103
8B/	8B\	8g/L	4e\	.
8B/L	8GG\L	8b/	.	.
8c/	8AA\	8a/	8e\L	.
8A/J	8BB\J	16f#X/L	8d#X\J	.
.	.	16g/JJ	.	.
*v	*v	*	*	*
*	*v	*v	*
=104	=104	=104
(8E\L	4.e 4.B 4.G/	.
8BB\	.	.
8EE\J)	.	.
8G\	8g/	.
=105||	=105||	=105||
8cL 8C\	8eeL 8g 8e/	.
8cJ 8BB-X\	8eeJ 8g 8e/	.
8c#XL 8AA\	8aL 8g 8e/	.
8cnJ 8D\	16bL 16f#X 16d/	.
.	16cc/JJ	.
!!pagebreak:original
=106	=106	=106
*^	*	*
8c/L	8GG\L	(>8ddL 8a 8f/	.
8B/J	8GG\	8ddJ 8g 8f/	.
4c/	8C\	4g 4e/)	.
.	8BB-X\J	.	.
=107	=107	=107	=107
*	*	*^	*
8A-XL 8E 8AA-X\	4ryy	(>8ccL 8e 8c/	4ryy	.
8A-J 8E 8AA-\	.	8ccJ 8e 8c/	.	.
.	.	8qcc/	.	.
8A-X/L	4A-X 4D-X\	8f/L	4c\	.
16G/L	.	16g/L	.	.
16F/JJ	.	16a-X/JJ	.	.
*v	*v	*	*	*
=108	=108	=108	=108
(8GL 8D-X 8GG\	8b-X/L	8fL 8B-X\	.
.	8qb-/	.	.
8C\J	16a-X/L	8eJ 8B-\	.
.	16g/JJ	.	.
8F 8FF\)	8a-/)	8f 8A-X\	.
(8E\	(>8g#X 8f 8d/	8ryy	.
=109	=109	=109	=109
*^	*	*	*
8An\L)	4ryy	8an/L	8eL 8c\	.
8G\	.	8a/)	8eJ 8c\	.
8F#X\	8A/L	8bn/	8d#X\L	.
16Fn\L	8G#X/J	8b/J	8dn\J	.
16E\JJ	.	.	.	.
=110	=110	=110	=110	=110
.	.	(<8qdd/	.	.
8Gn/L	8E-X\	4cc/)	4c\	.
8F#X/	4D\	.	.	.
8G#X/	.	8b/L	8f\L	.
8A/J	8C\	8a/J	8e\J	.
*v	*v	*	*	*
*	*v	*v	*
=111	=111	=111
8BB\L	8g#XL 8e 8d/	.
16AA\L	8aJ 8e 8c/	.
16GG\J	.	.
8FF\	8bL 8a 8d/	.
8EE\J	16ccL 16g#X 16d/	.
.	16b/JJ	.
=112	=112	=112
8AA\L	4.a 4.e 4.c;/	.
8EE\	.	.
8AAA\J	.	.
!	!LO:TX:B:t=7 Var.	!
8r	[>8gg#X/	.
!!linebreak:original
=113||	=113||	=113||
*^	*	*
8E/L	4AA\	16gg#/]	.
.	.	8gg#X/L	.
8c/J	.	.	.
.	.	8aa/	.
!LO:TX:t=P:problem=mixed beam	!	!	!
8B/L	4E\	.	.
.	.	8ff#X/	.
8b>\J	.	.	.
.	.	[>16ggn/Jk	.
=114	=114	=114	=114
!LO:TX:t=P:problem=mixed beam	!	!	!
8G/L	4C\	16gg/KL]	.
.	.	8dd#X/	.
8g>\J	.	.	.
.	.	8ee/	.
8C/L	4FF\	.	.
.	.	8g#X/	.
8c/J	.	.	.
.	.	[>16a/Jk	.
=115	=115	=115	=115
8F/L	4BB\	16a/KL]	.
.	.	8cc#X/	.
8f/J	.	.	.
.	.	8dd/	.
8BB/L	4EE\	.	.
.	.	8g/	.
8d/J	.	.	.
.	.	[>16g#X/Jk	.
=116	=116	=116	=116
8E/L	4AA\	16g#/KL]	.
.	.	8g#X/	.
8c/J	.	.	.
.	.	8a/	.
8AL 8BB\	4ryy	.	.
!	!	!LO:TX:b:i:t=rit	!
.	.	8d#X/	.
8G#XJ 8EE\	.	.	.
.	.	16e/Jk	.
=117	=117	=117	=117
8E/L	4AA\	16r	.
.	.	8gg#X/L	.
8c/	.	.	.
.	.	8aa/	.
8B/	4GG\	.	.
.	.	8cc#X/	.
8f/J	.	.	.
.	.	[16dd/Jk	.
=118	=118	=118	=118
8G/L	4C\	16dd/KL]	.
.	.	8dd#X/	.
8g/J	.	.	.
.	.	8ee/	.
8E/L	4AA\	.	.
.	.	8g#X/	.
8c/J	.	.	.
.	.	[16a/Jk	.
=119	=119	=119	=119
8E/L	4GG\	16a/KL]	.
.	.	8a#X/	.
8G/J	.	.	.
.	.	[16b/Jk	.
!!linebreak:original
=-	=-	=-	=-
8F#X/L	4BB\	16b/KL]	.
.	.	8c#X/	.
8A/J	.	.	.
.	.	[16d#X/Jk	.
=120	=120	=120	=120
8BB/L	4EE\	16d#/KL]	.
.	.	8d#X/	.
[8G/J	.	.	.
.	.	[8e/J	.
8G/L]	4r	.	.
.	.	8e/L_	.
16D#X/L	.	.	.
16E/JJ	.	16e/Jk_	.
=121||	=121||	=121||	=121||
8G/L	4C\	16e/KL]	.
.	.	8b/	.
8e/J	.	.	.
.	.	8cc/	.
8C/L	4FF\	.	.
.	.	8gg#X/	.
8c/J	.	.	.
.	.	[>16aa/Jk	.
=122	=122	=122	=122
8B/L	4E\	16aa/KL]	.
.	.	8dd#X/	.
8g#X/J	.	.	.
.	.	8ee/	.
8E/L	4AA\	.	.
.	.	8b/	.
8e/J	.	.	.
.	.	[16cc/Jk	.
=123	=123	=123	=123
8c/L	4F\	16cc/KL]	.
.	.	8b/	.
8a/J	.	.	.
.	.	8cc/	.
8D/L	4GG\	.	.
.	.	8ccc#X/	.
8B-X/J	.	.	.
.	.	[>16ddd/Jk	.
=124	=124	=124	=124
8B-X/L	4C\	16ddd/KL]	.
.	.	8ff#X/	.
8e/J	.	.	.
.	.	8gg/	.
8C/L	4FF\	.	.
.	.	8ee/	.
8A/J	.	.	.
.	.	[>16ffn/Jk	.
=125	=125	=125	=125
8E/L	4AA\	16ff/KL]	.
.	.	8gg#X/	.
8c/	.	.	.
.	.	8aa/	.
8B/	4GG\	.	.
.	.	8cc#X/	.
8f/J	.	.	.
.	.	[>16dd/Jk	.
!!linebreak:original
=126	=126	=126	=126
8G/L	4C\	16dd/KL]	.
.	.	8dd#X/	.
8g/J	.	.	.
.	.	8ee/	.
8C/L	4FF\	.	.
.	.	8g#X/	.
8c/J	.	.	.
.	.	[>16a/Jk	.
=127	=127	=127	=127
8F/L	4F 4BB\	16a/KL]	.
.	.	8cc#X/	.
8f/J	.	.	.
.	.	8dd/	.
8BB/L	4EE\	.	.
.	.	8f#X/	.
8d/J	.	.	.
.	.	[>16g#X/Jk	.
=128	=128	=128	=128
8E/L	4AA\	16g#/KL]	.
!	!	!LO:TX:b:i:t=rit	!
.	.	8g#X/	.
8c/J	.	.	.
.	.	16a/Jk	.
16r	4AAA\	8r	.
16E/LL	.	.	.
16D#X/	.	8r	.
16E/JJ	.	.	.
*v	*v	*	*
=129||	=129||	=129||
*M4/4	*M4/4	*
*met(c)	*met(c)	*
!	!LO:TX:a:B:t=8 Var.	!
8AA\L	16r<	.
.	16c<LL 16A< 16E</	.
8D#X\	16r<	.
.	16c< 16A< 16E</	.
8F#X\	16r<	.
.	16e< 16c< 16A</	.
8B\J	16rg<	.
.	16a<JJ 16e< 16c</	.
8E\L	16r<	.
.	16gLL 16e 16B/	.
8A#X\	16r	.
.	16g 16e 16B/	.
8d#X\	16r	.
.	16b 16g 16e/	.
8e\J	16r	.
.	16eeJJ 16b 16g/	.
=130	=130	=130
8C\L	16r	.
.	16eeLL 16cc 16g/	.
8f#X>\	16rdd	.
.	16ee 16cc 16g/	.
8d#X>\	16rdd	.
.	16cc 16g 16e/	.
8B>\J	16rdd	.
.	16gJJ 16e 16c/	.
8D\L	16r	.
!	!LO:TX:t=P:problem=kasownik przed pauzą	!
.	16bLL 16fn 16d/	.
8c#X\	16r	.
.	16b 16f 16d/	.
8D#X\	16r	.
.	16a 16f 16c/	.
8B\J	16r	.
.	16aJJ 16f 16c/	.
!!linebreak:original
=131	=131	=131
8E\L	16r	.
.	16g#XLL 16e 16B/	.
8A#X\	16r	.
.	16g# 16e 16B/	.
8E\	16r	.
.	16a 16e 16c/	.
8B\J	16r	.
.	16aJJ 16e 16c/	.
8E\L	16r	.
.	16fLL 16d 16A/	.
8G#X\	16r	.
.	16f 16d 16A/	.
8BB\	16r	.
.	16g# 16d 16A/	.
8G#X\J	16r	.
.	16fJJ 16d 16A/	.
=132	=132	=132
8EE\L	16r	.
.	16eLL 16B 16G#X/	.
8F##X\	16r	.
.	16e 16B 16G#/	.
8A#X\	16r	.
.	16g#X 16e 16B/	.
8d#X\J	16r	.
.	16bJJ 16g# 16e/	.
8f##X\L	16r	.
.	16eeLL 16b 16g#/	.
8d#\	16r	.
.	16b 16g# 16e/	.
8A#\	16r	.
.	16g# 16e 16B/	.
8E\J	16r	.
.	16eJJ 16B 16G#/	.
=133	=133	=133
8AA\L	16r<	.
.	16c<LL 16A< 16E</	.
8D#X\	16rf<	.
.	16c< 16A< 16E</	.
8G#X\	16r<	.
.	16e< 16c< 16A</	.
8B\J	16rg<	.
.	16a<JJ 16e< 16c</	.
8GG\L	16r	.
.	16bLL 16g 16d/	.
8A#X\	16r	.
.	16g 16e 16B/	.
8c#X\	16r	.
.	16b 16g 16d/	.
8f#X\J	16r	.
.	16ddJJ 16b 16g/	.
=134	=134	=134
8C\L	16r	.
.	16eeLL 16cc 16g/	.
8f#X>\	16rdd	.
.	16ee 16cc 16g/	.
8d#X>\	16rdd	.
.	16cc 16g 16e/	.
8B>\J	16rdd	.
.	16gJJ 16e 16c/	.
8D\L	16r	.
.	16bLL 16f 16d/	.
8c#X\	16r	.
.	16b 16f 16d/	.
8D#X\	16r	.
.	16a 16f 16cn/	.
8B\J	16r	.
.	16aJJ 16f 16c/	.
!!linebreak:original
=135	=135	=135
8E\L	16r	.
.	16gLL 16e 16B/	.
8A#X\	16r	.
.	16g 16e 16B/	.
8d#X\	16r	.
.	16b 16g 16e/	.
8f#X>\J	16rcc	.
.	16eeJJ 16b 16g/	.
8A#\L	16r	.
.	16ccLL 16a 16e/	.
8B\	16r	.
.	16a 16f 16c/	.
8A#X\	16r	.
.	16f 16dn 16B/	.
8BB\J	16r	.
.	16gJJ 16d 16An/	.
=136	=136	=136
8EE\L	16r	.
.	16eLL 16B 16G/	.
8F#X\	16r	.
.	16e 16B 16G/	.
8A#X\	16r	.
.	16g 16e 16B/	.
8d#X\J	16r	.
.	16bJJ 16g 16e/	.
8f#X\L	16r	.
.	16eeLL 16b 16g/	.
8d#\	16r	.
.	16b 16g 16e/	.
8A#\	16r	.
.	16g 16e 16B/	.
8E\J	16r	.
.	16eJJ 16B 16G/	.
=137||	=137||	=137||
8CC\L	16r<	.
.	16e<LL 16c< 16G</	.
8F#X\	16r<	.
.	16e< 16c< 16G</	.
8B\	16r<	.
.	16g 16e 16c/	.
8d#X\J	16r	.
.	16eeJJ 16g 16e/	.
8FF\L	16r	.
.	16aLL 16f 16c/	.
8B>\	16rcc	.
.	16a 16f 16c/	.
8e>\	16rcc	.
.	16cc 16a 16f/	.
8g#X>\J	16rdd	.
.	16aaJJ 16cc 16a/	.
=138	=138	=138
8BB\L	16r	.
.	16aaLL 16ff 16dd 16a/	.
8g#X\J	16r	.
.	16ff 16dd 16a/	.
8E\L	16r	.
.	16ee 16b 16g#X/	.
8d#X\J	16r	.
.	16bJJ 16g# 16e/	.
8AA\L	16r	.
.	16ccLL 16a 16e/	.
8d#X\	16r	.
.	16cc 16a 16e/	.
8B\	16r	.
.	16a 16e 16c/	.
8G#X\J	16r	.
.	16eJJ 16c 16A/	.
!!pagebreak:original
=139	=139	=139
8AA\L	16r<	.
.	16c<LL 16A< 16F</	.
8E\	16r<	.
.	16f< 16c< 16A< 16F</	.
8G#X\	16r<	.
.	16a 16f< 16f 16c< 16A</	.
8B\J	16r	.
.	16ccJJ 16a 16f 16c</	.
8GG\L	16r	.
.	16gLL 16d 16B-X/	.
8A\	16r	.
.	16b-X 16g 16d 16B-/	.
8c#X\	16r	.
.	16dd 16b- 16g 16d/	.
8f#X>\J	16rdd	.
.	16ggJJ 16dd 16b- 16g/	.
=140	=140	=140
8C\L	16r	.
.	16bb-XLL 16gg 16ee 16b-X/	.
8a>\J	16r	.
.	16ggJJ 16ee 16b-/	.
8FF\L	16r	.
.	16aaLL 16ff 16a/	.
8e\J	16r	.
.	16ffJJ 16cc 16a 16f/	.
8GG#X\L	16r	.
.	16eeLL 16b- 16e/	.
8d#X\	16r	.
.	16dd 16b- 16g#X 16e/	.
8A#X\	16r	.
.	16g# 16e 16B/	.
8E\J	16r<	.
.	16e<JJ 16B< 16G#X</	.
=141	=141	=141
8AA\L	16r<	.
.	16c<LL 16A< 16E</	.
8D#X\	16r<	.
.	16c< 16A< 16E</	.
8G#X\	16r<	.
.	16e< 16c< 16A</	.
8B\J	16ryy	.
.	16aJJ 16e 16c/	.
8GG\L	16r	.
.	16bLL 16g 16d/	.
8A#X\	16r	.
.	16g 16d 16B/	.
8c#X\	16r	.
.	16b 16g 16d/	.
8f#X\J	16r	.
.	16ddJJ 16b 16g/	.
=142	=142	=142
8C\L	16r	.
.	16eeLL 16cc 16g/	.
8f#X\	16r	.
.	16ee 16cc 16g/	.
8d#X\	16r	.
.	16cc 16g 16e/	.
8B\J	16r	.
.	16gJJ 16e 16c/	.
8D\L	16r	.
.	16bLL 16f 16d/	.
8c#X\	16r	.
.	16b 16f 16d/	.
8D#X\	16r	.
.	16a 16f 16c/	.
8B\J	16r	.
.	16aJJ 16f 16c/	.
=143	=143	=143
8E\L	16r	.
.	16g#XLL 16e 16B/	.
8A#X\J	16r	.
.	16g#JJ 16e 16B/	.
8AA\L	16r	.
.	16aLL 16e 16c/	.
8d#X\J	16r	.
.	16ccJJ 16a 16e/	.
8D\L	16r	.
.	16bLL 16a 16f 16B/	.
8g#X\	16r	.
.	16ff 16b 16a/	.
8E\	16r	.
.	16ee 16b 16g#/	.
8a#X\J	16r	.
.	16gg#XJJ 16ee 16dd 16b/	.
!!linebreak:original
=144	=144	=144
8AA\L	16r	.
.	16aaLL 16ee 16cc/	.
8b>\	16rgg	.
.	16aa 16ee 16cc/	.
8g#X>\	16rgg	.
.	16ee 16cc 16a/	.
8d#X>\J	16rgg	.
.	16ccJJ 16a 16e/	.
16B>\LL	16ra	.
16ryy	16aLL 16e 16c/	.
16G#X>\JJ	16ra	.
16ryy	16eJJ 16c 16A/	.
4AA\	8r<	.
.	8E</	.
=145||	=145||	=145||
*M2/4	*M2/4	*
!	!LO:TX:a:B:t=9 Var.	!
4r	8A</L	.
.	8A</	.
8r	8B</	.
8GG\	8B</J	.
=146	=146	=146
8C\L	4c</	.
8C\J	.	.
8D\L	8B</L	.
8D\J	8A</J	.
=147	=147	=147
4E\	8G#X</L	.
.	8A</	.
8D\L	8B</	.
8C\J	8c</J	.
=148	=148	=148
8BB\L	4d</	.
8C\	.	.
8D\	8c</L	.
8E\J	8B</J	.
=149	=149	=149
4F\	8A</L	.
.	8A</	.
8E\L	8B</	.
8D\J	8B</J	.
=150	=150	=150
8C\L	4c</	.
8C\J	.	.
8D\L	8B</L	.
8D\J	8A</J	.
!!linebreak:original
=151	=151	=151
4E\	8G</L	.
.	8A</J	.
8D\L	[4B</	.
8C\J	.	.
=152	=152	=152
8BB\L	8B</L]	.
8C#X\J	8A</	.
4D#X\	8G</	.
.	8F#X</J	.
=153	=153	=153
(>8E\L	8E</	.
8D#X\)	4.ryy	.
8E\	.	.
8Dn\J	.	.
=154||	=154||	=154||
8C\L	4e</	.
8D\	.	.
8E\	4e</	.
8C\J	.	.
=155	=155	=155
4F\	8A</L	.
.	8B</	.
8E\L	8c</	.
8F\J	8A</J	.
=156	=156	=156
8E\L	4d</	.
8F#X\J	.	.
4G#X\	8c</L	.
.	8d</J	.
=157	=157	=157
4A\	8c</L	.
.	8d</	.
4r	8e/	.
.	8f/J	.
=158	=158	=158
8E\L	4g/	.
8F\	.	.
8G\	4g/	.
8E\J	.	.
!!linebreak:original
=159	=159	=159
4A\	8c/L	.
.	8d/	.
4A\	8e/	.
.	8c/J	.
=160	=160	=160
8D\L	4f/	.
8E\	.	.
8F\	4f/	.
8D\J	.	.
=161	=161	=161
8C\L	(4e/	.
8D\	.	.
8C\	4E</)	.
8BB\J	.	.
=162	=162	=162
8AA\	8A</L	.
8r	8A</	.
8r	8B</	.
8GG\	8B</J	.
=163	=163	=163
8C\L	4c</	.
8C\	.	.
8D\	8B</L	.
8D\J	8A</J	.
=164	=164	=164
4E\	8G#X</L	.
.	8A</	.
8D\L	8B</	.
8E\J	16c</L	.
.	16B</JJ	.
=165	=165	=165
8A\L	4.A</	.
8E\	.	.
8AA\J	.	.
!!linebreak:original
=166||	=166||	=166||
*M4/4	*M4/4	*
*met(c)	*met(c)	*
!	!LO:TX:t=P:problem= 5 ołówkiem	!
!	!LO:TX:a:B:t=10 Var.	!
4E\	12eee\L	.
.	12eee 12ddd#X\	.
.	12eeeJ 12dddn\	.
=167	=167	=167
4AA\	12eeeL 12ccc\	.
.	12ddd#X 12bb\	.
.	12eeeJ 12ccc\	.
4a 4e 4A\	12cccL 12aa\	.
.	12bb 12gg#X\	.
.	12cccJ 12aa\	.
4E\	12bbL 12ggn\	.
.	12aa#X 12ff#X\	.
.	12bbJ 12gg\	.
4g 4e 4B\	12ggL 12ee\	.
.	12ff# 12dd#X\	.
.	12ggJ 12ee\	.
=168	=168	=168
4C\	12cccL 12ee\	.
.	12bb 12dd#X\	.
.	12cccJ 12ee\	.
4g 4c\	12ggL 12ee\	.
.	12ff#X 12dd#\	.
.	12ggJ 12ee\	.
4D\	12ffnL 12ddn\	.
.	12ee 12cc#X\	.
.	12ffJ 12dd\	.
4D#X\	12aaL 12ccn\	.
.	12gg#X 12b\	.
.	12aaJ 12cc\	.
=169	=169	=169
*^	*	*
4E\	4ryy	12gg#XL 12b\	.
.	.	12ff##X 12dd#X\	.
.	.	12gg#J 12ee\	.
*clefG2	*	*	*
!	!	!LO:N:n=2:acc=n#	!
4dd#X 4cc\	2.e\	12aaL 12ff#X\	.
.	.	12gg# 12ee#X\	.
.	.	12aaJ 12ff#\	.
4ddn 4b\	.	12bbL 12gg#\	.
.	.	12aa#X 12ff##X\	.
.	.	12bbJ 12gg#\	.
4cc 4a\	.	12cccL 12aan\	.
.	.	12bb 12gg#\	.
.	.	12cccJ 12aa\	.
=170	=170	=170	=170
!LO:N:vis=2	!	!	!
4ee 4b 4e\	2ryy	12bbL 12gg#X\	.
.	.	12aa#X 12ff##X\	.
.	.	12bbJ 12gg#\	.
*clefF4	*	*	*
4E\	.	12eeeL 12gg#\	.
.	.	12ddd#X 12ff##\	.
.	.	12eeeJ 12gg#\	.
!!linebreak:original
=-	=-	=-	=-
4r	2ryy	12bbL 12gg#\	.
.	.	12aa# 12ff##\	.
.	.	12bbJ 12gg#\	.
4r	.	12eeL 12g#y\	.
.	.	12dd#X 12f##X\	.
.	.	12eeJ 12g#\	.
*v	*v	*	*
=171	=171	=171
4AA\	12eeeL 12ccc\	.
.	12ddd#X 12bb\	.
.	12eeeJ 12ccc\	.
4c 4A 4E\	12cccL 12aa\	.
.	12bb 12gg#X\	.
.	12cccJ 12aa\	.
4GG\	12gggL 12bb\	.
.	12fff#X 12aa#X\	.
.	12gggJ 12bb\	.
4g 4d 4B\	12ddd#L 12bb\	.
.	12ccc#X 12aa#X\	.
.	12ddd#J 12bb\	.
=172	=172	=172
4C\	12eeeL 12ccc\	.
.	12ddd#X 12bb\	.
.	12eeeJ 12ccc\	.
4e 4c 4G\	12cccL 12ee\	.
.	12bb 12dd#X\	.
.	12cccJ 12ee\	.
4D\	12aaL 12ff#X\	.
.	12gg#X 12ee\	.
.	12aaJ 12ff#\	.
4a 4D#X\	12ff#L 12cc\	.
.	12ff# 12b\	.
.	12ff#J 12cc\	.
=173	=173	=173
4g 4E\	12ggnL 12b\	.
.	12ff#X 12dd#X\	.
.	12ggJ 12ee\	.
4e 4B 4G\	12bbL 12gg\	.
.	12aa#X 12ff#\	.
.	12bbJ 12gg\	.
!	!LO:SIC:v:n=1:s=8aanL	!
4AA\	12aa#L 12cc\	.
.	12ee#X 12cc\	.
.	12ff#J 12cc\	.
4d#X 4BB\	12ggL 12b\	.
.	12cc#X 12a\	.
.	12dd#XJ 12a\	.
=174	=174	=174
2EE\	12eeL 12g\	.
.	12dd#X 12f#X\	.
.	12eeJ 12g\	.
.	12bL 12g\	.
.	12a#X 12f#X\	.
.	12bJ 12g\	.
4E\	12gL 12e\	.
.	12f# 12d#X\	.
.	12gJ 12e\	.
4r	12e</L 12G</	.
.	12d#X</ 12F#X<\	.
.	12e</J 12G</	.
!!pagebreak:original
=175	=175	=175
4C\	12eeeL 12gg\	.
.	12ddd#X 12ff#X\	.
.	12eeeJ 12gg\	.
4e 4c 4G\	12ggL 12ee\	.
.	12ff#X 12dd#X\	.
.	12ggJ 12ee\	.
4a 4F\	12aaL 12ffn\	.
.	12gg#X 12ee\	.
.	12aaJ 12ff\	.
4c\	12aa#XL 12ff##X\	.
.	12bb 12gg#\	.
.	12cccJ 12aan\	.
=176	=176	=176
4d 4A 4BB\	12dddL 12ffnX\	.
.	12ccc#X 12ee\	.
.	12dddJ 12ff\	.
!	!LO:SIC:v:n=1:s=12bbL	!
4e 4G#X 4E\	12ccc#L 12ee\	.
.	12aa#X 12ff##X\	.
.	12bbJ 12gg#X\	.
!	!LO:SIC:v:s=12cccnL 12aan\	!
4AA\	12ccc#L 12aa#\	.
.	12bb 12gg#\	.
!	!LO:SIC:v:s=12cccnL 12aan\	!
.	12ccc#J 12aa#\	.
!	!LO:SIC:v:n=1:s=12aanL	!
4c 4A 4E\	12aa#L 12cc\	.
.	12gg# 12b\	.
!	!LO:SIC:v:n=1:s=12aanL	!
.	12aa#J 12cc\	.
=177	=177	=177
4AA\	12cccL 12aa\	.
.	12bb 12gg#X\	.
.	12cccJ 12aa\	.
4c 4A 4F\	12aaL 12ff\	.
.	12gg# 12ee\	.
.	12aaJ 12ff\	.
4d 4F 4BB-X\	12ffL 12dd\	.
.	12ee 12cc#X\	.
.	12ffJ 12dd\	.
4AA\	12ff#XL 12cc#\	.
.	12ggn 12ee\	.
.	12aaJ 12ff#\	.
=178	=178	=178
4B-X 4D 4GG\	12bb-XL 12gg#X\	.
.	12aa 12ff#X\	.
.	12bb-J 12gg#\	.
4c 4B- 4C\	12aaL 12cc\	.
.	12ff# 12dd#X\	.
.	12gg#J 12ee\	.
4A 4C 4FF\	12aaL 12ff#\	.
.	12gg#X 12ee\	.
.	12aaJ 12ff#\	.
4EE\	12eeeL 12gg#\	.
.	12ddd#X 12ff##X\	.
.	12eeeJ 12gg#\	.
=179	=179	=179
4AA\	12eeeL 12ccc\	.
.	12ddd#X 12bb\	.
.	12eeeJ 12ccc\	.
4c 4A 4E\	12cccL 12aa\	.
.	12bb 12gg#X\	.
.	12cccJ 12aa\	.
4EE\	12bbL 12ggn\	.
.	12aa#X 12ff#X\	.
.	12bbJ 12gg\	.
4e 4B 4G\	12ggL 12ee\	.
.	12ff# 12dd#X\	.
.	12ggJ 12ee\	.
!!linebreak:original
=180	=180	=180
4C\	12cccL 12ee\	.
.	12bb 12dd#X\	.
.	12cccJ 12ee\	.
4e 4c 4G\	12ggL 12ee\	.
.	12ff#X 12dd#X\	.
.	12ggJ 12ee\	.
4B 4D\	12ff#L 12ddn\	.
.	12ee 12cc#X\	.
.	12ff#J 12dd\	.
!LO:SIC:v:n=1:s=4f#	!	!
4f 4D#X\	12aaL 12ccn\	.
.	12gg#X 12b\	.
.	12aaJ 12cc\	.
=181	=181	=181
*^	*	*
4E\	4ryy	12gg#XL 12b\	.
.	.	12ff##X 12dd#X\	.
.	.	12gg#J 12ee\	.
*clefG2	*	*	*
!	!	!LO:N:n=2:acc=n#	!
4dd 4cc#X/	2.e\	12aaL 12ff#X\	.
.	.	12gg# 12ee#X\	.
.	.	12aaJ 12ff#\	.
4ddn 4b/	.	12bbL 12gg#\	.
.	.	12aa#X 12ff##X\	.
.	.	12bbJ 12gg#\	.
*clefF4	*	*	*
4E\	.	12eeeL 12gg#\	.
.	.	12ddd#X 12ff##X\	.
.	.	12eeeJ 12gg#\	.
*v	*v	*	*
=182	=182	=182
4AA 4AAA\	12aaaL 12ccc\	.
.	12ggg#X 12bb\	.
.	12aaaJ 12ccc\	.
2ryy	12aaL 12cc\	.
.	12gg#X 12b\	.
.	12aaJ 12cc\	.
.	12aL 12c\	.
.	12g#X 12B\	.
.	12aJ 12c\	.
4E\	4e/	.
=183||	=183||	=183||
*k[f#c#g#]	*k[f#c#g#]	*
*M2/4	*M2/4	*
!	!LO:TX:t=P:problem=brak wpisanego zmienionego metrum	!
!	!LO:TX:b:B:t=Grave	!
!	!LO:TX:t=P::problem=ołówkiem zmieniony nuemr wariacji&colon; 8 Var.	!
!	!LO:TX:a:B:t=11 Var.	!
8F#L 8FF#\	8aL 8f# 8c# 8A/	.
8F#J 8FF#\	8aJ 8f# 8c# 8A/	.
8EL 8EE\	8bL 8g# 8e 8B/	.
8EJ 8EE\	8bJ 8g# 8e 8B/	.
=184	=184	=184
4AA 4AAA\	4cc# 4a 4e 4c#/	.
8DL 8DD\	8bL 8f# 8d 8B/	.
8D#XJ 8DD#X\	8aJ 8f# 8c# 8A/	.
!!linebreak:original
=185	=185	=185
8EL 8EE\	8g#L 8e 8B 8G#/	.
8C# 8CC#\	8a 8e 8A/	.
8Cn 8CCn\	8f# 8e 8A/	.
8BBJ 8BBB\	16g#L 16d#X 16B/	.
.	16f#JJ 16d# 16A/	.
=186	=186	=186
8EL 8EE\	4.e 4.B 4.G#/	.
8D 8DD\	.	.
8C# 8CC#\	.	.
8BBJ 8BBB\	8e< 8d< 8G#< 8E</	.
=187	=187	=187
8AAL 8AAA\	8aL 8e 8c# 8A/	.
8F# 8FF#\	8a 8f# 8c# 8A/	.
8E 8EE\	8b 8g# 8e 8B/	.
8DJ 8DD\	8bJ 8g# 8e 8B/	.
=188	=188	=188
8C#L 8CC#\	8cc#L 8g# 8e 8c#/	.
8AA 8AAA\	8cc# 8a 8e 8c#/	.
8BB 8BBB\	8b 8g# 8d#X 8B/	.
8BB#XJ 8BBB#X\	8aJ 8f# 8d# 8A/	.
=189	=189	=189
8C#L 8CC#\	8g#L 8e 8c# 8G#/	.
8AA 8AAA\	8cc# 8a 8e 8c#/	.
8FF# 8FFF#\	8dd#X 8cc# 8a 8d#X/	.
8GG#J 8GGG#\	16eeL 16b#X 16g# 16e/	.
.	16dd#JJ 16d#/	.
=190	=190	=190
(8C#L 8CC#\	4.cc# 4.g# 4.e 4.c#/	.
8GG#J 8GGG#\	.	.
*8ba	*	*
8CC# 8CCC#\)	.	.
*X8ba	*	*
8E\	8e/	.
!!linebreak:original
=191||	=191||	=191||
8EL 8C# 8AA 8CC#\	8eeL 8a 8e/	.
8c#J 8A 8C#\	8eeJ 8a 8e/	.
4F# 4C# 4FF#\	8aL 8c# 8A/	.
.	16bL 16B/	.
.	16cc#JJ 16c#/	.
=192	=192	=192
8BBL 8BBB\	8ddL 8a 8f# 8d/	.
.	8qdd 8qg# 8qe 8qd/	.
8EJ 8EE\	16cc#L 16g# 16e 16c#/	.
.	16bJJ 16B/	.
8AL 8AA\	4cc# 4a 4e 4c#/	.
8AAJ 8AAA\	.	.
=193	=193	=193
8AL 8C# 8AA\	8cc#L 8f# 8c#/	.
8AJ 8C# 8AA\	8cc#J 8f# 8c#/	.
4F# 4D 4AA 4DD\	8f#<L 8c#</	.
.	16g#L 16G#</	.
.	16aJJ 16A</	.
=194	=194	=194
8G#L 8D 8GG#\	8bL 8f# 8B/	.
.	8qb 8qe#X 8qB/	.
8C#J 8GG# 8CC#\	16aL 16e#yX 16A/	.
.	16g#JJ 16e# 16G#/	.
8F#L 8FF#\	4a 4f# 4A/	.
8FF#J 8FFF#\	.	.
=195	=195	=195
8F#L 8FF#\	8aL 8f# 8c# 8A/	.
8F# 8FF#\	8a 8f# 8c# 8A/	.
8E 8EE\	8b 8g# 8e 8B/	.
8DJ 8DD\	8bJ 8g# 8e 8B/	.
=196	=196	=196
!LO:TX:t=P:problem=przednutka zapisana z 8vb	!	!
*8ba	*	*
8qCCC#\	.	.
*X8ba	*	*
4C# 4CC#\	4cc# 4g# 4e#X 4c#/	.
8DL 8DD\	8bL 8f# 8d 8B/	.
8D#XJ 8DD#X\	8aJ 8f# 8c# 8A/	.
!!linebreak:original
=197	=197	=197
8EL 8EE\	8g#L 8e 8G#/	.
8C# 8CC#\	8a 8e 8A/	.
8BB 8BBB\	8b 8a 8f# 8d/	.
8EJ 8EE\	16cc#L 16g# 16e/	.
.	16bJJ 16g# 16d/	.
=198	=198	=198
*8ba	*	*
(8AAL 8AAA\	4.a 4.e 4.c# 4.A/	.
!LO:TX:a:i:t=rit	!	!
8EE 8EEE\	.	.
8AAAJ 8AAAA\)	.	.
*X8ba	*	*
16c#LL 16C#\	8e/	.
16BJJ 16BB\	.	.
=199||	=199||	=199||
!	!LO:TX:a:B:t=12 Var.	!
16ALL 16AA\	8aL 8e 8c# 8A/	.
16G# 16GG#\	.	.
16A 16AA\	8aJ 8f 8c# 8A/	.
16F#JJ 16FF#\	.	.
16ELL 16EE\	8bL 8g# 8e 8B/	.
16F# 16FF#\	.	.
16E 16EE\	8bJ 8g# 8e 8B/	.
16DJJ 16DD\	.	.
=200	=200	=200
16C#LL 16CC#\	4cc# 4a 4e 4c#/	.
16BB 16BBB\	.	.
16C# 16CC#\	.	.
16AAJJ 16AAA\	.	.
16DLL 16DD\	8bL 8f# 8d 8B/	.
16C# 16CC#\	.	.
16D 16DD\	8aJ 8f# 8c# 8A/	.
16D#XJJ 16DD#X\	.	.
=201	=201	=201
16ELL 16EE\	8g#L 8e 8B 8G#/	.
16Dn 16DDn\	.	.
16C# 16CC#\	8aJ 8e 8c# 8A/	.
16AAJJ 16AAA\	.	.
16BBLL 16BBB\	8f#L 8c# 8A/	.
16C# 16CC#\	.	.
16D 16DD\	16g#L 16B 16G#/	.
16D#XJJ 16DD#X\	16f#JJ 16A 16F#/	.
!!linebreak:original
=202	=202	=202
16ELL 16EE\	4.e 4.G# 4.E/	.
16D#X 16DD#X\	.	.
16E 16EE\	.	.
16F#JJ 16FF#\	.	.
16ELL 16EE\	.	.
16Dn 16DDn\	.	.
16C# 16CC#\	8e 8E</	.
16BBJJ 16BBB\	.	.
=203	=203	=203
*8ba	*	*
16AALL 16AAA\	8aL 8e 8c# 8A/	.
16GG# 16GGG#\	.	.
16AA 16AAA\	8aJ 8f# 8c# 8A/	.
16FF#JJ 16FFF#\	.	.
16EELL 16EEE\	8bL 8g# 8e 8B/	.
16FF# 16FFF#\	.	.
16EE 16EEE\	8bJ 8g# 8e 8B/	.
16DDJJ 16DDD\	.	.
=204	=204	=204
16CC#LL 16CCC#\	4cc# 4g# 4e 4c#/	.
16DD#X 16DDD#X\	.	.
16EE 16EEE\	.	.
16FF#JJ 16FFF#\	.	.
*X8ba	*	*
16GG#LL 16GGG#\	8bL 8g# 8d#X 8B/	.
16AA 16AAA\	.	.
16BB 16BBB\	8aJ 8f# 8d# 8A/	.
16BB#XJJ 16BBB#X\	.	.
=205	=205	=205
16C#LL 16CC#\	8g#L 8e 8c# 8G#/	.
16BB 16BBB\	.	.
16AA 16AAA\	8cc# 8a 8e 8c#/	.
16GG#JJ 16GGG#\	.	.
16FF#LL 16FFF#\	8dd#X 8cc# 8a 8d#X/	.
16AA 16AAA\	.	.
.	8qqee 8qqb#X 8qqg# 8qqe/	.
16GG# 16GGG#\	8dd#J 8d#/	.
16BB#XJJ 16BBB#X\	.	.
=206	=206	=206
16C#LL 16CC#\	4.cc# 4.g# 4.e 4.c#/	.
16BB#X 16BBB#X\	.	.
16C# 16CC#\	.	.
16D#XJJ 16DD#X\	.	.
16ELL 16EE\	.	.
16D#X 16DD#X\	.	.
16E 16EE\	8e/	.
16DnJJ 16DDn\	.	.
=207||	=207||	=207||
16C#LL 16CC#\	8eeL 8a 8e/	.
16BB 16BBB\	.	.
16C# 16CC#\	8eeJ 8a 8e/	.
16AAJJ 16AAA\	.	.
!!pagebreak:original
=-	=-	=-
16F#LL 16FF#\	8aL 8f# 8c# 8A/	.
16E 16EE\	.	.
16D 16DD\	16bL 16B/	.
16C#JJ 16CC#\	16ddJJ 16d/	.
=208	=208	=208
!	!LO:N:vis=4	!
16BBLL 16BBB\	8dd 8a 8f# 8d/	.
16D 16DD\	.	.
.	(8qdd 8qg# 8qe 8qd/	.
16E 16EE\	16cc#LL 16g# 16e 16c#/)	.
16G#JJ 16GG#\	16bJJ 16B/	.
16ALL 16AA\	8cc# 8a 8e 8c#/	.
16E 16EE\	.	.
16C# 16CC#\	8e/	.
16BBJJ 16BBB\	.	.
=209	=209	=209
16AALL 16AAA\	8cc#L 8f# 8c#/	.
16BB 16BBB\	.	.
16C# 16CC#\	8cc#J 8f# 8c#/	.
16AAJJ 16AAA\	.	.
16DLL 16DD\	8aL 8c#< 8F#</	.
16C# 16CC#\	.	.
16BB 16BBB\	16g#L 16G#/	.
16AAJJ 16AAA\	16aJJ 16c#/	.
=210	=210	=210
16GG#LL 16GGG#\	8bL 8f# 8d 8B/	.
16BB 16BBB\	.	.
.	8qb [8qe#X [8qc# 8qB/	.
16C# 16CC#\	16aL 16e#] 16c#] 16A/	.
16E#XJJ 16EE#X\	16g#JJ 16G#/	.
16F#LL 16FF#\	8a 8A/	.
16D 16DD\	.	.
16C# 16CC#\	8e#yX/	.
16BBJJ 16BBB\	.	.
=211	=211	=211
*8ba	*	*
16AALL 16AAA\	8aL 8e 8c# 8A/	.
16GG# 16GGG#\	.	.
16AA 16AAA\	8aJ 8f# 8c# 8A/	.
16FF#JJ 16FFF#\	.	.
16EELL 16EEE\	8bL 8g# 8e 8B/	.
16FF# 16FFF#\	.	.
16EE 16EEE\	8bJ 8g# 8e 8B/	.
16DDJJ 16DDD\	.	.
=212	=212	=212
16CC#LL 16CCC#\	4cc# 4g# 4e#X 4c#/	.
16DD#X 16DDD#X\	.	.
16EE#X 16EEE#X\	.	.
16CC#JJ 16CCC#\	.	.
16FF#LL 16FFF#\	8bL 8e# 8c# 8B/	.
16GG# 16GGG#\	.	.
16AA 16AAA\	8aJ 8f# 8c# 8A/	.
16BBJJ 16BBB\	.	.
!!linebreak:original
=213	=213	=213
16C#LL 16CC#\	8g#L 8e 8c# 8G#/	.
16BB 16BBB\	.	.
16AA 16AAA\	8aJ 8A/	.
16FF#JJ 16FFF#\	.	.
16DLL 16DD\	8bL 8a 8f# 8B/	.
16DD 16DDD\	.	.
16EE 16EEE\	16cc#L 16g# 16e 16c#/	.
16GG#JJ 16GGG#\	16bJJ 16B/	.
=214	=214	=214
!	!LO:N:vis=4.	!
16AALL 16AAA\	4..a 4..e 4..A/	.
16GG# 16GGG#\	.	.
16AA 16AAA\	.	.
16FF#JJ 16FFF#\	.	.
16EELL 16EEE\	.	.
16CC#J 16CCC#\	.	.
8AAAJ 8AAAA;\	.	.
.	(16e/	.
*X8ba	*	*
=215||	=215||	=215||
*M6/8	*M6/8	*
!	!LO:TX:a:B:t=Vivace	!
!	!LO:TX:a:t=13	!
8AA\	8a 8c#/)	.
!	!LO:TX:b:t=14.	!
8r	8r	.
*clefG2	*	*
(8cc#^\L	8aa [8ee\	.
!	!LO:TX:t=P:problem= 9 ołówkiem	!
8b\)	8gg# 8ee\]	.
8r	8r	.
*clefF4	*	*
(8BB\L	(>8g# [8e/	.
=216	=216	=216
8C#\J)	8a 8e/])	.
8r	8r	.
(>8cc#>\L	(8ccc#L (8ee/	.
8dd>\J)	8bbJ 8ff#/))	.
8r	8r	.
(8D#X\	(8a 8f# (<(8c#/	.
=217	=217	=217
8E\)	8g# 8e 8B/)))	.
8r	8r	.
(8b>\L	(>8gg#L [8ee/	.
8cc#>\J)	8aaJ 8ee/])	.
8r	8r	.
!	!LO:TX:t=P:problem=cross-measure beam	!
(8BB\	L(8d#<X (8A</	.
!!linebreak:original
=218	=218	=218
8E 8EE\)	8e< 8G#</))	.
8r	8r	.
*clefG2	*	*
!LO:SIC:v:n=1:s=(8bL 8f#\	!	!
(8aL 8e\	(8bbL (8ff#\	.
8g#\J)	8eeeJ 8ee\))	.
8r	8r	.
*clefF4	*	*
!LO:TX:t=P:problem=cross-measure beam	!	!
(8E\L	(>8e/	.
=219	=219	=219
8AA\J)	8a 8c#/)	.
8r	8r	.
(8cc#>\L	(>8aaL [8ee/	.
8b>\J)	8gg#J 8ee/])	.
8r	8r	.
!LO:TX:t=P:problem=cross-measure beam	!	!
(8BB\L	8g# [8e/	.
=220	=220	=220
8C#\J)	8a 8e/]	.
8r	8r	.
(8cc#>\L	(8ccc#L (8ee/	.
8dd>\J)	8bbJ 8ff#/))	.
8r	8r	.
!LO:TX:t=P:problem=cross-measure beam	!	!
(8D#X\L	(8aL 8f# ([8c#/	.
=221	=221	=221
8E\J)	8g#J 8e 8c#/]))	.
8r	8r	.
(8a>\L	(8ccc#L (8ee/	.
8f#>\J)	8ddd#XJ 8aa/))	.
8r	8r	.
!LO:TX:t=P:problem=cross-measure beam	!LO:TX:t=P:problem=cross-measure beam	!
(8GG#\L	(8eL 8B#X 8G#/	.
=222	=222	=222
8C#\J)	8c#J 8E/)	.
8r	8r	.
*clefG2	*	*
*	*8va	*
(8ff#L 8cc#\	(8ggg#L 8ddd#X\	.
8eeJ 8cc#\)	8cccc#J 8ccc#\)	.
*	*X8va	*
8r	8r	.
*clefF4	*	*
!LO:TX:t=P:problem=cross-measure beam	!LO:TX:t=P:problem=cross-measure beam	!
(8E\L	(8c#/L	.
=223||	=223||	=223||
8C#\J)	8e/J)	.
8r	8r	.
*clefG2	*	*
(<[8cc#L 8c#\	(8eeeL [8ee\	.
8cc#]J 8f#\)	8aaJ 8ee\])	.
8r	8r	.
*clefF4	*	*
!	!LO:TX:t=P:problem=cross-measure beam	!
(8FF#\	(8f#< (8A</	.
!!linebreak:original
=224	=224	=224
8BB\)	8d< 8B</))	.
8r	8r	.
(8e>\L	(8dddL (8gg#/	.
8a>\J)	8ccc#J 8aa/))	.
8r	8r	.
!LO:TX:t=P:problem=cross-measure beam	!LO:TX:t=P:problem=cross-measure beam	!
(8AA\L	(8c#<L (8E</	.
=225	=225	=225
8FF#\J)	8A<J 8F#</))	.
8r	8r	.
8aL 8A\	(>8ccc#L [8cc#/	.
8aJ 8d\	8ff#J 8cc#/])	.
8r	8r	.
!LO:TX:t=P:problem=cross-measure beam	!LO:TX:t=P:problem=cross-measure beam	!
(8DD\L	(8d<L (8F#</	.
=226	=226	=226
8GG#\J)	8B<J 8G#</))	.
8r	8r	.
(8c#>\L	(8bbL (8ee#X/	.
8f#>\J)	8aaJ 8ff#/))	.
8r	8r	.
!LO:TX:t=P:problem=cross-measure beam	!	!
(8E\L	(8e/	.
=227	=227	=227
8AA\J)	8a 8c#/)	.
8r	8r	.
*clefG2	*	*
(8cc#\L	(>8ccc#L [8ee/	.
8b\J)	8gg#J 8ee/])	.
8r	8r	.
!LO:TX:t=P:problem=cross-measure beam	!LO:TX:t=P:problem=cross-measure beam	!
(8g#\L	(8g#L [8e/	.
=228	=228	=228
8a\J)	8aJ 8e/])	.
8r	8r	.
(8cc#\L	(8ccc#L (8ee\	.
8dd\J)	8bbJ 8ff#\))	.
8r	8r	.
*clefF4	*	*
!LO:TX:t=P:problem=cross-measure beam	!LO:TX:t=P:problem=cross-measure beam	!
(8D#X\	(8a 8f# ((8c#/	.
!!linebreak:original
=229	=229	=229
!	!LO:TX:t=P:problem=brak zakończenia łuku	!
8E\)	8g# 8e 8B/)))	.
8r	8r	.
(8cc#>\L	(8aaL (8ee/	.
8b>\J)	8bbJ 8gg# 8dd/))	.
8r	8r	.
!LO:TX:t=P:problem=cross-measure beam	!LO:TX:t=P:problem=cross-measure beam	!
(8E\L	(8g#L 8d/	.
=230	=230	=230
8AA\J)	8aJ 8c#/)	.
8r	8r	.
*clefG2	*	*
8ddL 8a\	(8eeeL 8bb\	.
8cc#J 8a\	8aaaJ 8aa\)	.
8r	8r	.
*clefF4	*	*
8EE\	8E/	.
=231||	=231||	=231||
*k[]	*k[]	*
*M4/4	*M4/4	*
*met(c)	*met(c)	*
!	!LO:TX:t=P::problem=ołówkiem zmieniony nr wariacji&colon; 15 Var.	!
!LO:TUP:a:problem=klamra łukowa	!LO:TX:a:B:t=14 Var.	!LO:DY:t=piano
12AAA\L	4A< 4E< 4C</	p
12EE\	.	.
12AAA\J	.	.
12EE\L	[4A< [<4E< [<4C</	.
12AAA\	.	.
12EE\J	.	.
12AAA\L	8A<]L 8E<] 8C</]	.
12EE\	.	.
.	8A< 8E< 8C</	.
12AAA\J	.	.
12EE\L	8A< 8E< 8C</	.
12AAA\	.	.
.	8A<J 8E< 8C</	.
12EE\J	.	.
=232	=232	=232
*rep	*	*
12AAA\L	4B< 4G< 4E</	.
12EE\	.	.
12AAA\J	.	.
*Xrep	*	*
*rep	*	*
12EE\L	[4B< [<4G< [<4E</	.
12AAA\	.	.
12EE\J	.	.
*Xrep	*	*
*rep	*	*
12AAA\L	8B<]L 8G<] 8E</]	.
12EE\	.	.
.	8B< 8G< 8E</	.
12AAA\J	.	.
*Xrep	*	*
*rep	*	*
12EE\L	8B< 8G< 8E</	.
12AAA\	.	.
.	8B<J 8G< 8E</	.
12EE\J	.	.
!!linebreak:original
*Xrep	*	*
=233	=233	=233
*rep	*	*
12AAA\L	4c< 4G< 4E</	.
12EE\	.	.
12AAA\J	.	.
*Xrep	*	*
*rep	*	*
12EE\L	8d<L 8A< 8F</	.
12AAA\	.	.
.	8c<J 8G< 8E</	.
12EE\J	.	.
*Xrep	*	*
*rep	*	*
12AAA\L	4B< 4F< 4D</	.
12EE\	.	.
12AAA\J	.	.
*Xrep	*	*
*rep	*	*
12EE\L	4A< 4E< 4C</	.
12AAA\	.	.
12EE\J	.	.
*Xrep	*	*
=234	=234	=234
*rep	*	*
12AAA\L	2F< 2D< 2BB-X</	.
12EE\	.	.
12AAA\J	.	.
*Xrep	*	*
*rep	*	*
12EE\L	.	.
12AAA\	.	.
12EE\J	.	.
*Xrep	*	*
*rep	*	*
12AAA\L	4E< 4BBn< 4GG#X</	.
12EE\	.	.
12AAA\J	.	.
*Xrep	*	*
*rep	*	*
12EE\L	4E</	.
12AAA\	.	.
12EE\J	.	.
*Xrep	*	*
=235	=235	=235
*rep	*	*
12AAA\L	4A< 4E< 4C</	.
12EE\	.	.
12AAA\J	.	.
*Xrep	*	*
*rep	*	*
12EE\L	[4A< [>4E< [4C</	.
12AAA\	.	.
12EE\J	.	.
*Xrep	*	*
*rep	*	*
12AAA\L	8A<]L 8E<] 8C</]	.
12EE\	.	.
.	8A< 8E< 8C</	.
12AAA\J	.	.
*Xrep	*	*
*rep	*	*
12EE\L	8A< 8E< 8C</	.
12AAA\	.	.
.	8A<J 8E< 8C</	.
12EE\J	.	.
*Xrep	*	*
=236	=236	=236
*rep	*	*
12AAA\L	4B< 4G< 4E</	.
12EE\	.	.
12AAA\J	.	.
*Xrep	*	*
*rep	*	*
12EE\L	[4B< [>4G< [4E</	.
12AAA\	.	.
12EE\J	.	.
*Xrep	*	*
*rep	*	*
12AAA\L	8B<]L 8G<] 8E</]	.
12EE\	.	.
.	8B< 8G< 8E</	.
12AAA\J	.	.
*Xrep	*	*
*rep	*	*
12EE\L	8B< 8G< 8E</	.
12AAA\	.	.
.	8B<J 8G< 8E</	.
12EE\J	.	.
*Xrep	*	*
=237	=237	=237
*rep	*	*
12AAA\L	4c< 4G< 4E</	.
12EE\	.	.
12AAA\J	.	.
*Xrep	*	*
*rep	*	*
12EE\L	8d<L 8A< 8F#X</	.
12AAA\	.	.
.	8c<J 8G< 8E</	.
12EE\J	.	.
*Xrep	*	*
12BBB\L	4B< 4F#< 4D#X</	.
12BB\	.	.
12BBB\	.	.
12BB\	4d< 4A< 4F#</	.
12BBB\	.	.
12BB\J	.	.
!!pagebreak:original
=238	=238	=238
12EE\L	2e< 2G< 2E</	.
12D\	.	.
12EE\J	.	.
12BB\L	.	.
12EE\	.	.
12BB\J	.	.
12EE\L	4e< 4G< 4E</	.
12BB\	.	.
12EE\J	.	.
12BB\L	4r<	.
12GG\	.	.
12EE\J	.	.
=239	=239	=239
12CC\L	4e< 4G< 4E</	.
12GG\	.	.
12CC\J	.	.
12GG\L	4e< 4G< 4E</	.
12CC\	.	.
12GG\J	.	.
12CC\L	4A< 4F</	.
12GG\	.	.
12CC\J	.	.
12GG\L	8B<L 8G</	.
12CC\	.	.
.	8c<J 8A</	.
12GG\J	.	.
=240	=240	=240
*rep	*	*
12CC\L	4d< 4B< 4G< 4F</	.
12GG\	.	.
12CC\J	.	.
.	8qqd</	.
*Xrep	*	*
*rep	*	*
12GG\L	8c<L 8G< 8F</	.
12CC\	.	.
.	8B</J	.
12GG\J	.	.
*Xrep	*	*
*rep	*	*
12CC\L	4c< 4G< 4E</	.
12GG\	.	.
12CC\J	.	.
*Xrep	*	*
*rep	*	*
12GG\L	4E</	.
12CC\	.	.
12GG\J	.	.
*Xrep	*	*
=241	=241	=241
12AAA\L	4c< 4E< 4C</	.
12AA\	.	.
12AAA\	.	.
12AA\	4c< 4E< 4C</	.
12AAA\	.	.
12AA\J	.	.
12DD\L	4F< 4C</	.
12AA\	.	.
12DD\	.	.
12AA\	8G</L	.
12DD\	.	.
.	8A</J	.
12AA\J	.	.
=242	=242	=242
12GGG\L	4B-X< 4F< 4BB-X</	.
12GG\	.	.
12GGG\J	.	.
.	8qB-</	.
12CC\L	8A<L 8E< 8BB-</	.
12GG\	.	.
.	8G</J	.
12CC\J	.	.
12FFF\L	4A< 4F< 4AA</	.
12FF\	.	.
12FFF\J	.	.
12FF\L	4r<	.
12DD\	.	.
12CC\J	.	.
=243	=243	=243
12AAA\L	4A< 4E< 4C</	.
12EE\	.	.
12AAA\J	.	.
12EE\L	[4A< [4E< [<4C</	.
12AAA\	.	.
12EE\J	.	.
!!linebreak:original
=-	=-	=-
12EE\L	8A<]L 8E<] 8C</]	.
12AAA\	.	.
.	8A< 8E< 8C</	.
12EE\	.	.
12AAA\	8A< 8E< 8C</	.
12EE\	.	.
.	8A<J 8E< 8C</	.
12AAA\J	.	.
=244	=244	=244
*rep	*	*
12AAA\L	4B< 4G< 4E</	.
12EE\	.	.
12AAA\	.	.
12EE\	[4B< [<4G< [<4E</	.
12AAA\	.	.
12EE\J	.	.
*Xrep	*	*
*rep	*	*
12EE\L	8B<]L 8G<] 8E</]	.
12AAA\	.	.
.	8B< 8G< 8E</	.
12EE\	.	.
12AAA\	8B< 8G< 8E</	.
12EE\	.	.
.	8B<J 8G< 8E</	.
12AAA\J	.	.
*Xrep	*	*
=245	=245	=245
*rep	*	*
12AAA\L	4c#X< 4G< 4E</	.
12EE\	.	.
12AAA\	.	.
12EE\	4d< 4A< 4F</	.
12AAA\	.	.
12EE\J	.	.
*Xrep	*	*
*rep	*	*
12EE\L	4e< 4c#< 4G</	.
12AAA\	.	.
12EE\	.	.
12AAA\	8f<L 8c#< 8A</	.
12EE\	.	.
.	8e<J 8G</	.
12AAA\J	.	.
*Xrep	*	*
=246	=246	=246
*rep	*	*
12AAA\L	4d< 4A< 4F</	.
12EE\	.	.
12AAA\	.	.
!	!	!LO:HP:t=cres-cendo
12EE\	4e< 4d< 4G#X</	<
12AAA\	.	.
12EE\J	.	.
*Xrep	*	*
*rep	*	*
12EE\L	4f< 4d< 4A</	.
12AAA\	.	.
12EE\	.	.
12AAA\	4e< 4d< 4G#</	.
12EE\	.	.
12AAA\J	.	.
*Xrep	*	*
=247||	=247||	=247||
*rep	*	*
12AAA\L	4a 4e 4c 4A/	.
12EE\	.	.
12AAA\	.	.
12EE\	4b 4g#X 4e 4B/	.
12AAA\	.	.
12EE\J	.	.
*Xrep	*	*
*rep	*	*
12EE\L	4cc 4a 4e 4c/	.
12AAA\	.	.
12EE\	.	.
12AAA\	4ee 4b 4g# 4e/	.
12EE\	.	.
12AAA\J	.	.
*Xrep	*	*
=248	=248	=248
1ryy	4aa 4ee 4cc 4a\	<
.	4bb 4gg#X 4ee 4b\	.
.	4ccc 4aa 4ee 4cc\	.
.	4eee 4bb 4gg# 4ee\	[[
!!linebreak:original
=249||	=249||	=249||
*M6/8	*M6/8	*
*	*8va	*
!	!LO:TX:t=P::problem=ołówkiem zmieniony nr wariacji&colon; 16 Var.	!
!LO:TX:t=P:problem=mixed beam	!LO:TX:a:B:t=15. Var.	!
8AAL 8AAA/	8aaaL 8aa\	.
16cL\ 16A\	16cccL 16aa\	.
*	*X8va	*
16d\JJ 16B\	16ddJJ 16b\	.
8eL 8c\	8eeL 8cc\	.
*	*8va	*
8AJ 8AA\	8aaa 8aa\	.
8EL 8EE\	8bbb 8bb\	.
*	*X8va	*
8BJ 8G 8E\	8bJ 8g 8e\	.
=250	=250	=250
*	*8va	*
!LO:TX:t=P:problem=mixed beam	!	!
8CL 8CC/	8ccccL 8ccc\	.
*	*X8va	*
16cL 16G 16E\	16ccL 16e\	.
16dJJ 16G\	16ddJJ 16g\	.
8eL 8c\	8eeL 8cc\	.
*	*8va	*
8C 8CC\	8eeee 8cccc 8eee\	.
8D 8DD\	8dddd 8bbb 8ddd\	.
8D#XJ 8DD#X\	8ccccJ 8aaa 8ccc\	.
=251	=251	=251
8EL 8EE\	8bbbL 8ggg#X 8bb\	.
*	*X8va	*
16G#XL 16E\	16g#XL 16e\	.
16AJJ 16F#X\	16aJJ 16f#X\	.
8BL 8G#\	8bL 8g#\	.
*	*8va	*
8E 8EE\	8bbb 8ggg# 8bb\	.
8D 8DD\	8cccc 8aaa 8ccc\	.
8D#XJ 8DD#X\	8aaaJ 8ccc 8aa\	.
=252	=252	=252
8E 8EE\	8eee 8gg#X 8ee\	.
*	*X8va	*
16G#XLL 16E\	(16g#LL 16e\	.
16AJ 16F#X\	16aJ 16f#X\	.
8BJ 8G#\	8bJ 8g#\)	.
*clefG2	*	*
16g#XLL 16e/	16gg#XLL 16ee\	.
16aJ 16f#X/	16aaJ 16ff#X\	.
8bJ 8g#/	8bbJ 8gg#\	.
*clefF4	*	*
*	*8va	*
8E 8EE\	8eeee 8eee\	.
=253	=253	=253
8AA 8AAA\	8aaaa 8aaa\	.
*	*X8va	*
16cLL 16A\	16ccLL 16a\	.
16dJJ 16B\	16ddJJ 16b\	.
!!linebreak:original
=-	=-	=-
8e 8c\	8eeL 8cc\	.
8AAL 8AAA\	8ccc 8aa 8cc\	.
8GGJ 8GGG\	8ddd 8bb 8dd\	.
8d 8B 8G\	8ddJ 8b 8g\	.
=254	=254	=254
8C 8CC\	8eee 8ccc 8ee\	.
16cLL 16E\	16ccLL 16e\	.
16dJ 16G\	16ddJ 16g\	.
8eJ 8c\	8eeJ 8cc\	.
8CL 8CC\	8gggL 8eee 8gg\	.
8D 8DD\	8fff#X 8ddd 8ff#X\	.
8D#XJ 8DD#X\	8aaaJ 8ccc 8aa\	.
=255	=255	=255
8E 8EE\	8ggg 8bb 8gg\	.
16GLL 16E\	16gLL 16e\	.
16AJ 16F#X\	16aJ 16f#X\	.
8BJ 8G\	8bJ 8g\	.
*	*8va	*
8BBL 8BBB\	8bbbL 8ggg 8bb\	.
8C#X 8CC#X\	8aaa 8fff#X 8aa\	.
8D#XJ 8DD#X\	8fff#J 8aa 8ff#\	.
=256	=256	=256
8E 8EE\	8eee 8gg 8ee\	.
*	*X8va	*
16GLL 16E\	16gLL 16e\	.
16AJ 16F#X\	16aJ 16f#X\	.
8BJ 8G\	8bJ 8g\	.
*	*8va	*
8BBL 8BBB\	8bbbL 8bb\	.
8EEJ 8EEE\	8eeeeJ 8eee\	.
*	*X8va	*
8E\	8e/	.
=257||	=257||	=257||
8C 8CC\	8gggL 8eee 8gg\	.
16cLL 16G 16E\	16eeL 16g\	.
16dJ 16G\	16ffJ 16cc\	.
8eJ 8c\	8ggJ 8ee\	.
*	*8va	*
8CL 8CC\	8gggL 8eee 8gg\	.
8FJ 8FF\	8aaaJ 8fff 8aa\	.
*	*X8va	*
8A 8F\	8cc 8a 8f\	.
!!linebreak:original
=258	=258	=258
8BBL 8BBB\	8fffL 8ff\	.
8E 8EE\	16eeeL 16gg#X 16ee\	.
.	16dddJ 16gg# 16dd\	.
8AAJ 8AAA\	8cccJ 8aa 8cc\	.
8E\L	8eeL 8e\	.
8C\	8aa 8a\	.
8BB\J	8bbJ 8b\	.
=259	=259	=259
8AA 8AAA\	8cccL 8aa 8cc\	.
16ALL 16F\	16aL 16f\	.
16B-XJ 16G\	16b-XJ 16g\	.
8cJ 8A\	8ccJ 8a\	.
8AAL 8AAA\	8cccL 8aa 8cc\	.
8GG 8GGG\	8ddd 8bb-X 8dd\	.
8BB-XJ 8BBB-X\	8ggJ 8dd 8g\	.
=260	=260	=260
!	!LO:SIC:v:n=1:s=8bb-L	!
8GGL 8GGG\	8bbL 8dd 8b-X\	.
8C 8CC\	16aaL 16cc 16a\	.
.	16ggJ 16g\	.
8FFJ 8FFF\	8ffJ 8a 8f\	.
8A\L	8cccL 8cc\	.
8D\	8fff 8ff\	.
8E\J	8eeeJ 8ee\	.
=261	=261	=261
*	*8va	*
8AA 8AAA\	8aaa 8aa\	.
*	*X8va	*
16cLL 16A\	16ccLL 16a\	.
16dJ 16B\	16ddJ 16b\	.
8eJ 8c\	8eeJ 8cc\	.
8AAL 8AAA\	8cccL 8aa 8cc\	.
8GG 8GGG\	8ddd 8bb 8dd\	.
8dJ 8B 8G\	8ggJ 8b 8g\	.
!!linebreak:original
=262	=262	=262
8C 8CC\	8eeeL 8ccc 8ee\	.
16cLL 16G 16E\	16ccL 16e\	.
16dJ 16G\	16ddJ 16g\	.
8eJ 8c\	8eeJ 8cc\	.
8CL 8CC\	8eeeL 8ccc 8ee\	.
8D 8DD\	8ddd 8bb 8dd\	.
8D#XJ 8DD#X\	8cccJ 8aa 8cc\	.
=263	=263	=263
8E 8EE\	8bbL 8gg#X 8b\	.
16G#XLL 16E\	16g#XL 16e\	.
16AJ 16F#X\	16aJ 16f#X\	.
8BJ 8G#\	8bJ 8g#\	.
8EL 8EE\	8eeeL 8gg# 8ee\	.
8D 8DD\	8fff#X 8ff#X\	.
8BBJ 8BBB\	8ggg#XJ 8gg#X\	.
=264	=264	=264
8AA 8AAA\	8aaa 8ccc 8aa\	.
16cLL 16A\	16ccLL 16a\	.
16dJ 16B\	16ddJ 16b\	.
8eJ 8c\	8eeJ 8cc\	.
*	*8va	*
8EL 8EE\	8eeeeL 8eee\	.
!LO:TX:a:i:t=rit,	!	!
8AAJ 8AAA\	8aaaaJ 8aaa\	.
*	*X8va	*
(8E;\	(8e;/	.
=265||	=265||	=265||
*k[f#c#g#]	*k[f#c#g#]	*
*M2/4	*M2/4	*
*	*^	*
!	!LO:TX:t=P:problem=brak metrum	!	!
!	!LO:TX:a:t=19	!	!
!	!LO:TX:a:B:t=16. Var	!	!
8A\)	8a/L)	8r	.
4F#\	8a/J	8e\L	.
.	8b/L	8d#X\	.
8G#\	8b/J	8dn\J	.
*	*v	*v	*
=266	=266	=266
8A\L	[8cc#L 8c#/	.
8C#\J	8cc#]J 8e/	.
!!pagebreak:original
=-	=-	=-
8D\L	8bL 8f# 8d/	.
8D#X\J	8aJ 8f# 8c#/	.
=267	=267	=267
8E\L	8g#L 8e 8B/	.
8C#\	8a 8e 8A/	.
8Cn\	8f# 8e 8A/	.
8BB\J	16g#L 16d#X 16A/	.
.	16f#/JJ	.
=268	=268	=268
*^	*^	*
8G#/L	8E\L	4.e/	8e\L	.
8A/	8F#\	.	8d#X\	.
8B/J	8G#\J	.	8dn\J	.
8E\	8ryy	8e/	8ryy	.
*v	*v	*	*	*
=269	=269	=269	=269
8C#\L	8a/L	8r	.
8AA\	8a/	8eL 8c#\	.
8GG#\	8b/	8e 8B\	.
8GGn\J	8b/J	8eJ 8B\	.
=270	=270	=270	=270
*^	*	*	*
8A#X/L	8FF#X\L	4cc#/	8e\L	.
8An/	8BB\	.	8d#X\	.
8G#/	8EE\	8b/L	8dn\	.
8A/J	8FF#\J	8a/J	16c#\L	.
.	.	.	16d#X\JJ	.
=271	=271	=271	=271	=271
8c#/L	8GG#\	8g#/L	8e\	.
8A/J	4AA\	8f#/	4c#\	.
4F#/	.	8d#X/	.	.
.	8GG#\	16e/L	8B#X\	.
.	.	16d#/JJ	.	.
*	*	*v	*v	*
=272	=272	=272	=272
4.E/	8C#\L	4.c# 4.G#/	.
.	8GG#\	.	.
.	8CC#\J	.	.
(8E\	8ryy	[8e/	.
!!linebreak:original
=273||	=273||	=273||	=273||
*	*	*^	*
!LO:TX:t=P:problem=brak zakończenia łuku	!	!	!LO:TX:t=P:problem=brak zakończenia łuku	!
8c#L 8A 8C#\)	4ryy	8eeL 8a 8e\]	4ryy	.
8c#J 8A 8C#\	.	8eeJ 8a 8e\	.	.
.	.	8qee/	.	.
8c#/L	4F#\	8a/L	4e\	.
16B/L	.	16b/L	.	.
16A/JJ	.	16cc#/JJ	.	.
*v	*v	*	*	*
*	*v	*v	*
=274	=274	=274
8BL 8F# 8BB\	8ddL 8a 8d/	.
.	8qdd/	.
8E\J	16cc#L 16g# 16d/	.
.	16b/JJ	.
8AL 8AA\	8cc#L 8a 8c#/	.
8E\J	8e/J	.
=275	=275	=275
*^	*^	*
8AL 8F# 8AA\	4ryy	8cc#L 8f# 8c#/	4ryy	.
8AJ 8F# 8AA\	.	8cc#J 8f# 8c#/	.	.
.	.	(8qcc#/	.	.
8A/L	4D\	8f#/L)	4c#\	.
16G#/L	.	16g#/L	.	.
16F#/JJ	.	16a/JJ	.	.
*v	*v	*	*	*
*	*v	*v	*
=276	=276	=276
8G#L 8D 8GG#\	8bL 8f# 8B/	.
.	8qb/	.
8C#\J	16aL 16e#X 16B/	.
.	16g#/JJ	.
8F# 8FF#\	8a 8f# 8A/	.
!	!LO:SIC:v:s=8en/	!
8E\	8e#/	.
=277	=277	=277
*	*^	*
8A\	8a/L	8r	.
4F#\	8a/	8e\L	.
.	8b/	8d#X\	.
8G#\	8b/J	8dn\J	.
=278	=278	=278	=278
8A\L	4cc# 4c#/	8c#\L	.
8C#\	.	8e\J	.
8D\	8bL 8f#/	8f#L 8d\	.
8D#X\J	8aJ 8f#/	8f#J 8c#\	.
*	*v	*v	*
!!linebreak:original
=279	=279	=279
8E\L	8g#L 8e 8B/	.
8D\	8a 8f# 8d/	.
8BB\	8b 8f# 8d/	.
8E\J	16cc#L 16g# 16e/	.
.	16bJJ 16d/	.
=280	=280	=280
(8A\L	4.a 4.e 4.c#/	.
8E\	.	.
8AA\J)	.	.
8r	8e/	.
=281||	=281||	=281||
*M4/4	*M4/4	*
*met(c)	*met(c)	*
*^	*^	*
!	!	!LO:TX:a:B:t=17 Var.	!	!
2c# 2E 2AA\	2ryy	16r	4a\	.
.	.	16aa/LL	.	.
.	.	16gg#/	.	.
.	.	16aa/	.	.
.	.	16ee/	4a\	.
.	.	16dd#X/	.	.
.	.	16ee/	.	.
.	.	16cc#/JJ	.	.
!	!	!LO:TX:a:t=11	!	!
4B/	2E\	4b/	16r	.
.	.	.	16g#\LL	.
.	.	.	16f##X\	.
.	.	.	16g#\	.
4G#/	.	4b/	16e\	.
.	.	.	16d#X\	.
.	.	.	16e\	.
.	.	.	16B\JJ	.
=282	=282	=282	=282	=282
16r	2C#\	2cc#/	2e\	.
16c#/LL	.	.	.	.
16B#X/	.	.	.	.
16c#/JJ	.	.	.	.
16G#/LL	.	.	.	.
16F##X/	.	.	.	.
16G#/	.	.	.	.
16E/JJ	.	.	.	.
!LO:SIC:v:s=4F#/	!	!	!	!
4F##/	16D\LL	4b/	2f#\	.
.	16D\	.	.	.
.	16C#\	.	.	.
.	16D\JJ	.	.	.
4B#/	16D#X\LL	4a/	.	.
.	16BB\	.	.	.
.	16C#\	.	.	.
.	16D#\JJ	.	.	.
=283	=283	=283	=283	=283
2B/	2E\	16g#/LL	4e\	.
.	.	16b/	.	.
.	.	16a#X/	.	.
.	.	16b/JJ	.	.
.	.	16g#/LL	4b\	.
.	.	16f##X/	.	.
.	.	16g#/	.	.
.	.	16e/JJ	.	.
!!linebreak:original
=-	=-	=-	=-	=-
4A/	16F#\LL	4c#/	8b\L	.
.	16F#\	.	.	.
.	16E#X\	.	8a#\J	.
.	16F#\JJ	.	.	.
!	!	!LO:SIC:v:s=4f#/	!	!
4A/	16D#X\LL	4f##/	8c#\L	.
.	16C#\	.	.	.
.	16D#\	.	8B\J	.
.	16BB\JJ	.	.	.
=284	=284	=284	=284	=284
[4G#/	4E\	2.e/	16B\LL	.
.	.	.	16e\	.
.	.	.	16d#X\	.
.	.	.	16e\JJ	.
16G#/LL]	4F#\	.	[>4e\	.
16A/	.	.	.	.
16G#/	.	.	.	.
16A/JJ	.	.	.	.
4A#X/	4F##X\	.	16e\LL]	.
!	!	!	!LO:TX:t=P:problem=nieczytelne źródło	!
.	.	.	16e\	.
.	.	.	16d#\	.
.	.	.	16e\JJ	.
8B/L	16G#\LL	8e/L	4ryy	.
.	16E\	.	.	.
8d/J	16D\	8eeJ 8g#/	.	.
.	16BB\JJ	.	.	.
=285	=285	=285	=285	=285
2c# 2E 2AA\	2ryy	16ee/LL	4a\	.
.	.	16aa/	.	.
.	.	16gg#/	.	.
.	.	16aa/J	.	.
.	.	16ee/L	4a\	.
.	.	16dd#X/	.	.
.	.	16ee/	.	.
.	.	16cc#/JJ	.	.
4B/	2E\	4b/	16r	.
.	.	.	16g#\LL	.
.	.	.	16f##X\	.
.	.	.	16g#\J	.
4G#/	.	4b/	16e\L	.
.	.	.	16d#X\	.
.	.	.	16e\	.
.	.	.	16B\JJ	.
=286	=286	=286	=286	=286
16r	2C#\	2cc#/	2e\	.
16c#/LL	.	.	.	.
16B#X/	.	.	.	.
16c#/JJ	.	.	.	.
16G#/LL	.	.	.	.
16F##X/	.	.	.	.
16G#/	.	.	.	.
16E/JJ	.	.	.	.
!LO:SIC:v:s=4F#/	!	!	!	!
4F##/	16D#X\LL	4b/	2f#\	.
.	16D#\	.	.	.
.	16C#\	.	.	.
.	16D#\JJ	.	.	.
8d#X/L	16BB\LL	4a/	.	.
.	16BB#X\	.	.	.
16c#/L	16C#\	.	.	.
16B#X/JJ	16D#\JJ	.	.	.
=287	=287	=287	=287	=287
4c#/	4E\	16g#/LL	4e\	.
.	.	16gg#/	.	.
.	.	16ff##X/	.	.
.	.	16gg#/JJ	.	.
4d#X/	[4GG#\	16ee/LL	4f#\	.
.	.	16dd#X/	.	.
.	.	16ee/	.	.
.	.	16cc#/JJ	.	.
!!linebreak:original
=-	=-	=-	=-	=-
!	!LO:TX:t=P:problem=koniec łuku na górze	!	!	!
4e/	4GG#\]	4b#X/	16g#\LL	.
.	.	.	16g#\	.
.	.	.	16f##X\	.
.	.	.	16g#\JJ	.
!	!	!	!LO:N:acc=n#	!
4B#X/	4G#\	4dd#X/	16f#X\LL	.
.	.	.	16e\	.
.	.	.	16f#\	.
.	.	.	16d#X\JJ	.
=288	=288	=288	=288	=288
16c#/LL	[2C#\	[2cc#/	[2e\	.
16c#/	.	.	.	.
16B#X/	.	.	.	.
16c#/JJ	.	.	.	.
16G#/LL	.	.	.	.
16F##X/	.	.	.	.
16G#/	.	.	.	.
16E/JJ	.	.	.	.
16C#/	16C#\LL]	4cc#/]	4e\]	.
4.ryy	16C#\	.	.	.
.	16BB#X\	.	.	.
.	16C#\JJ	.	.	.
.	16GG#\LL	(>4e/	4ryy	.
.	16EE\	.	.	.
.	16DD#X\	.	.	.
16ryy	16CC#\JJ	.	.	.
=289	=289	=289	=289	=289
2e 2c# 2A/	4C#\	16ee/LL)	2a\	.
.	.	16ee/	.	.
.	.	16dd#X/	.	.
.	.	16ee/	.	.
.	4E\	16cc#/	.	.
.	.	16b#X/	.	.
.	.	16cc#/	.	.
.	.	16a/JJ	.	.
16c#/LL	2F#\	4a/	2f#\	.
16c#/	.	.	.	.
16B#X/	.	.	.	.
16c#/JJ	.	.	.	.
!	!	!LO:SIC:v:s=8bn/L	!	!
16d/LL	.	8b#/L	.	.
16c#/	.	.	.	.
16A/	.	8cc#/J	.	.
16F#/JJ	.	.	.	.
=290	=290	=290	=290	=290
2d/	4BB\	16dd/LL	[4f#\	.
.	.	16dd/	.	.
.	.	16cc#/	.	.
.	.	16dd/JJ	.	.
.	4E\	4b/	16f#\LL]	.
.	.	.	16g#\	.
.	.	.	16f##X\	.
.	.	.	16g#\JJ	.
4c#/	16AA\LL	4cc#/	4a\	.
.	16A\	.	.	.
.	16G#\	.	.	.
.	16A\JJ	.	.	.
4ryy	16E\LL	4rg	4rgg	.
.	16D#X\	.	.	.
.	16E\	.	.	.
.	16C#\JJ	.	.	.
=291	=291	=291	=291	=291
2A 2F#/	4AA\	16cc#/LL	2f# 2c#\	.
.	.	16cc#/	.	.
.	.	16b#X/	.	.
.	.	16cc#/JJ	.	.
.	4C#\	16a/LL	.	.
.	.	16g#/	.	.
.	.	16a/	.	.
.	.	16f#/JJ	.	.
16A/LL	2D\	4f#/	2d\	.
16A/	.	.	.	.
16G#/	.	.	.	.
16A/JJ	.	.	.	.
16B/LL	.	8g#/L	.	.
16A/	.	.	.	.
16F#/	.	8a/J	.	.
16D/JJ	.	.	.	.
!!linebreak:original
=292	=292	=292	=292	=292
2B/	4GG#\	16b/LL	[4d\	.
.	.	16b/	.	.
.	.	16a#X/	.	.
.	.	16b/JJ	.	.
.	4C#\	4g#/	16d\LL]	.
.	.	.	16e#X\	.
.	.	.	16d#X\	.
.	.	.	16e#\JJ	.
16A/LL	8FF#\L	4a#/	8f#\L	.
16A/	.	.	.	.
16G#/	8F#\J	.	8d#\J	.
16A/JJ	.	.	.	.
!	!	!LO:TX:t=P:pion:problem	!	!
4G#/	16E\LL	4b/	4dn\	.
.	16E\	.	.	.
.	16D#X\	.	.	.
.	16E\JJ	.	.	.
=293	=293	=293	=293	=293
4c# 4A/	2E 2AA\	16r	4a\	.
.	.	16aa/LL	.	.
.	.	16gg#/	.	.
.	.	16aa/JJ	.	.
4ryy	.	16ee/LL	4a\	.
.	.	16dd#X/	.	.
.	.	16ee/	.	.
.	.	16cc#/JJ	.	.
4B/	2E\	4b/	16r	.
.	.	.	16g#\LL	.
.	.	.	16f##X\	.
.	.	.	16g#\JJ	.
[4G#/	.	4b/	16e\LL	.
.	.	.	16d#X\	.
.	.	.	16e\	.
.	.	.	16B\JJ	.
=294	=294	=294	=294	=294
16G#/LL]	2C#\	2cc#/	2e#X\	.
16c#/	.	.	.	.
16B#X/	.	.	.	.
16c#/JJ	.	.	.	.
16G#/LL	.	.	.	.
16F##X/	.	.	.	.
16G#/	.	.	.	.
16E#X/JJ	.	.	.	.
4F##/	16BB\LL	4dd/	4d\	.
.	16BB\	.	.	.
.	16AA#X\	.	.	.
.	16BB\JJ	.	.	.
16A#X/LL	16C#\LL	8cc#/L	8f#\L	.
16B#/J	16D\J	.	.	.
8c#/J	8D#X\J	16b/L	8f#\J	.
.	.	16a/JJ	.	.
=295	=295	=295	=295	=295
2c#/	16E\LL	4cc#/	2a 2e\	.
.	16E\	.	.	.
.	16D#X\	.	.	.
.	16E\JJ	.	.	.
.	16C#\LL	[4ee/	.	.
.	16BB#X\	.	.	.
.	16C#\	.	.	.
.	16AA\JJ	.	.	.
2d/	4BB#\	16ee/LL]	2g#\	.
.	.	16ee/	.	.
.	.	16dd#X/	.	.
.	.	16ee/JJ	.	.
.	4EE\	16ddn/LL	.	.
.	.	16cc#/	.	.
.	.	16dd/	.	.
.	.	16b/JJ	.	.
=296	=296	=296	=296	=296
16c#/LL	2.AA\	2.a/	2.e\	.
16A/	.	.	.	.
16G#/	.	.	.	.
16A/JJ	.	.	.	.
16E/LL	.	.	.	.
16D#X/	.	.	.	.
16E/	.	.	.	.
16C#/JJ	.	.	.	.
4AA/	.	.	.	.
4ryy	8ryy	(>4e/	4ryy	.
.	8E\	.	.	.
*v	*v	*	*	*
*	*v	*v	*
!!pagebreak:original
=297||	=297||	=297||
!	!LO:TX:t=P:problem=brak zakończenia łuku	!
!	!LO:TX:B:t=Variation\n12	!
4c# 4AA\	12a/L)	.
.	24r	.
.	24g#/K	.
.	12a/J	.
12dL 12G# 12E\	4b 4e/	.
24r	.	.
24F#\K	.	.
12G#\J	.	.
4c# 4A\	12cc#L 12e/	.
.	24r	.
.	24b#/K	.
.	12cc#/J	.
12BL 12E\	4ee 4g#/	.
24r	.	.
24A#XK 24C#\	.	.
12B\J	.	.
=298	=298	=298
4c# 4G# 4E 4C#\	12eeL 12g# 12e/	.
.	24r	.
.	24dd#X/K	.
.	12ee/J	.
12c#L 12F#\	4a 4f#/	.
24r	.	.
24B#X\K	.	.
12c#\J	.	.
!LO:SIC:v:n=1:s=4Bn	!	!
4B# 4D	12bL 12f#/	.
.	24r	.
.	24a#X/K	.
.	12b/J	.
12AL 12D#X\	4f# 4c#/	.
24r	.	.
24G#\K	.	.
12A\J	.	.
=299	=299	=299
4E\	12g#L 12B/	.
.	24r	.
.	24f##X/K	.
.	12g#/J	.
12C#\L	4a 4e 4A/	.
24r	.	.
24BB#X\K	.	.
12C#\J	.	.
!	!LO:SIC:v:n=1:s=12f#L	!
4F#\	12f##L 12c# 12A/	.
.	24r	.
.	24B#X/K	.
.	12c#/J	.
!LO:SIC:v:s=12BBn\L	!	!
12BB#\L	4g# 4d#X 4A/	.
24r	.	.
24AA#X\K	.	.
!LO:SIC:v:s=12BBn\J	!	!
12BB#\J	.	.
=300	=300	=300
4EE\	12eL 12G#/	.
.	24r	.
.	24d#X/K	.
.	12e/J	.
4F#\	12ddL 12a 12e/	.
.	24r	.
.	24cc#/K	.
.	12dd/J	.
12eL 12F##X\	4cc# 4a#X 4e/	.
24r	.	.
24d#X\K	.	.
12e\J	.	.
!	!LO:SIC:v:n=3:s=12dn/	!
4G#\	12bL 12e 12d#/	.
.	24r	.
.	24a#X/K	.
.	12b/J	.
!!linebreak:original
=301	=301	=301
4c# 4AA\	12aL 12e 12c#/	.
.	24r	.
.	24g#/K	.
.	12a/J	.
12dL 12G# 12E\	4b 4e/	.
24r	.	.
24F#\K	.	.
12G#\J	.	.
4c# 4A\	12cc#L 12e/	.
.	24r	.
.	24b#X/K	.
.	12cc#/J	.
12BL 12E\	4ee 4g#/	.
24r	.	.
24A#X\K	.	.
12B\J	.	.
=302	=302	=302
4c# 4G# 4C#\	12eeL 12g# 12e/	.
.	24r	.
.	24dd#X/K	.
.	12ee/J	.
12c#L 12F#\	4a 4f#/	.
24r	.	.
24B#X\K	.	.
12c#\J	.	.
!LO:SIC:v:n=1:s=4Bn	!	!
4B# 4D\	12bL 12f#/	.
.	24r	.
.	24a#X/K	.
.	12b/J	.
12AL 12D#X\	4f# 4c#/	.
24r	.	.
24G#\K	.	.
12A\J	.	.
=303	=303	=303
4G# 4E\	12g#L 12c#/	.
.	24r	.
.	24f##X/K	.
.	12g#/J	.
4c# 4F#\	12dd#XL 12a/	.
.	24r	.
.	24cc#/K	.
.	12dd#/J	.
12c#L 12G#\	4ee 4g#/	.
24r	.	.
24B#X\K	.	.
12c#\J	.	.
!	!LO:SIC:v:n=3:s=12f#/	!
4G# 4GG#\	12gg#L 12b#X 12f##/	.
.	24r	.
.	24ff##X/K	.
.	12gg#/J	.
=304	=304	=304
4C# 4CC#\	12ccc#L 12ee 12cc#/	.
.	24r	.
.	24bb#X/K	.
.	12ccc#/J	.
12g#>L 12e>\	4rgg	.
24r>	.	.
24f##X>K 24d#X>\	.	.
12g#>J 12e>\	.	.
4r	12eeL 12g#/	.
.	24r	.
!	!LO:SIC:v:n=1:s=24dd#XK	!
.	24dd##XK 24f##X/	.
.	12eeJ 12g#/	.
4C#\	4ryy	.
=305||	=305||	=305||
4c# 4A 4C#\	12eeL 12a 12e/	.
.	24r	.
.	24dd#X/K	.
.	12ee/J	.
12eL 12c#\	4aa 4cc# 4a/	.
24r	.	.
24d#X\K	.	.
12e\J	.	.
!!linebreak:original
=-	=-	=-
4F#\	12aL 12e/	.
.	24r	.
.	24g#/K	.
.	12a/J	.
12c#L 12F#\	4cc# 4a 4e/	.
24r	.	.
24B#X\K	.	.
12c#\J	.	.
=306	=306	=306
4B 4F# 4BB\	12ddL 12a 12d/	.
.	24r	.
.	24cc#/K	.
.	12dd/J	.
12E\L	4b 4g# 4d/	.
24r	.	.
24D#X\K	.	.
12E\J	.	.
4A 4AA\	12cc#L 12a 12c#/	.
.	24r	.
.	24b#X/K	.
.	12cc#/J	.
!	!LO:N:vis=8	!
12AA\L	4r	.
24r	.	.
24GG#\K	.	.
12AA\J	.	.
=307	=307	=307
4A 4C# 4AA\	12cc#L 12f# 12c#/	.
.	24r	.
.	24b#X/K	.
.	12cc#/J	.
12a>L 12f#> 12A>\	4ccc# 4ff# 4cc#/	.
24r>	.	.
24g#>\K	.	.
12a>\J	.	.
4d\	12cc#L 12f#/	.
.	24r	.
.	24b#X/K	.
.	12cc#/J	.
12AL 12D\	4f# 4c#/	.
24r	.	.
24G#\K	.	.
12A\J	.	.
=308	=308	=308
4G# 4D 4GG#\	12bL 12f# 12B/	.
.	24r	.
.	24a#X/K	.
.	12b/J	.
12C#\L	4g# 4e#X 4B/	.
24r	.	.
24BB#X\K	.	.
12C#\J	.	.
!	!LO:SIC:v:n=1:s=12anL	!
4F# 4FF#\	12a#L 12f# 12A/	.
.	24r	.
.	24g#/K	.
.	12a#/J	.
12EE\L	4ee#yX 4g# 4e#/	.
24r	.	.
24DD#X\K	.	.
12EE\J	.	.
=309	=309	=309
4AAA\	12aaL 12cc# 12a/	.
.	24r	.
.	24gg#K 24g#/	.
.	12aaJ 12a/	.
12g#>L 12E\	4bb 4ee 4b/	.
24r>	.	.
24f#>\K	.	.
12g#>\J	.	.
4a> 4A\	12ccc#L 12cc#/	.
.	24r	.
.	24bb#XK 24b#X/	.
.	12ccc#J 12cc#/	.
12eL 12E\	4eee 4gg# 4ee/	.
24r	.	.
24d#XK 24D#X\	.	.
12eJ 12E\	.	.
=310	=310	=310
4c# 4C#\	12eeeL 12aa 12ee/	.
.	24r	.
.	24ddd#XK 24dd#X/	.
.	12eeeJ 12ee/	.
12f#L 12F#\	4aa 4cc# 4a/	.
24r	.	.
24e#XK 24E#X\	.	.
12f#J 12F#\	.	.
!!linebreak:original
=-	=-	=-
!	!LO:SIC:v:n=3:s=12ddn	!
4d 4D\	12bbL 12ff# 12dd# 12b/	.
.	24r	.
.	24aa#XK 24a#X/	.
.	12bbJ 12b/	.
12d#XL 12D#X\	4ff# 4cc# 4f#/	.
24r	.	.
24c##XK 24C##X\	.	.
12d#J 12D#\	.	.
=311	=311	=311
4e 4E\	12gg#L 12b 12g#/	.
.	24r	.
.	24ff##XK 24f##X/	.
.	12gg#J 12g#/	.
12c#L 12C#\	4aa 4cc# 4a/	.
24r	.	.
24B#XK 24BB#X\	.	.
12c#J 12C#\	.	.
4B# 4BB#\	12bbL 12dd 12b/	.
.	24r	.
.	24aa#XK 24a#X/	.
.	12bbJ 12b/	.
12EL 12EE\	4eee 4gg# 4ee\	.
24r	.	.
24D#XK 24DD#X\	.	.
12EJ 12EE\	.	.
=312	=312	=312
4AA 4AAA\	12aaaL 12ccc# 12aa\	.
.	24r	.
.	24ggg#K 24gg#\	.
.	12aaaJ 12aa\	.
12ee>L 12cc#>\	4rbb	.
24r>	.	.
24dd#X>K 24b#X>\	.	.
12ee>J 12cc#>\	.	.
4ryy	4a 4c#/	.
4E\	4r	.
=313||	=313||	=313||
!	!LO:TX:a:B:t=19. Var.\n13	!
8AL 8AA\	4r	.
8G# 8GG#\	.	.
8A 8AA\	8r	.
8BJ 8BB\	8ee 8e\	.
4.c# 4.C#\	8aaL 8a\	.
.	8gg# 8g#\	.
.	8aa 8a\	.
8B 8BB\	8bbJ 8b\	.
=314	=314	=314
8AL 8AA\	4.ccc# 4.cc#\	.
8G# 8GG#\	.	.
8A 8AA\	.	.
8BJ 8BB\	8bb 8b\	.
4.c# 4.C#\	8aaL 8a\	.
.	8gg# 8g#\	.
.	8aa 8a\	.
8d#X 8D#X\	8bbJ 8b\	.
!!linebreak:original
=315	=315	=315
8eL 8E\	4.ccc# 4.cc#\	.
8d#X 8D#X\	.	.
8e 8E\	.	.
8f#J 8F#\	8ddd#X 8dd#X\	.
4e 4E\	8eeeL 8ee\	.
.	8ddd#X 8dd#X\	.
[4E [4EE\	8eee 8ee\	.
.	8fff#J 8ff#\	.
=316	=316	=316
8E]L 8EE\]	4eee 4ee\	.
8F# 8FF#\	.	.
8G# 8GG#\	[4ee [4e/	.
8dJ 8D\	.	.
4c# 4C#\	8ee]L 8e/]	.
.	8ff# 8f#/	.
8r	8gg# 8g#/	.
8E 8EE\	8dddJ 8dd/	.
=317	=317	=317
8AL 8AA\	4ccc# 4cc#/	.
8G# 8GG#\	.	.
8A 8AA\	8r	.
8BJ 8BB\	8ee 8e/	.
4.c# 4.C#\	8aaL 8a\	.
.	8gg# 8g#\	.
.	8aa 8a\	.
8B 8BB\	8bbJ 8b\	.
=318	=318	=318
8AL 8AA\	4.ccc# 4.cc#\	.
8C# 8CC#\	.	.
8D#X 8DD#X\	.	.
8E#XJ 8EE#X\	8bb 8b\	.
4.F# 4.FF#\	8aaL 8a\	.
.	8cc# 8c#\	.
.	8dd#X 8d#X\	.
8G# 8GG#\	8ee#XJ 8e#X\	.
=319	=319	=319
8F#L 8FF#\	4.ff# 4.f#\	.
8E 8EE\	.	.
8D#X 8DD#X\	.	.
8BB#XJ 8BBB#X\	8gg# 8g#\	.
4C# 4CC#\	8ff#L 8f#\	.
.	8ee 8e\	.
4GG# 4GGG#\	8dd#X 8d#X\	.
.	8b#XJ 8g# 8B#X\	.
!!linebreak:original
=320	=320	=320
8C#L 8CC#\	4cc# 4c#/	.
8BB#X 8BBB#X\	.	.
8C# 8CC#\	4g# 4G#/	.
8D#XJ 8DD#X\	.	.
4E 4EE\	8cc#L 8c#/	.
.	8b#X 8B#X/	.
4r	8cc# 8c#/	.
.	8dd#XJ 8d#X/	.
=321||	=321||	=321||
8c#L 8C#\	4ee 4e/	.
8B#X 8BB#X\	.	.
8c# 8C#\	4r	.
8BnJ 8BBn\	.	.
4.A 4.AA\	8ccc#L 8cc#\	.
.	8bb#X 8b#X\	.
.	8ccc# 8cc#\	.
8G# 8GG#\	8bbnJ 8bn\	.
=322	=322	=322
8F#L 8FF#\	4.aa 4.a\	.
8C# 8CC#\	.	.
8D#X 8DD#X\	.	.
8E#XJ 8EE#X\	8gg# 8g#\	.
4.F# 4.FF#\	8ff#L 8f#\	.
.	8cc# 8c#\	.
.	8dd#X 8d#X\	.
8G# 8GG#\	8ee#XJ 8e#X\	.
=323	=323	=323
8AL 8AA\	4.ff# 4.f#\	.
8G# 8GG#\	.	.
8A 8AA\	.	.
8G#J 8GG#\	8gg# 8g#\	.
4F# 4FF#\	8aaL 8a\	.
.	8gg# 8g#\	.
4C# 4CC#\	8aa 8a\	.
.	8gg#J 8g#\	.
=324	=324	=324
8DL 8DD\	4ff# 4f#\	.
8E 8EE\	.	.
8F# 8FF#\	4cc# 4c#\	.
8G#J 8GG#\	.	.
8D 8DD\	8ddL 8d\	.
4r	8ee 8e\	.
.	8ff# 8f#\	.
8E 8EE\	8gg#J 8g#\	.
!!pagebreak:original
=325	=325	=325
8AL 8AA\	8aa 8a\	.
8G# 8GG#\	8r	.
8A 8AA\	8r	.
8BJ 8BB\	8ee 8e\	.
4.c# 4.C#\	8aaL 8a\	.
.	8gg# 8g#\	.
.	8aa 8a\	.
8B 8BB\	8bbJ 8b\	.
=326	=326	=326
8AL 8AA\	4.ccc# 4.cc#\	.
8B 8BB\	.	.
8c# 8C#\	.	.
8eJ 8E\	8bb 8b\	.
4f# 4F#\	8aaL 8a\	.
.	8bb 8b\	.
4e 4E\	8ccc# 8cc#\	.
.	8eeeJ 8ee\	.
=327	=327	=327
8dL 8D\	4fff# 4ff#\	.
8e 8E\	.	.
8f# 8F#\	4eee 4ee\	.
8g#J 8G#\	.	.
8f#L 8F#\	8dddL 8dd\	.
8e 8E\	8eee 8ee\	.
8d 8D\	8fff# 8ff#\	.
8BJ 8BB\	8ggg#J 8gg#\	.
=328	=328	=328
8AL 8AA\	2.aaa 2.aa\	.
8E 8EE\	.	.
8C# 8CC#\	.	.
8EJ 8EE\	.	.
4AA 4AAA\	.	.
4r	[4ee\	.
!!linebreak:original
=329||	=329||	=329||
*k[]	*k[]	*
*M4/4	*M4/4	*
!	!LO:TX:t=P:problem=błędnie metrum 2/4	!
!	!LO:TX:a:B:t=20 Var. 21.	!
16AA\LL	4ee\]	.
16c\	.	.
16A\	.	.
16c\J	.	.
16E\L	4aa\	.
16c\	.	.
16A\	.	.
16c\JJ	.	.
16EE\LL	4gg\	.
16e\	.	.
16B\	.	.
16e\J	.	.
16G\L	[4ee\	.
16e\	.	.
16B\	.	.
16e\JJ	.	.
=330	=330	=330
16C\LL	8ee\L]	.
16e\	.	.
16G\	8cc\	.
16e\JJ	.	.
16c\LL	8g\	.
16e\	.	.
16G\	8a\J	.
16e\JJ	.	.
16D\LL	4b\	.
16f\	.	.
16B\	.	.
16f\JJ	.	.
16D#X\LL	8cc\L	.
16f\	.	.
16c\	8a\J	.
16f\JJ	.	.
=331	=331	=331
16E\LL	4g#X/	.
16e\	.	.
16B\	.	.
16e\JJ	.	.
16E\LL	4a/	.
16d#X\	.	.
16F#X\	.	.
16d#\JJ	.	.
16E\LL	4b/	.
16dn\	.	.
16G\	.	.
16d\JJ	.	.
16E\LL	8dd/L	.
16c\	.	.
16A\	8cc/J	.
16c\JJ	.	.
=332	=332	=332
16E\LL	8b/	.
16e\	.	.
16d#X\	4ee/	.
16e\JJ	.	.
16dn\LL	.	.
16e\	.	.
16B\	4ee/	.
16e\JJ	.	.
16G#X\LL	.	.
16e\	.	.
16E\	4ee/	.
16e\JJ	.	.
16DLL 16BB\	.	.
16e\	.	.
16BB\	[8ee/	.
16e\JJ	.	.
!!linebreak:original
=333	=333	=333
16AA\LL	4ee/]	.
16c\	.	.
16A\	.	.
16c\	.	.
16E\	[>4aa/	.
16c\	.	.
16A\	.	.
16c\JJ	.	.
16GG\LL	8aa/L]	.
16f\	.	.
16B\	8dd/	.
16f\JJ	.	.
16G\LL	8ee/	.
16g\	.	.
16B\	8ff/J	.
16g\JJ	.	.
=334	=334	=334
16C\LL	4ee/	.
16e\	.	.
16c\	.	.
16e\JJ	.	.
16G\LL	4cc/	.
16e\	.	.
16c\	.	.
16e\JJ	.	.
16C\LL	4g/	.
16e\	.	.
16E\	.	.
16e\JJ	.	.
16C\LL	4a/	.
16g\	.	.
16F#X\	.	.
16e\JJ	.	.
=335	=335	=335
16BB\LL	8a#X/L	.
16e\	.	.
16G\	8b/J	.
16B\JJ	.	.
16G\LL	4ee/	.
16e\	.	.
16G\	.	.
16B\JJ	.	.
16BB\LL	8a#/L	.
16A\	.	.
16F#X\	8c#X/	.
16A\	.	.
16BB\	8d#X/	.
16A\	.	.
16D#X\	8g/J	.
16A\JJ	.	.
=336	=336	=336
16EE\LL	2e/	.
16G\	.	.
16F#X\	.	.
16G\JJ	.	.
16A\LL	.	.
16G\	.	.
16F#\	.	.
16G\JJ	.	.
16D#X\LL	4ee/	.
16G\	.	.
16E\	.	.
16G\JJ	.	.
16EE\LL	4ryy	.
16BB\	.	.
16E\	.	.
16G\JJ	.	.
!!linebreak:original
=337||	=337||	=337||
16C\LL	8r	.
16e\	.	.
16c\	8e/L	.
16e\JJ	.	.
16G\LL	8g/	.
16e\	.	.
16c\	8g#X/J	.
16e\JJ	.	.
16F\LL	8a/L	.
16f\	.	.
16c\	8b/	.
16f\JJ	.	.
16A\LL	8cc/	.
16f\	.	.
16c\	8aa/J	.
16f\JJ	.	.
=338	=338	=338
16BB\LL	8gg/L	.
16d\	.	.
16A\	8ffM</	.
16d\JJ	.	.
16E\LL	8ee/	.
16d\	.	.
16G#X\	8b/J	.
16d\JJ	.	.
16AA\LL	4b/	.
16c\	.	.
16A\	.	.
16c\JJ	.	.
16E\LL	4cc/	.
16c\	.	.
16A\	.	.
16c\JJ	.	.
=339	=339	=339
16AA\LL	8r	.
16c\	.	.
16A\	8e/L	.
16c\JJ	.	.
16A\LL	8f/	.
16c\	.	.
16F\	8a/J	.
16c\JJ	.	.
16GG\LL	8b-X/L	.
16d\	.	.
16B-X\	8cc#X/	.
16d\JJ	.	.
16G\LL	8dd/	.
16f\	.	.
16B-\	8ddd/J	.
16f\JJ	.	.
=340	=340	=340
16C\LL	8ccc/L	.
16e\	.	.
16c\	8bb-XM</	.
16e\JJ	.	.
16B\LL	8aa/	.
16e\	.	.
16c\	8gg#X/J	.
16e\JJ	.	.
16F\LL	4aa/	.
16f\	.	.
16c\	.	.
16A\JJ	.	.
16G#X\LL	[>4ee/	.
16E\	.	.
16D\	.	.
16BB\JJ	.	.
!!linebreak:original
=341	=341	=341
!	!LO:TX:t=P:problem=brak zakończenia łuku	!
16AA\LL	4ee/]	.
16c\	.	.
16A\	.	.
16c\JJ	.	.
16F\LL	[4aa/	.
16c\	.	.
16A\	.	.
16c\JJ	.	.
16GG\LL	8aa/L]	.
16f\	.	.
16B\	8dd/	.
16f\JJ	.	.
16G\LL	8ee/	.
16g\	.	.
16B\	8ff/J	.
16g\JJ	.	.
=342	=342	=342
16C\LL	8ee\L	.
16e\	.	.
16G\	8cc\	.
16e\JJ	.	.
16c\LL	8g\	.
16e\	.	.
16G\	8a\J	.
16e\JJ	.	.
16D\LL	4b\	.
16f\	.	.
16B\	.	.
16f\JJ	.	.
16D#X\LL	8cc\L	.
16f\	.	.
16c\	8a\J	.
16f\JJ	.	.
=343	=343	=343
16E\LL	4g#X/	.
16e\	.	.
16B\	.	.
16e\JJ	.	.
16E\LL	4a/	.
16d#X\	.	.
16F#X\	.	.
16d#\JJ	.	.
16E\LL	4b/	.
16dn\	.	.
16G\	.	.
16d\JJ	.	.
16EE\LL	8dd/L	.
16d\	.	.
16G#X\	8cc/J	.
16d\JJ	.	.
=344	=344	=344
16AA\LL	2.a/	.
16c\	.	.
16A\	.	.
16c\JJ	.	.
16G#X\LL	.	.
16c\	.	.
16A\	.	.
16c\JJ	.	.
16D#X\LL	.	.
16c\	.	.
16E\	.	.
16c\JJ	.	.
4AA\	8r	.
.	8e/	.
!!linebreak:original
=345||	=345||	=345||
*M2/4	*M2/4	*
!	!LO:TX:a:B:t=21 Variat.\n17	!
4r	8a\L	.
.	8a\J	.
8r	8b\L	.
8e/	8b\J	.
=346	=346	=346
*	*^	*
4r	8cc/L	8a\L	.
.	8cc/J	8a\	.
8r	8dd/L	8g\	.
8G\	8dd/J	8f\J	.
=347	=347	=347	=347
8c\L	4ee/	4e\	.
8c\J	.	.	.
8d\L	8dd/L	8f\L	.
8d#X\J	8cc/J	8f#X\J	.
*	*v	*v	*
=348	=348	=348
8e\L	8bL 8g#X/	.
.	8qdd/	.
8d#X\	8cc 8a/	.
8e\J	8bJ 8g#/	.
8r	8e/	.
=349	=349	=349
4rc>	8a/L	.
.	8a/J	.
8rc>	8b/L	.
8e>\	8b/J	.
=350	=350	=350
*	*^	*
4r	8cc/L	8a\L	.
.	8cc/J	8a-X\	.
8r	4dd/	8g\	.
8G\	.	8f\J	.
=351	=351	=351	=351
*^	*	*	*
8c/L	8c\L	4ee/	8e\	.
8c/J	8c\J	.	4a\	.
8rEE	8c#X/L	8gg/L	.	.
8BB\	8d#X/J	8ff#X/J	8a\	.
!!pagebreak:original
=352	=352	=352	=352	=352
8e/L	4.E\	8ee/L	4.g\	.
8qg/	.	.	.	.
8f#X/	.	8b/	.	.
8e/J	.	8ee/J	.	.
8re	&(>8E\	8r	8ryy	.
*v	*v	*	*	*
=353	=353	=353	=353
8e\L&)	8ree	4re	.
8d\	(8e/L	.	.
8c\	8ee 8g/	4e\	.
8B\J	8ddJ 8g#X/)	.	.
*	*v	*v	*
=354	=354	=354
8A\L	8ccL 8a 8e/	.
8E\	8b 8g#X 8d/	.
8AA\J	8aJ 8a 8c/	.
(8C\	8r	.
=355	=355	=355
*	*^	*
8c\L)	8r	4ryy	.
8B-X\	(>8c/L	.	.
8A\	8cc/)	4e 4c\	.
8G\J	8b-X/J	.	.
*	*v	*v	*
=356	=356	=356
8F\L	8aL 8f 8c/	.
8C\	8g 8e 8B-X/	.
8FF\J	8fJ 8f 8A/	.
8r	(8e/	.
=357	=357	=357
4re>	8a/L)	.
.	8a/J	.
8re>	8b/L	.
8e>\	8b/J	.
!!linebreak:original
=358	=358	=358
*	*^	*
4r	8cc/L	8a\L	.
.	8cc/J	8a-X\J	.
8r	4dd/	8g\L	.
8G\	.	8f\J	.
=359	=359	=359	=359
*^	*	*	*
8c/L	4r	4ee/	8e\L	.
8c/	.	.	8g\	.
8d/	8r	8dd/L	8f\	.
16e/L	8E\	16cc/L	8g#X\J	.
16d/JJ	.	16b/JJ	.	.
*v	*v	*	*	*
*	*v	*v	*
=360	=360	=360
8A\L	4.a 4.e 4.c</	.
8E\	.	.
8AA\J	.	.
8r	8e/	.
=361||	=361||	=361||
*M4/4	*M4/4	*
*met(c)	*met(c)	*
!	!LO:TX:a:B:t=22 Var.	!
4A 4AA\	4aaa 4ccc 4aa\	.
!	!LO:TX:a:B:t=18	!
(<8qd#X>\	.	.
4e> 4A>\)	4aa 4cc 4a/	.
*	*8va	*
4E 4EE\	4eeee 4ggg 4eee\	.
(<8qa#X>/	.	.
*	*X8va	*
4b> 4e>\)	4ggg 4eee 4gg\	.
=362	=362	=362
4C 4CC\	8eeeL 8gg 8ee\	.
.	8ddd 8dd\	.
8qd#X/	.	.
4e 4G/	8ccc 8cc\	.
.	8eeeJ 8ee\	.
4D 4DD\	4ddd 4bb 4dd\	.
4D#X 4DD#X\	4ccc 4aa 4cc\	.
=363	=363	=363
4E 4EE\	2bb 2gg#X 2b\	.
8qd#X/	.	.
4e 4G#X\	.	.
!!linebreak:original
=-	=-	=-
4BB 4BBB\	4ccc 4aa 4cc\	.
(8qe/	.	.
4f 4B\)	4aa 4dd#X 4a\	.
=364	=364	=364
4E 4EE\	4gg#X 4ee 4g#X\	.
8qd#X/	.	.
4e^\	4r	.
.	8qD#X</	.
4rEE	4E<^\	.
8qDD#X/	.	.
4EE^\	4ryy	.
=365	=365	=365
4AA 4AAA\	4aaa 4ccc 4aa\	.
(8qd#X/	.	.
4e 4A\)	4ccc 4aa 4cc\	.
*	*8va	*
4GG 4GGG\	4gggg 4bbb 4ggg\	.
!	!LO:TX:a:t=loco	!
(8qqcc#X>\	.	.
*	*X8va	*
4dd>) 4g>\	4ggg 4bb 4gg/	.
=366	=366	=366
4C 4CC\	8gggL 8eee 8gg/	.
.	8fff 8ff/	.
(8qf#X>/	.	.
4g> 4c>\)	8eee 8ee/	.
.	8gggJ 8gg/	.
4D 4DD\	4bbb 4fff#X 4bb/	.
4D#X 4DD#X\	4aaa 4fff# 4aa/	.
=367	=367	=367
4E 4EE\	4ggg 4eee 4gg/	.
(8qa#X>/	.	.
4b> 4e>\)	4eee 4gg 4ee^>/	.
4BB 4BBB\	4fff#X 4aa 4ff#X/	.
(<8qe#X>/	.	.
4f#X> 4B>\)	4ddd#X 4aa 4dd#X/	.
=368	=368	=368
4E 4EE\	4eee 4gg 4ee/	.
(8qA#X>/	.	.
4B>^<\)	4r	.
.	(>8qqD#X</	.
4rEE	4E<^/)	.
(>8qDD#X/	.	.
4EE\)	4r<	.
!!linebreak:original
=369||	=369||	=369||
4C 4CC\	4ggg 4eee 4gg\	.
(8qf#X>/	.	.
4g> 4c>\)	4eee 4gg 4ee/	.
4F 4FF\	4ccc 4aa 4cc/	.
8qb>/	.	.
4cc> 4fn>\	8dddL 8aa 8dd/	.
.	8eeeJ 8ee/	.
=370	=370	=370
4D 4DD\	4fff 4aa 4ff/	.
4G 4GG\	8eeeL 8gg 8ee/	.
.	8dddJ 8dd/	.
4C 4CC\	4eee 4gg 4ee/	.
8qf#X>/	.	.
4g> 4c>\	4r	.
=371	=371	=371
4AA 4AAA\	4ggg 4aa 4ee\	.
8qd#X/	.	.
4e 4A\	4ccc 4ee 4cc\	.
4D 4DD\	4aa 4ff 4a/	.
8qg#X>/	.	.
4a> 4dny>\	8bbL 8b/	.
.	8cccJ 8cc/	.
=372	=372	=372
4BB 4BBB\	4ddd 4ff 4dd/	.
4E 4EE\	8cccL 8ee 8cc/	.
.	8bbJ 8b/	.
4AA 4AAA\	4ccc 4ee 4cc/	.
8qd#X/	.	.
4e 4A\	4r	.
=373	=373	=373
4AA 4AAA\	4aaa 4ccc 4aa\	.
8qd#X/	.	.
4e 4A\	4ccc 4aa 4cc\	.
*	*8va	*
4GG 4GGG\	4gggg 4bbb 4ggg\	.
8qcc#X>/	.	.
*	*X8va	*
4dd> 4g>\	4ggg 4bb 4gg/	.
=374	=374	=374
4C 4CC\	8gggL 8eee 8gg/	.
.	8fff 8ff/	.
8qf#X>/	.	.
4g> 4c>\	8eee 8ee/	.
.	8eeeJ 8gg/	.
4D 4DD\	4fff 4aa 4ff/	.
4D#X 4DD#X\	4aa 4cc 4a/	.
!!linebreak:original
=375	=375	=375
4E 4EE\	2ccc 2aa 2cc\	.
8qd#X/	.	.
4e 4A\	.	.
4E 4EE\	4eee 4gg#X 4ee/	.
8qa#X/	.	.
4b 4e\	4ggg#X 4ccc 4aa/	.
=376	=376	=376
4AA 4AAA\	4aaa 4ccc 4aa/	.
8qg#X/	.	.
4a 4A\	4rgg	.
8qGG#X/	.	.
4AA\	4ryy	.
4ryy	4e/	.
=377||	=377||	=377||
*^	*	*
!	!	!LO:TX:a:B:t=23 Var.\n19	!
4c/	2A\	12a'>/L	.
.	.	12b'>/	.
.	.	12cc'>/J	.
.	.	(8qdd/	.
4e/	.	12cc'>/L)	.
.	.	12b'>/	.
.	.	12a'>/J	.
2B/	12E\L	4ee'>/	.
.	12F#X\	.	.
.	12G\J	.	.
.	8qA/	.	.
.	12G\L	4b'>/	.
.	12F#\	.	.
.	12E\J	.	.
*v	*v	*	*
=378	=378	=378
*	*^	*
4c 4C\	12ee/L	4g 4e\	.
.	12ff/	.	.
.	12gg/J	.	.
4e 4c\	12gg/L	4r	.
.	12ff/	.	.
.	12ee/J	.	.
4d\	4ff/	12b\L	.
.	.	12cc\	.
.	.	12dd\J	.
4d#X\	4ff/	12cc\L	.
.	.	12b\	.
.	.	12a\J	.
=379	=379	=379	=379
*^	*	*	*
12e/L	4r	4ee/	8g#X\	.
12f#X/	.	.	.	.
.	.	.	8r	.
12g#X/J	.	.	.	.
12g#/L	4r	4dd/	4b\	.
12f#/	.	.	.	.
12e/J	.	.	.	.
4e/	12A\L	4cc/	4a\	.
.	12B\	.	.	.
.	12c\J	.	.	.
4d#X/	12c\L	4a/	4r	.
.	12B\	.	.	.
.	12A\J	.	.	.
!!linebreak:original
=380	=380	=380	=380	=380
4B/	4E\	12g#X/L	4e\	.
.	.	12a/	.	.
.	.	12b/J	.	.
4A/	12BB\L	4b/	12d\L	.
.	12C#X\	.	12e\	.
.	12D#X\J	.	12f#X\J	.
!LO:SIC:v:s=4G#/	!	!	!	!
4G/	4E\	12b/L	[>4g#\	.
.	.	12cc/	.	.
.	.	[12dd/J	.	.
12e/L	12E\L	12dd/L]	4g#\]	.
12d#X/	12F#X\	12cc/	.	.
12dn/J	12G#X\J	12b/J	.	.
=381	=381	=381	=381	=381
2c/	2A\	12a/L	4a\	.
.	.	12b/	.	.
.	.	12cc/J	.	.
.	.	12cc/L	4e\	.
.	.	12b/	.	.
.	.	12a/J	.	.
.	.	.	8qg/	.
12B/L	4r	4gg/	2g\	.
12c/	.	.	.	.
12d/J	.	.	.	.
12d/L	4G\	4ff/	.	.
12c/	.	.	.	.
12B/J	.	.	.	.
=382	=382	=382	=382	=382
4c/	8cL 8C\	12ee/L	4g 4e\	.
.	.	12ff/	.	.
.	8E\	.	.	.
.	.	12gg/J	.	.
4r	8G\	12gg/L	4r	.
.	.	12ff/	.	.
.	8c\J	.	.	.
.	.	12ee/J	.	.
12d\L	2ryy	4dd/	4f#X\	.
12e\	.	.	.	.
12f#X\J	.	.	.	.
12f#\L	.	4ccc/	4a\	.
12e\	.	.	.	.
12d#X\J	.	.	.	.
=383	=383	=383	=383	=383
4e\	2ryy	12bb/L	4g\	.
.	.	12aa/	.	.
.	.	12gg/J	.	.
4A\	.	12ff#X/L	4cc 4a\	.
.	.	12gg/	.	.
.	.	12aa/J	.	.
8g/L	4B\	4gg/	12b\L	.
.	.	.	12a\	.
8e/	.	.	.	.
.	.	.	12g\J	.
8f#X/	4BB\	4dd#X/	12f#X\L	.
.	.	.	12g\	.
8c/J	.	.	.	.
.	.	.	12a\J	.
=384	=384	=384	=384	=384
12B/L	2E\	4ee/	4g 4e\	.
12A/	.	.	.	.
12G/J	.	.	.	.
12F#X/L	.	4bb 4dd#X 4b\	2ryy	.
12G/	.	.	.	.
12A/J	.	.	.	.
4G/	4EE\	4eee 4gg 4ee/	.	.
4rGG	4rG	4r	4e\	.
!!pagebreak:original
=385	=385	=385	=385	=385
4e/	4C\	12gg/L	4g\	.
.	.	12ff/	.	.
.	.	12ee/J	.	.
4c/	4F\	12ee/L	4g#X\	.
.	.	12dd/	.	.
.	.	12cc/J	.	.
8c/L	2ryy	4cc/	12a\L	.
.	.	.	12gn\	.
8A/	.	.	.	.
.	.	.	12f\J	.
8F/	.	8dd/L	12f\L	.
.	.	.	12e\	.
8G/J	.	8ee/J	.	.
.	.	.	12d\J	.
=386	=386	=386	=386	=386
4A/	12F\L	4ff/	8d\L	.
.	12E\	.	.	.
.	.	.	8f\	.
.	12D\J	.	.	.
4e/	12D\L	8ee/L	8g\	.
.	12C\	.	.	.
.	.	8dd/J	8g#X\J	.
.	12BB\J	.	.	.
12e/L	4AA\	4cc/	4a\	.
12d/	.	.	.	.
12c/J	.	.	.	.
12c/L	4r	4e/	4r	.
12B/	.	.	.	.
12A/J	.	.	.	.
=387	=387	=387	=387	=387
[2F/	2AA\	12cc/L	4c\	.
.	.	12b-X/	.	.
.	.	12a/J	.	.
.	.	12a/L	4c#X\	.
.	.	12g/	.	.
.	.	12f/J	.	.
4F/_	4BB-X\	4f/	12e\L	.
.	.	.	12f\	.
.	.	.	12d\	.
8F/L]	4D\	8g/L	12c#\	.
.	.	.	12B-X\	.
8F#X/J	.	8a/J	.	.
.	.	.	12A\J	.
=388	=388	=388	=388	=388
12G/L	4GG\	4b-X/	4G\	.
12Fn/	.	.	.	.
12E/J	.	.	.	.
12E/L	4CC\	8cc/L	4B-X\	.
12D/	.	.	.	.
.	.	8g/J	.	.
12C/J	.	.	.	.
8C/L	4FF\	4a/	12A\L	.
.	.	.	12c\	.
8A/J	.	.	.	.
.	.	.	12c#X\J	.
4G#X/	4EE\	4bn/	12d\L	.
.	.	.	12e\	.
.	.	.	12d\J	.
=389	=389	=389	=389	=389
2A/	4AA\	12a/L	4c\	.
.	.	12b/	.	.
.	.	12cc/J	.	.
.	.	8qdd/	.	.
.	4r	12cc/L	4e\	.
.	.	12b/	.	.
.	.	12a/J	.	.
2B/	12E\L	4ee/	2g\	.
.	12F#X\	.	.	.
.	[12G\J	.	.	.
.	8qA/	.	.	.
.	12G\L]	4b/	.	.
.	12F#\	.	.	.
.	12E\J	.	.	.
*v	*v	*	*	*
!!linebreak:original
=390	=390	=390	=390
4c 4C\	12ee/L	4g 4e\	.
.	12ff/	.	.
.	12gg/J	.	.
4e 4c\	12gg/L	4r	.
.	12ff/	.	.
.	12ee/J	.	.
4d\	4ff/	12b\L	.
.	.	12cc\	.
.	.	12dd\J	.
4d#X\	4ff/	12cc\L	.
.	.	12b\	.
.	.	12a\J	.
=391	=391	=391	=391
*^	*	*	*
12e/L	2r	4ee/	8g#X\	.
12f#X/	.	.	.	.
.	.	.	8r	.
12g#X/J	.	.	.	.
12g#/L	.	4dd/	4b\	.
12f#/	.	.	.	.
12e/J	.	.	.	.
4e/	12A\L	4cc/	[4a\	.
.	12B\	.	.	.
.	12c\	.	.	.
4d#X/	12c\	4a/	4a\]	.
.	12B\	.	.	.
.	12A\J	.	.	.
=392	=392	=392	=392	=392
2dn/	4F\	12b/L	4a\	.
.	.	12cc/	.	.
.	.	12dd/J	.	.
.	4E\	12dd/L	4g#X\	.
.	.	12cc/	.	.
.	.	12b/J	.	.
4c/	12A\L	4a/	4a\	.
.	12E\	.	.	.
.	12C\J	.	.	.
4ryy	4AA\	8ryy	4ryy	.
.	.	8e\	.	.
*v	*v	*	*	*
=393||	=393||	=393||	=393||
!	!LO:TX:t=P:problem=24 poprawione ołówkiem na 14	!	!
!LO:N:vis=8	!LO:TX:a:B:t=24 Var. 20	!	!
4r	8rff	4a\	.
.	8aa/L	.	.
8r	8gg#X/	4b\	.
8E/	16ff#X/L	.	.
.	16gg#/JJ	.	.
4A/	8aa/L	4cc\	.
.	8ee/	.	.
4B/	8ggn/	4dd\	.
.	8ffn/J	.	.
=394	=394	=394	=394
4c/	8ee/L	4cc\	.
.	16dd/L	.	.
.	16ee/JJ	.	.
4d/	4ff/	8b\L	.
.	.	8a\J	.
4c/	4ee/	8g#X\L	.
.	.	8f#X\	.
8B/L	8dd/L	8g#\	.
8A/J	8cc/J	8a\J	.
!!linebreak:original
=395	=395	=395	=395
8G#X\L	8b/L	8b\L	.
8F#X\	8dd#X/	8d#X\J	.
8G#\	8ee/	[>4e\	.
8A\J	8dd#/J	.	.
4B\	4ddn/	8e\L]	.
.	.	8f#X\	.
[4E\	8cc/L	8g\	.
.	8b/J	8g#X\J	.
=396	=396	=396	=396
8E\L]	8cc/L	8a\	.
8F#X\	8d#X/	8r	.
8G\	8e/	4r	.
8G#X\J	8b/J	.	.
8A\	8a/L	4r	.
8r	8g#X/	.	.
4r	8a/	8r	.
.	8b/J	8e\	.
=397	=397	=397	=397
4r	8cc/L	4a\	.
.	8ccc/	.	.
8r	8gg#X/	4b\	.
8E/	16ff#X/L	.	.
.	16gg#/JJ	.	.
4A\	8aa/L	4cc\	.
.	8ggn/	.	.
4B\	8ff#/	4dd\	.
.	8ffn/J	.	.
=398	=398	=398	=398
4c\	8ee/L	4cc\	.
.	16dd/L	.	.
.	16ee/J	.	.
4d\	8ff/	4b\	.
.	8gg/J	.	.
4c\	8aa/L	4a\	.
.	8cc/	.	.
4B\	8dd/	4g\	.
.	8ee/J	.	.
=399	=399	=399	=399
4A\	8ff#X/L	4f#X\	.
.	8ee/	.	.
4G\	8dd#X/	4b\	.
.	8ee/J	.	.
4F#X\	8ff#/L	4a\	.
.	8cc/	.	.
4B\	8b/	4g\	.
.	[8ee/J	.	.
!!linebreak:original
=400	=400	=400	=400
4A\	8ee/L]	4f#X\	.
.	8dd#X/	.	.
4G\	8ee/	4e\	.
.	8b/J	.	.
4F#X\	8cc/L	4r	.
.	16c#X/L	.	.
.	16d#X/JJ	.	.
4E\	8e/	8r	.
.	8r	8g\	.
=401||	=401||	=401||	=401||
4r	8gg/L	8g\L	.
.	8ff#X/	8a\	.
8r	8ffn/	8b\	.
8G\	8ee/J	8cc\J	.
8G\L	8ee/L	8g\L	.
8A\	8dd#X/	8f#X\	.
8Bn\	8ddn/	8fn\	.
8c\J	8cc/J	8e\J	.
=402	=402	=402	=402
8G\L	8ee/L	8e\L	.
8F#X\	8a/	8d#X\	.
8Fn\	8b/	8dn\	.
8E\J	8cc/J	8c\J	.
8E\L	8e/L	4r	.
8D#X\	8f#X/	.	.
8Dn\	8g#X/	8r	.
8C\J	8a/J	8c\	.
=403	=403	=403	=403
4r	8cc/L	8c\L	.
.	8b/	8d\	.
8r	8b-X/	8e\	.
8C\	8a/J	8f\J	.
8C\L	8a/L	8c\L	.
8D\	8a-X/	8B\	.
8E\	8g-X/	8B-X\	.
8F\J	8f/J	8A\J	.
=404	=404	=404	=404
8C\L	8e/L	8G\	.
8BB\	8f/	8r	.
8BB-X\	8g/	4r	.
8AA\J	8a/J	.	.
8GG#X\	8b/L	4r	.
8r	8cc/	.	.
4r	8dd/	8r	.
.	16cc/L	8e\	.
.	16b/JJ	.	.
!!linebreak:original
=405	=405	=405	=405
4r	8cc/L	4a\	.
.	8aa/	.	.
8r	8gg#X/	4b\	.
8E\	16ff#X/L	.	.
.	16gg#/JJ	.	.
4A\	8aa/L	4cc\	.
.	8ee/	.	.
4B\	8ggn/	4dd\	.
.	8ffn/J	.	.
=406	=406	=406	=406
4c\	8ee/L	4cc\	.
.	16dd/L	.	.
.	16ee/JJ	.	.
4d\	4ff/	8b\L	.
.	.	8a\J	.
4c\	4ee/	8g#X\L	.
.	.	8f#X\	.
8B\L	8dd/L	8g#\	.
8A\J	8cc/J	8a\J	.
=407	=407	=407	=407
8G#X\L	8b/L	4b\	.
8F#X\	8dd#X/	.	.
8G#\	8ee/	[4e\	.
8A\J	8dd#/J	.	.
4B\	4ddn/	8e\L]	.
.	.	8f#X\	.
[4E\	8cc/L	8g\	.
.	8b/J	8g#X\J	.
=408	=408	=408	=408
8E\L]	4cc/	8a\	.
8F#X\	.	4d\	.
8G\	8b/L	.	.
8G#X\J	16cc/L	8d\	.
.	16b/JJ	.	.
8A\L	4.a/	4.c\	.
8E\	.	.	.
8AA\J	.	.	.
8r	8r	8ryy	.
*	*v	*v	*
!!linebreak:original
=409||	=409||	=409||
*M2/4	*M2/4	*
8ryy	8e/	.
=410	=410	=410
2ryy	8a/L	.
.	8a/J	.
.	8b/L	.
.	8b/J	.
=411	=411	=411
2ryy	8.cc/L	.
.	16b/Jk	.
.	16a/LL	.
.	16b/	.
.	16cc/	.
.	16ee/JJ	.
=412	=412	=412
2ryy	16dd/LL	.
.	16ee/	.
.	16dd/	.
.	16cc/JJ	.
.	16b/LL	.
.	16cc/	.
.	16dd/	.
.	16b/JJ	.
=413	=413	=413
2ryy	16cc/LL	.
.	16dd/	.
.	16cc/	.
.	16b/JJ	.
.	16a/LL	.
.	16b/	.
.	16cc/	.
.	16a/JJ	.
=414	=414	=414
4.ryy	16b/LL	.
.	16cc/	.
.	16b/	.
.	16a/JJ	.
.	16g/LL	.
.	16a/	.
8B>\	16g/	.
.	16f#X/JJ	.
!!pagebreak:original
=415	=415	=415
8e>\L	16g/LL	.
.	16f#X/	.
8e>\J	16g/	.
.	16b/JJ	.
8f#X>\L	16a/LL	.
.	16b/	.
8f#>\J	16cc#X/	.
.	16dd#X/JJ	.
=416	=416	=416
8.g>\L	16ee/LL	.
.	16dd#X/	.
.	16ee/	.
16f#X>\Jk	16ff#X/JJ	.
16e>\LL	8gg/L	.
16f#>\	.	.
16g>\	8b/J	.
16b>\JJ	.	.
=417	=417	=417
16a>\LL	8cc/L	.
16b>\	.	.
16a>\	8cc/	.
16g>\JJ	.	.
16f#X>\LL	8dd/	.
16g>\	.	.
16a>\	8cc/J	.
16f#>\JJ	.	.
=418	=418	=418
16g>\LL	8b/L	.
16a>\	.	.
16g>\	8b/	.
16f#X>\JJ	.	.
16e>\LL	8cc/	.
16f#>\	.	.
16g>\	8b/J	.
16e>\JJ	.	.
=419	=419	=419
16f#X>\LL	8a/L	.
16e>\	.	.
16d#X>\	8aa/J	.
16B>\JJ	.	.
8e>\L	16gg/LL	.
.	16ff#X/	.
8e>\J	16ee/	.
.	16b/JJ	.
=420	=420	=420
*^	*	*
8A>\L	4.ryy	16cc/LL	.
.	.	16b/	.
8a>\J	.	16cc/	.
.	.	16ff/JJ	.
16g#X>\LL	.	16ee/LL	.
16f>\	.	16dd/	.
16e>\	8E\	16cc/	.
16d>\JJ	.	16b/JJ	.
!!linebreak:original
=421	=421	=421	=421
16c/LL	8A\L	[>4a/	.
16B/	.	.	.
16c/	8A\J	.	.
16e/JJ	.	.	.
4f/	8B\L	16a/LL]	.
.	.	16g#X/	.
.	8B\J	16f#X/	.
.	.	16g#/JJ	.
*v	*v	*	*
=422	=422	=422
*	*^	*
8.c/L	16a/LL	8.c\L	.
.	16g#X/	.	.
.	16a/	.	.
16B/Jk	16b/JJ	16d\Jk	.
16A/LL	4cc/	8e\L	.
16B/	.	.	.
16c/	.	8a\J	.
16d/JJ	.	.	.
=423	=423	=423	=423
16d/LL	16ff/LL	[>4a\	.
16e/	16gg/	.	.
16d/	16ff/	.	.
16c/JJ	16ee/JJ	.	.
16B/LL	4dd/	8a\L]	.
16c/	.	.	.
16d/	.	16g\L	.
16B/JJ	.	16f\JJ	.
=424	=424	=424	=424
16c/LL	16ee/LL	8e\L	.
16d/	16ff/	.	.
16c/	16ee/	[8g\J	.
16B/JJ	16dd/JJ	.	.
16A/LL	4cc/	8g\L]	.
16B/	.	.	.
16c/	.	16f\L	.
16A/JJ	.	16e\JJ	.
=425	=425	=425	=425
16B/LL	16dd/LL	8d\L	.
16c/	16ee/	.	.
16B/	16dd/	[>8f\J	.
16A/JJ	16cc/JJ	.	.
16G#X/LL	4b/	8f\L]	.
16A/	.	.	.
16B/	.	16e\L	.
16G#/JJ	.	16d\JJ	.
=426	=426	=426	=426
8A/L	16cc/LL	4.e\	.
.	16dd/	.	.
8Gn/	16cc/	.	.
.	16b/JJ	.	.
8F#X/	16a/LL	.	.
.	16cc/	.	.
8B/J	16b/	8d#X\	.
.	16a/JJ	.	.
!!linebreak:original
=427	=427	=427	=427
8E\L	4.g/	16e\LL	.
.	.	16f#X\	.
8F#X\	.	16e\	.
.	.	16d#X\JJ	.
8G\	.	16e\LL	.
.	.	16g\	.
8A#X\J	8cc#X/	16f#\	.
.	.	16e\JJ	.
=428	=428	=428	=428
8B/L	16dd#X/LL	2d#X\	.
.	16cc#X/	.	.
8A/	16dd#/	.	.
.	16ee/JJ	.	.
8G/	16ff#X/LL	.	.
.	16gg/	.	.
8F#X/J	16aa/	.	.
.	16ff#/JJ	.	.
=429	=429	=429	=429
4E/	16gg/LL	8e\L	.
.	16ff#X/	.	.
.	16ee/	8g\J	.
.	16ddn/JJ	.	.
4A/	4cc/	16a\LL	.
.	.	16g\	.
.	.	16f#X\	.
.	.	16e\JJ	.
=430	=430	=430	=430
*^	*	*	*
16B/LL	4.ryy	4b/	4d#X\	.
16A/	.	.	.	.
16G/	.	.	.	.
16F#X/JJ	.	.	.	.
!LO:N:vis=4	!	!	!	!
8E/	.	16a/LL	8e\L	.
.	.	16g/	.	.
!LO:N:vis=4	!	!	!	!
8B/	8BB\	16a/	8d#X\J	.
.	.	16f#X/JJ	.	.
=431	=431	=431	=431	=431
16G/LL	8E\L	8g/	8e\L	.
16F#X/	.	.	.	.
16G/	8E\J	8r	8e\	.
16B/JJ	.	.	.	.
16A/LL	8F#X\L	4r	8d#X\	.
16B/	.	.	.	.
16c#X/	8F#\J	.	8a\J	.
16d#X/JJ	.	.	.	.
=432	=432	=432	=432	=432
16e/LL	8.G\L	4r	8g\L	.
16d#X/	.	.	.	.
16c#X/	.	.	16b\L	.
16d#/JJ	16F#X\Jk	.	16a\JJ	.
4e/	16E\LL	8r	4g\	.
.	16F#\	.	.	.
.	16G\	16ee/LL	.	.
.	16B\JJ	16dd/JJ	.	.
!!linebreak:original
=433	=433	=433	=433	=433
!LO:N:vis=8	!	!	!	!
4e/	16A\LL	8cc/	8a\	.
.	16B\	.	.	.
.	16A\	8aa 8cc/	8a\	.
.	16G\JJ	.	.	.
8d/L	16F#X\LL	8dd/L	4r	.
.	16G\	.	.	.
8e-X/J	16A\	8cc/J	.	.
.	16F#\JJ	.	.	.
=434	=434	=434	=434	=434
8d/	16G\LL	8b/L	8r	.
.	16A\	.	.	.
!LO:N:vis=4	!	!	!LO:N:vis=4	!
8g/	16G\	8gg/J	8b\	.
.	16F#X\JJ	.	.	.
8c/L	16E\LL	8gg/	8cc\L	.
.	16F#\	.	.	.
16e/L	16G\	8r	8b\J	.
16d/JJ	16E\JJ	.	.	.
=435	=435	=435	=435	=435
8c/L	16F#X\LL	8a/L	8.a\L	.
.	16G\	.	.	.
8A/J	16F#\	8cc/J	.	.
.	16E\JJ	.	16g\Jk	.
4B/	4D#X\	16b/LL	4f#X\	.
.	.	16cc/	.	.
.	.	16b/	.	.
.	.	16a/JJ	.	.
=436	=436	=436	=436	=436
8B/L	16E\LL	8g/L	2e\	.
.	16F#X\	.	.	.
8G/J	16E\	8b/J	.	.
.	16D\JJ	.	.	.
16A/LL	4C\	4a/	.	.
16B/	.	.	.	.
16A/	.	.	.	.
16G/JJ	.	.	.	.
=437	=437	=437	=437	=437
8F/L	2D\	16a/LL	2f\	.
.	.	16ff/	.	.
8G/	.	16ee/	.	.
.	.	16dd/JJ	.	.
8A/	.	16cc/LL	.	.
.	.	16ee/	.	.
16B/L	.	16dd/	.	.
16c/JJ	.	16cc/JJ	.	.
=438	=438	=438	=438	=438
8f/	2D\	4b/	16f\LL	.
.	.	.	16e\	.
(8G/	.	.	16f\	.
.	.	.	16g\JJ	.
4f/)	.	16cc/LL	16a\LL	.
.	.	16dd/	16b\	.
.	.	16ee/	16cc\	.
.	.	16ff/JJ	16dd\JJ	.
!!linebreak:original
=439	=439	=439	=439	=439
8e/L	[2E\	2gg/	16cc\LL	.
.	.	.	16dd\	.
8A/J	.	.	16cc\	.
.	.	.	16b\JJ	.
8B/L	.	.	16a\LL	.
.	.	.	16cc\	.
16c/L	.	.	16b\	.
16d/JJ	.	.	16a\JJ	.
=440	=440	=440	=440	=440
8e/L	8E\]	16gg/LL	8g\L	.
.	.	16ff/	.	.
8e/J	8r	16ee/	8g\J	.
.	.	16gg/JJ	.	.
16d/LL	4r	8ff/L	8a\L	.
16e/	.	.	.	.
16f/	.	8ff/J	8a\J	.
16d/JJ	.	.	.	.
=441	=441	=441	=441	=441
8g/L	4r	16ff/LL	8b\L	.
.	.	16ee/	.	.
8g/J	.	16dd/	8b\J	.
.	.	16ff/JJ	.	.
8g/L	16C\LL	8ee/L	8cc\L	.
.	16D\	.	.	.
8e/J	16E\	8ee/J	8g\J	.
.	16C\JJ	.	.	.
=442	=442	=442	=442	=442
4c/	8F\L	16ee/LL	4a\	.
.	.	16dd/	.	.
.	8F\J	16cc/	.	.
.	.	16ee/JJ	.	.
8B/L	4BB\	4dd/	16b\LL	.
.	.	.	16cc\	.
8d/J	.	.	16b\	.
.	.	.	16a\JJ	.
=443	=443	=443	=443	=443
16e/LL	4E\	8dd/L	4g#X\	.
16f/	.	.	.	.
16e/	.	16cc/L	.	.
16d/JJ	.	16b/JJ	.	.
16c/LL	8A\L	8a/	8a\	.
16B/	.	.	.	.
16c/	8AA\J	8r	8ryy	.
16a/JJ	.	.	.	.
*v	*v	*	*	*
=444	=444	=444	=444
8BB\L	2r	16g\LL	.
.	.	16a\	.
8d\J	.	16g\	.
.	.	16f\JJ	.
8c\L	.	16e\LL	.
.	.	16d\	.
8C\J	.	16e\	.
.	.	16cc\JJ	.
!!linebreak:original
=445	=445	=445	=445
*^	*	*	*
2r	8D\L	2r	16b\LL	.
.	.	.	16cc\	.
.	8f\J	.	16b\	.
.	.	.	16a\JJ	.
.	8e\L	.	16g#X\LL	.
.	.	.	16a\	.
.	8B\J	.	16b\	.
.	.	.	16cc\JJ	.
=446	=446	=446	=446	=446
2r	4E\	4r	16dd\LL	.
.	.	.	16cc\	.
.	.	.	16dd\	.
.	.	.	16b\JJ	.
.	8A\	8r	16cc\LL	.
.	.	.	16dd\	.
.	8r	8ee/	16cc\	.
.	.	.	16b\JJ	.
=447	=447	=447	=447	=447
4rd	4r	4aa/	16a\LL	.
.	.	.	16b\	.
.	.	.	16cc\	.
.	.	.	16a\JJ	.
8rd	4r	8.gg/L	16b\LL	.
.	.	.	16cc\	.
8B/	.	.	16b\	.
.	.	16ff#X/Jk	16a\JJ	.
=448	=448	=448	=448	=448
2rEE	4e/	(<16ee/LL	[4g\	.
.	.	16dd#X/	.	.
.	.	16ee/	.	.
.	.	16ff#X/JJ	.	.
.	16e/LL	8gg/)	4g\]	.
.	16f/	.	.	.
.	16e/	8gg/	.	.
.	16d/JJ	.	.	.
=449	=449	=449	=449	=449
16c/LL	4r	4ccc/	4ee\	.
16d/	.	.	.	.
16e/	.	.	.	.
16f/JJ	.	.	.	.
8g/L	8r	16bb/LL	8dd\L	.
.	.	16aa/	.	.
8f/J	8D\	16gg/	8cc\J	.
.	.	16ff#X/JJ	.	.
=450	=450	=450	=450	=450
4g/	16G\LL	4gg/	4b\	.
.	16F#X\	.	.	.
.	16G\	.	.	.
.	16A\JJ	.	.	.
8r	16B\LL	8ree	8re	.
.	16A\	.	.	.
!LO:N:vis=4	!	!	!	!
8g/	16B\	8gg/	8b\	.
.	16G\JJ	.	.	.
*v	*v	*	*	*
*	*v	*v	*
!!pagebreak:original
=451	=451	=451
16GG\LL	2fff 2ddd 2ff/	.
16AA\	.	.
16BB\	.	.
16D\JJ	.	.
16G\LL	.	.
16A\	.	.
16B\	.	.
16g\JJ	.	.
=452	=452	=452
16c\LL	8eeeL 8ccc 8ee/	.
16B\	.	.
16c\	8ddd 8bb 8dd/	.
16d\JJ	.	.
16e\LL	8ccc 8aa 8cc/	.
16d#X\	.	.
16e\	8bbJ 8gg#X 8b/	.
16E\JJ	.	.
=453	=453	=453
16A\LL	8cccL 8aa 8cc/	.
16G#X\	.	.
16A\	8bb 8gg 8b-X/	.
16B-X\JJ	.	.
16c\LL	8aa 8ff 8a/	.
16B-\	.	.
16c\	8ggJ 8ee 8g/	.
16C\JJ	.	.
=454	=454	=454
16D\LL	8ffL 8dd 8f/	.
16C#X\	.	.
16D\	8ee 8cc 8e/	.
16E\JJ	.	.
16F\LL	8dd 8b 8d/	.
16E\	.	.
16F\	8ccJ 8a 8c/	.
16F#X\JJ	.	.
=455	=455	=455
*	*^	*
*	*	*^	*
4G\	8b/L	16g\LL	4B\	.
.	.	16a\	.	.
.	8b/	16g\	.	.
.	.	16f\JJ	.	.
4GG/	8cc/	16e\LL	4ryy	.
.	.	16d\	.	.
.	8cc/J	16e\	.	.
.	.	16c\JJ	.	.
*	*	*v	*v	*
=456	=456	=456	=456
*^	*	*	*
8B/L	16G\LL	8dd/L	4g\	.
.	16A\	.	.	.
8B/J	16G\	8dd/J	.	.
.	16F\JJ	.	.	.
8c/L	16E\LL	4gg/	4g\	.
.	16D\	.	.	.
8c/J	16E 16C\	.	.	.
.	16C\JJ	.	.	.
!!linebreak:original
=457	=457	=457	=457	=457
4c/	2D\	16ff/LL	4a\	.
.	.	16gg/	.	.
.	.	16ff/	.	.
.	.	16ee/JJ	.	.
*	*	*v	*v	*
*	*	*8va	*
*	*	*^	*
4r	.	8aaa/	16ddd/LL	.
.	.	.	16ccc/	.
*	*	*v	*v	*
*	*	*X8va	*
*	*	*^	*
.	.	8r	16b/	.
.	.	.	16a/JJ	.
=458	=458	=458	=458	=458
4G/	2GG\	16b/LL	4f\	.
.	.	16cc/	.	.
.	.	16b/	.	.
.	.	16a/JJ	.	.
*	*	*v	*v	*
*	*	*8va	*
*	*	*^	*
4r	.	8bbb/	16gg/LL	.
.	.	.	16ff/	.
*	*	*v	*v	*
*	*	*X8va	*
*	*	*^	*
.	.	8r	16e/	.
.	.	.	16d/JJ	.
*v	*v	*	*	*
*	*v	*v	*
=459	=459	=459
*	*8va	*
*^	*^	*
4E/	4C\	16cccc/LL	4cc/	.
.	.	16aaa/	.	.
.	.	16ggg/	.	.
.	.	16eee/JJ	.	.
4rGG	4rG	16ccc/LL	4r	.
.	.	16aa/	.	.
.	.	16gg/	.	.
.	.	16ee/JJ	.	.
*v	*v	*	*	*
*	*v	*v	*
*	*X8va	*
=460	=460	=460
*^	*^	*
4rGG	4rG	4r	16cc\LL	.
.	.	.	16a\	.
.	.	.	16g\	.
.	.	.	16e\JJ	.
16c/LL	4r	8r	4ryy	.
16A/	.	.	.	.
(<16G/	.	8g/	.	.
16E/JJ)	.	.	.	.
=461	=461	=461	=461	=461
4G/	2C\	8cc/L	16e\LL	.
.	.	.	16d\	.
.	.	8cc/J	16e\	.
.	.	.	16c\JJ	.
16B/LL	.	8dd/L	8g\L	.
16A/	.	.	.	.
16B/	.	8dd/J	8f\J	.
16G/JJ	.	.	.	.
!!linebreak:original
=462	=462	=462	=462	=462
[4c/	16C\LL	8.ee/L	4e\	.
.	16BB\	.	.	.
.	16C\	.	.	.
.	16D\JJ	16dd/Jk	.	.
4c/]	8E\L	16cc/LL	4g\	.
.	.	16dd/	.	.
.	8C\J	16ee/	.	.
.	.	16gg/JJ	.	.
*v	*v	*	*	*
*	*v	*v	*
=463	=463	=463
8f:> 8A:> 8D:\	16ff/LL	.
.	16gg/	.
8a\	16ff/	.
.	16ee/JJ	.
8B: 8D: 8GG:\	16dd/LL	.
.	16ee/	.
8g>\	16ff/	.
.	16dd/JJ	.
=464	=464	=464
8e: 8G: 8C:\	16ee/LL	.
.	16ff/	.
8g>\	16ee/	.
.	16dd/JJ	.
8A: 8C: 8FF:\	16cc/LL	.
.	16dd/	.
8c>\	16ee/	.
.	16cc/JJ	.
=465	=465	=465
8d: 8F: 8BB:\	16dd/LL	.
.	16ee/	.
8f>\	16dd/	.
.	16cc/JJ	.
8G#X: 8BB: 8EE:\	16b/LL	.
.	16cc/	.
8e>\	16dd/	.
.	16b/JJ	.
=466	=466	=466
*^	*^	*
4c 4E 4AA\	4ryy	8cc/L	16a\LL	.
.	.	.	16b\	.
.	.	8cc/J	16a\	.
.	.	.	16g\JJ	.
4D:\	4re	4ccc/	16f#X\LL	.
.	.	.	16e\	.
.	.	.	16f#\	.
.	.	.	16d\JJ	.
=467	=467	=467	=467	=467
8B/L	16G\LL	8bb/L	8g\	.
.	16A\	.	.	.
8B/J	16G\	8aa/J	8r	.
.	16F#X\JJ	.	.	.
!!linebreak:original
=-	=-	=-	=-	=-
4b/	16E\LL	4gg/	4r	.
.	16D#X\	.	.	.
.	16E\	.	.	.
.	16BB\JJ	.	.	.
*	*	*v	*v	*
=468	=468	=468	=468
4e/	16C\LL	8eee/L	.
.	16BB\	.	.
.	16C\	8ccc/	.
.	16D\JJ	.	.
4d/	16E\LL	8bb/	.
.	16D\	.	.
.	16E\	8aa/J	.
.	16F#X\JJ	.	.
=469	=469	=469	=469
*	*	*^	*
[2d/	16G\LL	4bb/	8dd\L	.
.	16F#X\	.	.	.
.	16G\	.	8b\	.
.	16A\JJ	.	.	.
.	16B\LL	4ddd/	8a\	.
.	16A\	.	.	.
.	16B\	.	8g\J	.
.	16c\JJ	.	.	.
=470	=470	=470	=470	=470
2d/]	8d\L	2rdd	16f#X\LL	.
.	.	.	16e\	.
.	8B\	.	16f#\	.
.	.	.	16g\JJ	.
.	8A\	.	16a\LL	.
.	.	.	16g\	.
.	8G\J	.	16a\	.
.	.	.	16b\JJ	.
=471	=471	=471	=471	=471
16c/LL	8E\	2r	[4cc\	.
16B/	.	.	.	.
16c/	4AA\	.	.	.
16d/JJ	.	.	.	.
16e/LL	.	.	4cc\]	.
16d/	.	.	.	.
16e/	8D\	.	.	.
16f#X/JJ	.	.	.	.
=472	=472	=472	=472	=472
16g/LL	8E\L	4r	4b\	.
16f#X/	.	.	.	.
16e/	8GG\	.	.	.
16d/JJ	.	.	.	.
16c/LL	8AA\	8r	4cc\	.
16B/	.	.	.	.
16A/	8C\J	8aa/	.	.
16G/JJ	.	.	.	.
!!linebreak:original
=473	=473	=473	=473	=473
8F#X/	16D\LL	8eee/L	4a\	.
.	16C#X\	.	.	.
8r	16D\	8ccc/	.	.
.	16E\JJ	.	.	.
8r	16D\LL	8bb/	8b\L	.
.	16Cn\	.	.	.
8D/	16BB\	8aa/J	8f#X\J	.
.	16AA\JJ	.	.	.
=474	=474	=474	=474	=474
8G/L	16BB\LL	8gg/L	4g\	.
.	16AA\	.	.	.
8G/J	16BB\	8ee/	.	.
.	16GG\JJ	.	.	.
8A/L	16F#X\LL	8dd/	4r	.
.	16E\	.	.	.
8A/J	16F#\	8cc/J	.	.
.	16D\JJ	.	.	.
=475	=475	=475	=475	=475
8.B/L	16G\LL	2r	8b/L	.
.	16D\	.	.	.
.	16E\	.	8cc/J	.
16A/Jk	16F#X\JJ	.	.	.
16G/LL	4G\	.	8b/	.
16A/	.	.	.	.
16B/	.	.	8r	.
16d/JJ	.	.	.	.
=476	=476	=476	=476	=476
16c/LL	4E\	4ree	8re	.
16d/	.	.	.	.
16c/	.	.	8e\	.
16B/JJ	.	.	.	.
16A/LL	4F#X\	8r	[4a\	.
16B/	.	.	.	.
16c/	.	8ee/	.	.
16A/JJ	.	.	.	.
=477	=477	=477	=477	=477
16B/LL	4D\	8aa/L	8a\L]	.
16c/	.	.	.	.
16B/	.	16gg/L	8cc\J	.
16A/JJ	.	16ff#X/JJ	.	.
16G/LL	4E\	8gg/L	8b\L	.
16A/	.	.	.	.
16B/	.	8ee/J	8g\J	.
16G/JJ	.	.	.	.
=478	=478	=478	=478	=478
16A/LL	4C\	8ee/L	8g\L	.
16B/	.	.	.	.
16A/	.	8cc/	8e\	.
16G/JJ	.	.	.	.
16F#X/LL	4D\	8b/	8d\	.
16G/	.	.	.	.
16A/	.	8a/J	8c\J	.
16F#/JJ	.	.	.	.
!!linebreak:original
=479	=479	=479	=479	=479
[4F#X/	16D#X\LL	8b/L	4.A\	.
.	16E\	.	.	.
.	16D#\	8a/	.	.
.	16C#X\JJ	.	.	.
4F#/]	16BB\LL	8g/	.	.
.	16C#\	.	.	.
.	16D#\	8f#X/J	8A\	.
.	16BB\JJ	.	.	.
=480	=480	=480	=480	=480
!	!LO:N:vis=4	!	!	!
4.E/	8E\	16g/LL	8G\L	.
.	.	16a/	.	.
!	!LO:N:vis=4	!	!	!
.	8BB\	16g/	8d#X\	.
.	.	16f#X/JJ	.	.
.	8EE\	16g/LL	[8e\J	.
.	.	16a/	.	.
8d/	8r	16b/	8e\]	.
.	.	16g/JJ	.	.
=481	=481	=481	=481	=481
16c/LL	4AA\	2cc/	2e\	.
16d/	.	.	.	.
16c/	.	.	.	.
16B/JJ	.	.	.	.
16A/LL	4C\	.	.	.
16B/	.	.	.	.
16A/	.	.	.	.
16G/JJ	.	.	.	.
=482	=482	=482	=482	=482
4F#X/	2D\	4cc/	16a\LL	.
.	.	.	16b\	.
.	.	.	16a\	.
.	.	.	16g\JJ	.
4A/	.	4ff#X/	16a\LL	.
.	.	.	16b\	.
.	.	.	16cc\	.
.	.	.	16a\JJ	.
=483	=483	=483	=483	=483
4B/	4GG\	16ffn/LL	4g\	.
.	.	16gg/	.	.
.	.	16ff/	.	.
.	.	16ee/JJ	.	.
8c/L	4r	16dd/LL	8a-X\L	.
.	.	16ee/	.	.
8c/J	.	16ff/	8a-\J	.
.	.	16dd/JJ	.	.
=484	=484	=484	=484	=484
4B/	4G\	16ff/LL	4g\	.
.	.	16gg/	.	.
.	.	16ff/	.	.
.	.	16ee/JJ	.	.
4A-X/	4r	16dd/LL	4c\	.
.	.	16ee/	.	.
.	.	16ff/	.	.
.	.	16dd/JJ	.	.
!!pagebreak:original
=485	=485	=485	=485	=485
4G/	4.ryy	16ff/LL	4B\	.
.	.	16gg/	.	.
.	.	16ff/	.	.
.	.	16ee/JJ	.	.
4B/	.	16dd/LL	4g\	.
.	.	16ee/	.	.
.	8GG\	16ff/	.	.
.	.	16dd/JJ	.	.
=486	=486	=486	=486	=486
4c/	8C\L	16ee/LL	[4g\	.
.	.	16dd/	.	.
.	8C\J	16ee/	.	.
.	.	16cc/JJ	.	.
4f/	8D\L	16b/LL	4g\]	.
.	.	16a/	.	.
.	8D\J	16b/	.	.
.	.	16g/JJ	.	.
=487	=487	=487	=487	=487
16e/LL	8.E\L	4cc/	2g\	.
16d/	.	.	.	.
16e/	.	.	.	.
16f/JJ	16D\Jk	.	.	.
4e/	16C\LL	4ee/	.	.
.	16D\	.	.	.
.	16E\	.	.	.
.	16G\JJ	.	.	.
=488	=488	=488	=488	=488
8c/L	16F\LL	8a/L	8f\	.
.	16G\	.	.	.
8a/J	16F\	8aa/J	8cc\	.
.	16E\JJ	.	.	.
8g/L	16D\LL	8ff/L	8dd\L	.
.	16E\	.	.	.
8d/J	16F\	8b/J	8g\J	.
.	16D\JJ	.	.	.
=489	=489	=489	=489	=489
8c/L	16E\LL	8cc/L	8g\L	.
.	16F\	.	.	.
8g/J	16E\	8gg/J	8b\J	.
.	16D\JJ	.	.	.
8g/L	16C\LL	8ee/L	8cc\L	.
.	16D\	.	.	.
8c/J	16E\	8a/J	8f\J	.
.	16C\JJ	.	.	.
=490	=490	=490	=490	=490
8B/L	16DLL 16BB\	8b/L	8f\L	.
.	16E\	.	.	.
8f/J	16D\	8ff/J	8a\J	.
.	16C\JJ	.	.	.
4f/	16BB\LL	8ff/L	4g\	.
.	16C\	.	.	.
.	16D\	16ee/L	.	.
.	16BB\JJ	16dd/JJ	.	.
!!linebreak:original
=491	=491	=491	=491	=491
4ryy	16C\LL	8ee/L	4g 4e\	.
.	16BB\	.	.	.
.	16C\	8cc/J	.	.
.	16D\JJ	.	.	.
4c/	16E\LL	8b/L	4d\	.
.	16D\	.	.	.
.	16E\	8a/J	.	.
.	16F#X\JJ	.	.	.
=492	=492	=492	=492	=492
16B/LL	4G\	8b/L	8d\	.
16A/	.	.	.	.
16B/	.	8a/J	4r	.
16c/JJ	.	.	.	.
16d/LL	4BB\	8g/L	.	.
16c#X/	.	.	.	.
16d/	.	8f#X/J	8r	.
16d#X/JJ	.	.	.	.
*	*	*v	*v	*
=493	=493	=493	=493
8e/L	4.E\	16g/LL	.
.	.	16f#X/	.
8d/	.	16g/	.
.	.	16a/JJ	.
8c#X/	.	16b/LL	.
.	.	16a/	.
8cn/J	8E-X\	16b/	.
.	.	16cc/JJ	.
=494	=494	=494	=494
*	*	*^	*
8B/L	8D\L	16dd/LL	4g\	.
.	.	16cc#X/	.	.
8A#X/	8C#X\	16dd/	.	.
.	.	16ee/JJ	.	.
8An/J	8Cn\	16ff#X/LL	4a\	.
.	.	16ee/	.	.
8B/	8BB\J	16dd#X/	.	.
.	.	16ff#/JJ	.	.
=495	=495	=495	=495	=495
8e/L	2EE\	16gg/LL	4g\	.
.	.	16ff#X/	.	.
8e/J	.	16gg/	.	.
.	.	16ee/JJ	.	.
8f#X/L	.	16dd#X/LL	4a\	.
.	.	16cc#X/	.	.
8f#/J	.	16dd#/	.	.
.	.	16b/JJ	.	.
*v	*v	*	*	*
=496	=496	=496	=496
8.g/L	16ee/LL	4g\	.
.	16dd#X/	.	.
.	16ee/	.	.
16f#X/Jk	16ff#X/JJ	.	.
16e/LL	8gg/L	8g\L	.
16f#/	.	.	.
16g/	8ee/J	8b\J	.
16a/JJ	.	.	.
!!linebreak:original
=497	=497	=497	=497
4c 4E 4AA\	8ee/	16cc\LL	.
.	.	16dd\	.
.	4ee/	16cc\	.
.	.	16b\JJ	.
8r	.	16a\LL	.
.	.	16b\	.
8d\	8ccc 8ff#X/	16cc\	.
.	.	16a\JJ	.
=498	=498	=498	=498
8B 8D 8GG\	8dd/	16b\LL	.
.	.	16cc\	.
4r	4dd/	16b\	.
.	.	16a\JJ	.
.	.	16g\LL	.
.	.	16a\	.
8c\	8bb 8ee/	16b\	.
.	.	16g\JJ	.
=499	=499	=499	=499
4A 4C 4FF#X\	8cc/	16a\LL	.
.	.	16b\	.
.	4cc/	16a\	.
.	.	16g\JJ	.
8r	.	16f#X\LL	.
.	.	16g\	.
8B\	8aa 8dd#X/	16a\	.
.	.	16f#\JJ	.
=500	=500	=500	=500
8eL 8E\	16gg/LL	8ee 8g\	.
.	16ff#X/	.	.
8d 8D\	16ee/	4g 4e\	.
.	16dd#X/JJ	.	.
8c 8C\	16ee/LL	.	.
.	16ddn/	.	.
8G#XJ 8GG#X\	16cc/	8e 8d\	.
.	16b/JJ	.	.
=501	=501	=501	=501
*^	*	*	*
8ryy	8AL 8AA\	16cc/LL	8e 8c\	.
.	.	16b/	.	.
4A/	8Gn 8GGn\	16a/	4c\	.
.	.	16g#X/JJ	.	.
.	8F#X 8FF#X\	16a/LL	.	.
.	.	16gn/	.	.
8G/	8C#XJ 8CC#X\	16f#X/	8B-X\	.
.	.	16e/JJ	.	.
=502	=502	=502	=502	=502
16F#X/LL	8DL 8DD\	16d/LL	8A\	.
16E/	.	16c#X/	.	.
16F#/	8C#X 8CC#X\	16d/	8r	.
16G/JJ	.	16e/JJ	.	.
16A/LL	8Cn 8CCn\	16f#X/LL	4r	.
16B/	.	16g/	.	.
16c/	8BBJ 8BBB\	16a/	.	.
16d/JJ	.	16b/JJ	.	.
!!linebreak:original
=503	=503	=503	=503	=503
16e/LL	8AAL 8AAA\	16cc/LL	4r	.
16d/	.	16b/	.	.
16c/	8GGJ 8GGG\	16a/	.	.
16d/JJ	.	16b/JJ	.	.
*v	*v	*	*	*
*	*v	*v	*
*8ba	*	*
*^	*^	*
16E/LL	8FF#XL 8FFF#X\	16cc/LL	8r	.
16F#X/	.	16dd/	.	.
16G/	8DDJ 8DDD\	16ee/	8cc\	.
*X8ba	*	*	*	*
16a/JJ	.	16ff#X/JJ	.	.
*v	*v	*	*	*
=504	=504	=504	=504
8GGL 8GGG\	8ggL 8dd/	16b\LL	.
.	.	16a\	.
8GG 8GGG\	8ggJ 8dd/	16b\	.
.	.	16g\JJ	.
8AA 8AAA\	8ddL 8cc/	16f#X\LL	.
.	.	16e\	.
8AAJ 8AAA\	8ddJ 8cc/	16f#\	.
.	.	16d\JJ	.
=505	=505	=505	=505
8.BBL 8.BBB\	8dd 8b/	16g\LL	.
.	.	16f#X\	.
.	4r	16g\	.
16AAJk 16AAA\	.	16a\JJ	.
8GG#XL 8GGG#X\	.	16b\LL	.
.	.	16cc\J	.
8EEJ 8EEE\	16ee/LL	8ddJ 8b\	.
.	16gg#X/JJ	.	.
=506	=506	=506	=506
8AAL 8AAA\	8aaL 8ee/	16cc\LL	.
.	.	16b\	.
8AAJ 8AAA\	8aaJ 8ee/	16cc\	.
.	.	16a\JJ	.
8BBL 8BBB\	8eeL 8dd/	16g#X\LL	.
.	.	16f#X\	.
8BBJ 8BBB\	8eeJ 8dd/	16g#\	.
.	.	16e\JJ	.
=507	=507	=507	=507
8.CL 8.CC\	4ee 4cc/	16a\LL	.
.	.	16g#X\	.
.	.	16a\	.
16BBJk 16BBB\	.	16b\JJ	.
8AAL 8AAA\	8r	16cc\LL	.
.	.	16dd\	.
8CJ 8CC\	16ee/LL	16cc\	.
.	16gg/JJ	16b-X\JJ	.
=508	=508	=508	=508
16FF\LL	8ff/L	8aL 8f\	.
16GG\	.	.	.
16AA\	8ff/	8a 8f\	.
16F\JJ	.	.	.
16C\LL	8gg/	8ee 8g\	.
16D\	.	.	.
16E\	8gg/J	8eeJ 8g\	.
16c\JJ	.	.	.
!!linebreak:original
=509	=509	=509	=509
*^	*	*	*
8.a/L	16F\LL	8.aa/L	8.ff\L	.
.	16G\	.	.	.
.	16A\	.	.	.
16g/Jk	16c\JJ	16gg/Jk	16b-X\Jk	.
4f/	16f\LL	16ff/LL	8a\	.
.	16A\	16gg/	.	.
.	16G\	16aa/	8ryy	.
.	16E\JJ	16ccc#X/JJ	.	.
=510	=510	=510	=510	=510
8d/L	[2D\	8ddd/	16d\LL	.
.	.	.	16e\	.
8d/J	.	8r	16f\	.
.	.	.	16dd\JJ	.
8e/L	.	4r	16a\LL	.
.	.	.	16b\	.
8e/J	.	.	16cc#X\	.
.	.	.	16aa\JJ	.
=511	=511	=511	=511	=511
8.f/L	2D\]	2r	16dd\LL	.
.	.	.	16cc#X\	.
.	.	.	16dd\	.
16e/Jk	.	.	16ee\JJ	.
16d/LL	.	.	8ff\L	.
16e/	.	.	.	.
16f/	.	.	8a\J	.
16g/JJ	.	.	.	.
*v	*v	*	*	*
=512	=512	=512	=512
4d 4F 4BB\	16ddd/LL	4aa\	.
.	16eee/	.	.
.	16fff/	.	.
.	16ggg/JJ	.	.
4ryy	4r	16ddLL 16a\	.
.	.	16ee\	.
.	.	16ff\	.
.	.	16aa\JJ	.
*	*v	*v	*
=513	=513	=513
*^	*	*
16D/LL	4BB\	8ffL 8dd 8f/	.
16E/	.	.	.
16F/	.	8ffJ 8f/	.
16A/JJ	.	.	.
16E\LL	4ryy	8gg#XL 8g#X/	.
16D\	.	.	.
16BB\	.	8gg#J 8g#/	.
16EE\JJ	.	.	.
*v	*v	*	*
=514	=514	=514
*	*^	*
4c 4E 4AA\	16aaLL 16ee 16a/	4ryy	.
.	16bb/	.	.
.	16ccc/	.	.
.	16eee/JJ	.	.
4r	4r	16aLL 16e\	.
.	.	16b\	.
.	.	16cc\	.
.	.	16ee\JJ	.
*	*v	*v	*
!!linebreak:original
=515	=515	=515
*^	*	*
16AA/LL	4FF#X\	8ccL 8c/	.
16BB/	.	.	.
16C/	.	8ccJ 8c/	.
16E/JJ	.	.	.
16BB\LL	4ryy	8dd#XL 8d#X/	.
16AA\	.	.	.
16FFn\	.	8dd#J 8d#/	.
16BBB\JJ	.	.	.
=516	=516	=516	=516
*	*	*^	*
4G#X 4BB 4EE\	4ryy	4ee 4g#X/	16e\LL	.
.	.	.	16d#X\	.
.	.	.	16e\	.
.	.	.	16f#X\JJ	.
4e\	[4EE\	4r	16g#\LL	.
.	.	.	16f#\	.
.	.	.	16g#\	.
.	.	.	16e\JJ	.
=517	=517	=517	=517	=517
4d#X/	2EE\_	4r	16f#X\LL	.
.	.	.	16e\	.
.	.	.	16f#\	.
.	.	.	16a\JJ	.
4dn/	.	4ee/	16g#X\LL	.
.	.	.	16f#\	.
.	.	.	16g#\	.
.	.	.	16b\JJ	.
=518	=518	=518	=518	=518
4c/	2EE\_	4aa/	16a\LL	.
.	.	.	16g#X\	.
.	.	.	16a\	.
.	.	.	16cc\JJ	.
4B/	.	4bb/	16dd\LL	.
.	.	.	16ee\	.
.	.	.	16ff#X\	.
.	.	.	16gg#X\JJ	.
=519	=519	=519	=519	=519
4A/	2EE\]	4ccc/	16aa\LL	.
.	.	.	16gg#X\	.
.	.	.	16aa\	.
.	.	.	16bb\JJ	.
4G/	.	4ryy	16ccc\LL	.
.	.	.	16aa\	.
.	.	.	16aa\	.
.	.	.	16bb\JJ	.
=520	=520	=520	=520	=520
4F/	2EE\	4aaa/	16ccc\LL	.
.	.	.	16bb\	.
.	.	.	16aa\	.
.	.	.	16bb\JJ	.
4E/	.	4aaa/	16ccc\LL	.
.	.	.	16bb\	.
.	.	.	16aa\	.
.	.	.	16bb\JJ	.
*v	*v	*	*	*
*	*v	*v	*
=	=	=
*-	*-	*-
!!!system-decoration: {g1,g2}
!!!RDF**kern: > = above
!!!RDF**kern: < = below
!!!ENC: Katarzyna Serwa
!!!END: 2021-11-14
!!!ENC: Filip Voros
!!!END: 2021-11-09
!!!YEC: Copyright 2022 Narodowy Instytut Fryderyka Chopina (https://polishscores.org)
!!!YEM: Licence CC BY 4.0 (https://creativecommons.org/licenses/by/4.0)
